; generated by PrusaSlicer 2.6.0+linux-x64-GTK3 on 2023-07-30 at 10:29:01 UTC


;
;
; 

; external perimeters extrusion width = 0.60mm
; perimeters extrusion width = 0.50mm
; infill extrusion width = 0.50mm
; solid infill extrusion width = 0.50mm
; top infill extrusion width = 0.45mm
; support material extrusion width = 0.38mm
; first layer extrusion width = 0.42mm

M73 P0 R126
M73 Q0 S127
M201 X1000 Y1000 Z200 E5000 ; sets maximum accelerations, mm/sec^2
M203 X200 Y200 Z12 E120 ; sets maximum feedrates, mm / sec
M204 S1250 T1250 ; sets acceleration (S) and retract acceleration (R), mm/sec^2
M205 X8.00 Y8.00 Z0.40 E4.50 ; sets the jerk limits, mm/sec
M205 S0 T0 ; sets the minimum extruding and travel feed rate, mm/sec
;TYPE:Custom
M862.3 P "MK3S" ; printer model check
M862.1 P0.4 ; nozzle diameter check
M115 U3.12.2 ; tell printer latest fw version
G90 ; use absolute coordinates
M83 ; extruder relative mode
M104 S230 ; set extruder temp
M140 S85 ; set bed temp
M190 S85 ; wait for bed temp
M109 S230 ; wait for extruder temp
G28 W ; home all without mesh bed level
G80 ; mesh bed leveling

G1 Z0.2 F720
G1 Y-3 F1000 ; go outside print area
G92 E0
G1 X60 E9 F1000 ; intro line
G1 X100 E12.5 F1000 ; intro line

G92 E0
M221 S95

; Don't change E values below. Excessive value can damage the printer.

M907 E538 ; set extruder motor current
G21 ; set units to millimeters
G90 ; use absolute coordinates
M83 ; use relative distances for extrusion
M900 K0.08 ; Filament gcode LA 1.5
M900 K45 ; Filament gcode LA 1.0
M107
;LAYER_CHANGE
;Z:0.2
;HEIGHT:0.2
;BEFORE_LAYER_CHANGE
G92 E0.0
;0.2


G1 E-1 F2100
G1 Z.2 F720
;AFTER_LAYER_CHANGE
;0.2
G1 Z.4
G1 X78.386 Y79.905 F10800
G1 Z.2 F720
G1 E1 F2100
M204 S800
;TYPE:Skirt/Brim
;WIDTH:0.42
G1 F1200
G1 X79.769 Y78.912 E.05338
G1 X84.398 Y77.7 E.15003
G1 X85 Y77.623 E.01903
G1 X165 Y77.623 E2.50834
G1 X165.602 Y77.7 E.01903
M73 Q0 S126
G1 X170.231 Y78.912 E.15003
G1 X171.396 Y79.622 E.04278
G1 X172.006 Y81.212 E.0534
G1 X172.006 Y98.685 E.54785
M73 P0 R125
G1 X171.255 Y100.419 E.05925
G1 X134.205 Y135.154 E1.59236
G1 X132.579 Y135.797 E.05482
G1 X117.421 Y135.797 E.47527
G1 X115.795 Y135.154 E.05482
G1 X78.745 Y100.419 E1.59236
G1 X77.994 Y98.685 E.05925
G1 X77.994 Y81.212 E.54785
G1 X78.368 Y79.962 E.04091
M204 S1000
; printing object R203-ChassisCorner.stl id:0 copy 0
;WIPE_START
G1 F8640
G1 X79.769 Y78.912 E-.40426
G1 X82.265 Y78.259 E-.59574
;WIPE_END
G1 Z.4 F720
G1 X84.43 Y98.685 F10800
G1 Z.2 F720
G1 E1 F2100
M204 S800
;TYPE:Support material
G1 F1200
G1 X80.371 Y98.685 E.12727
G1 X80.371 Y81.212 E.54785
G1 X84.43 Y81.212 E.12727
G1 X84.43 Y98.629 E.5461
M204 S1000
G1 X83.94 Y98.516 F10800
M204 S800
G1 F1200
G1 X83.94 Y81.551 E.53193
G1 X83.521 Y81.551 E.01314
G1 X83.521 Y98.346 E.5266
G1 X83.102 Y98.346 E.01314
G1 X83.102 Y81.551 E.5266
G1 X82.683 Y81.551 E.01314
G1 X82.683 Y98.346 E.5266
G1 X82.264 Y98.346 E.01314
G1 X82.264 Y81.551 E.5266
G1 X81.845 Y81.551 E.01314
G1 X81.845 Y98.346 E.5266
G1 X81.426 Y98.346 E.01314
G1 X81.426 Y81.551 E.5266
G1 X81.007 Y81.551 E.01314
G1 X81.007 Y98.516 E.53193
M204 S1000
;WIPE_START
G1 F8640
G1 X81.007 Y94.185 E-1
;WIPE_END
G1 Z.4 F720
G1 X123.316 Y92.79 F10800
G1 Z.2 F720
G1 E1 F2100
M204 S800
G1 F1200
G1 X126.684 Y92.79 E.1056
G1 X126.684 Y83.28 E.29818
G1 X127.208 Y83.432 E.01711
G1 X127.85 Y83.683 E.02161
G1 X128.161 Y83.833 E.01083
G1 X128.761 Y84.18 E.02173
G1 X129.322 Y84.583 E.02166
G1 X129.586 Y84.805 E.01082
G1 X130.081 Y85.287 E.02166
G1 X130.309 Y85.546 E.01082
G1 X130.524 Y85.816 E.01082
G1 X130.913 Y86.387 E.02166
G1 X131.244 Y86.993 E.02165
G1 X131.386 Y87.309 E.01086
G1 X131.622 Y87.957 E.02162
G1 X131.716 Y88.29 E.01085
G1 X131.792 Y88.627 E.01083
G1 X131.895 Y89.31 E.02166
G1 X131.921 Y89.655 E.01085
G1 X131.921 Y90.345 E.02163
G1 X131.895 Y90.69 E.01085
G1 X131.792 Y91.373 E.02166
G1 X131.716 Y91.71 E.01083
G1 X131.512 Y92.37 E.02166
G1 X131.386 Y92.692 E.01084
G1 X131.086 Y93.314 E.02165
G1 X130.913 Y93.613 E.01083
G1 X130.524 Y94.184 E.02166
G1 X130.081 Y94.713 E.02163
G1 X129.838 Y94.961 E.01089
G1 X129.585 Y95.196 E.01083
G1 X129.045 Y95.627 E.02166
G1 X128.465 Y96.002 E.02166
G1 X127.85 Y96.317 E.02167
G1 X127.532 Y96.451 E.01082
G1 X126.877 Y96.671 E.02166
G1 X126.542 Y96.756 E.01084
G1 X125.862 Y96.876 E.02165
G1 X125.518 Y96.91 E.01084
G1 X125.173 Y96.928 E.01083
G1 X124.482 Y96.91 E.02167
G1 X124.138 Y96.876 E.01084
G1 X123.458 Y96.756 E.02165
G1 X123.123 Y96.671 E.01084
G1 X122.468 Y96.451 E.02166
G1 X121.839 Y96.167 E.02164
G1 X121.535 Y96.001 E.01086
G1 X120.955 Y95.627 E.02164
G1 X120.679 Y95.418 E.01085
G1 X120.162 Y94.961 E.02164
G1 X119.919 Y94.712 E.01091
G1 X119.476 Y94.184 E.02161
G1 X119.274 Y93.904 E.01083
G1 X119.087 Y93.613 E.01085
G1 X118.756 Y93.007 E.02165
G1 X118.614 Y92.692 E.01083
G1 X118.378 Y92.043 E.02165
G1 X118.284 Y91.71 E.01085
G1 X118.148 Y91.033 E.02165
G1 X118.105 Y90.69 E.01084
G1 X118.07 Y90 E.02166
G1 X118.105 Y89.31 E.02166
G1 X118.148 Y88.967 E.01084
G1 X118.208 Y88.627 E.01083
G1 X118.378 Y87.957 E.02167
G1 X118.614 Y87.308 E.02165
G1 X118.757 Y86.993 E.01085
G1 X119.087 Y86.386 E.02166
G1 X119.476 Y85.816 E.02164
G1 X119.919 Y85.287 E.02163
G1 X120.416 Y84.803 E.02175
G1 X120.956 Y84.373 E.02164
G1 X121.535 Y83.999 E.02161
G1 X122.15 Y83.683 E.02168
G1 X122.793 Y83.431 E.02165
G1 X123.316 Y83.28 E.01707
G1 X123.316 Y92.733 E.29639
M204 S1000
G1 X131.285 Y92.485 F10800
M204 S800
G1 F1200
G1 X131.285 Y88.019 E.14003
G1 X131.073 Y87.44 E.01933
G1 X130.866 Y87 E.01525
G1 X130.866 Y93 E.18813
G1 X130.624 Y93.436 E.01564
G1 X130.447 Y93.71 E.01023
G1 X130.447 Y86.29 E.23265
G1 X130.028 Y85.74 E.02168
G1 X130.028 Y94.26 E.26714
G1 X129.609 Y94.71 E.01928
G1 X129.609 Y85.29 E.29536
G1 X129.19 Y84.915 E.01763
G1 X129.19 Y95.085 E.31887
G1 X128.771 Y95.403 E.01649
G1 X128.771 Y84.597 E.33881
G1 X128.352 Y84.327 E.01563
G1 X128.352 Y95.673 E.35575
G1 X127.933 Y95.9 E.01494
G1 X127.933 Y84.1 E.36998
G1 X127.514 Y83.91 E.01443
G1 X127.514 Y96.09 E.3819
G1 X127.095 Y96.248 E.01404
G1 X127.095 Y83.752 E.3918
G1 X127.023 Y83.729 E.00237
G1 X127.023 Y93.129 E.29473
G1 X126.676 Y93.129 E.01088
G1 X126.676 Y96.372 E.10168
G1 X126.257 Y96.468 E.01348
G1 X126.257 Y93.129 E.10469
G1 X125.838 Y93.129 E.01314
G1 X125.838 Y96.536 E.10682
G1 X125.419 Y96.576 E.0132
G1 X125.419 Y93.129 E.10808
G1 X125 Y93.129 E.01314
G1 X125 Y96.588 E.10845
G1 X124.581 Y96.576 E.01314
G1 X124.581 Y93.129 E.10808
G1 X124.162 Y93.129 E.01314
G1 X124.162 Y96.536 E.10682
G1 X123.743 Y96.468 E.01331
G1 X123.743 Y93.129 E.10469
G1 X123.324 Y93.129 E.01314
G1 X123.324 Y96.372 E.10168
G1 X122.905 Y96.248 E.0137
G1 X122.905 Y83.752 E.3918
G1 X122.592 Y83.865 E.01043
G1 X122.486 Y83.91 E.00361
G1 X122.486 Y96.09 E.3819
G1 X122.067 Y95.9 E.01443
G1 X122.067 Y84.1 E.36998
G1 X121.648 Y84.327 E.01494
G1 X121.648 Y95.673 E.35575
G1 X121.229 Y95.403 E.01563
G1 X121.229 Y84.597 E.33881
G1 X120.81 Y84.915 E.01649
G1 X120.81 Y95.085 E.31887
G1 X120.391 Y94.71 E.01763
G1 X120.391 Y85.29 E.29536
G1 X119.972 Y85.74 E.01928
G1 X119.972 Y94.26 E.26714
G1 X119.553 Y93.71 E.02168
G1 X119.553 Y86.29 E.23265
G1 X119.377 Y86.563 E.01018
G1 X119.134 Y87 E.01568
G1 X119.134 Y93 E.18813
G1 X118.927 Y92.56 E.01525
G1 X118.715 Y91.981 E.01933
G1 X118.715 Y87.515 E.14003
M204 S1000
;WIPE_START
G1 F8640
G1 X118.715 Y91.846 E-1
;WIPE_END
G1 Z.4 F720
G1 X125.11 Y130.57 F10800
G1 Z.2 F720
G1 E1 F2100
M204 S800
G1 F1200
G1 X132.579 Y130.57 E.23419
G1 X132.579 Y133.42 E.08936
G1 X117.421 Y133.42 E.47527
G1 X117.421 Y130.57 E.08936
G1 X125.054 Y130.57 E.23933
M204 S1000
G1 X132.123 Y133.25 F10800
M204 S800
G1 F1200
G1 X132.123 Y130.909 E.0734
G1 X131.704 Y130.909 E.01314
G1 X131.704 Y133.08 E.06807
G1 X131.285 Y133.08 E.01314
G1 X131.285 Y130.909 E.06807
G1 X130.866 Y130.909 E.01314
G1 X130.866 Y133.08 E.06807
G1 X130.447 Y133.08 E.01314
G1 X130.447 Y130.909 E.06807
G1 X130.028 Y130.909 E.01314
G1 X130.028 Y133.08 E.06807
G1 X129.609 Y133.08 E.01314
G1 X129.609 Y130.909 E.06807
G1 X129.19 Y130.909 E.01314
G1 X129.19 Y133.08 E.06807
G1 X128.771 Y133.08 E.01314
G1 X128.771 Y130.909 E.06807
G1 X128.352 Y130.909 E.01314
G1 X128.352 Y133.08 E.06807
G1 X127.933 Y133.08 E.01314
G1 X127.933 Y130.909 E.06807
G1 X127.514 Y130.909 E.01314
G1 X127.514 Y133.08 E.06807
G1 X127.095 Y133.08 E.01314
G1 X127.095 Y130.909 E.06807
G1 X126.676 Y130.909 E.01314
G1 X126.676 Y133.08 E.06807
G1 X126.257 Y133.08 E.01314
G1 X126.257 Y130.909 E.06807
G1 X125.838 Y130.909 E.01314
G1 X125.838 Y133.08 E.06807
G1 X125.419 Y133.08 E.01314
G1 X125.419 Y130.909 E.06807
G1 X125.107 Y130.909 E.00978
G1 X125 Y130.909 E.00335
G1 X125 Y133.08 E.06807
G1 X124.581 Y133.08 E.01314
G1 X124.581 Y130.909 E.06807
G1 X124.162 Y130.909 E.01314
G1 X124.162 Y133.08 E.06807
G1 X123.743 Y133.08 E.01314
G1 X123.743 Y130.909 E.06807
G1 X123.324 Y130.909 E.01314
G1 X123.324 Y133.08 E.06807
G1 X122.905 Y133.08 E.01314
G1 X122.905 Y130.909 E.06807
G1 X122.486 Y130.909 E.01314
G1 X122.486 Y133.08 E.06807
G1 X122.067 Y133.08 E.01314
G1 X122.067 Y130.909 E.06807
G1 X121.648 Y130.909 E.01314
G1 X121.648 Y133.08 E.06807
G1 X121.229 Y133.08 E.01314
G1 X121.229 Y130.909 E.06807
G1 X120.81 Y130.909 E.01314
G1 X120.81 Y133.08 E.06807
G1 X120.391 Y133.08 E.01314
G1 X120.391 Y130.909 E.06807
G1 X119.972 Y130.909 E.01314
G1 X119.972 Y133.08 E.06807
G1 X119.553 Y133.08 E.01314
G1 X119.553 Y130.909 E.06807
G1 X119.134 Y130.909 E.01314
G1 X119.134 Y133.08 E.06807
G1 X118.715 Y133.08 E.01314
G1 X118.715 Y130.909 E.06807
G1 X118.296 Y130.909 E.01314
G1 X118.296 Y133.08 E.06807
G1 X117.877 Y133.08 E.01314
G1 X117.877 Y130.74 E.07337
M204 S1000
;WIPE_START
G1 F8640
G1 X117.877 Y133.08 E-.54031
G1 X118.296 Y133.08 E-.09675
G1 X118.296 Y131.508 E-.36294
;WIPE_END
G1 Z.4 F720
G1 X169.629 Y98.685 F10800
G1 Z.2 F720
G1 E1 F2100
M204 S800
G1 F1200
G1 X165.57 Y98.685 E.12727
G1 X165.57 Y81.212 E.54785
G1 X169.629 Y81.212 E.12727
G1 X169.629 Y98.629 E.5461
M204 S1000
G1 X168.993 Y98.516 F10800
M204 S800
G1 F1200
G1 X168.993 Y81.551 E.53193
G1 X168.574 Y81.551 E.01314
G1 X168.574 Y98.346 E.5266
G1 X168.155 Y98.346 E.01314
G1 X168.155 Y81.551 E.5266
G1 X167.736 Y81.551 E.01314
G1 X167.736 Y98.346 E.5266
G1 X167.317 Y98.346 E.01314
G1 X167.317 Y81.551 E.5266
G1 X166.898 Y81.551 E.01314
G1 X166.898 Y98.346 E.5266
G1 X166.479 Y98.346 E.01314
G1 X166.479 Y81.551 E.5266
G1 X166.06 Y81.551 E.01314
G1 X166.06 Y98.516 E.53193
M204 S1000
;WIPE_START
G1 F8640
G1 X166.06 Y94.185 E-1
;WIPE_END
G1 Z.4 F720
G1 X127.369 Y99.499 F10800
G1 Z.2 F720
G1 E1 F2100
M204 S800
;TYPE:Perimeter
;WIDTH:0.419999
G1 F1200
G1 X128.216 Y99.25 E.02768
G1 X129.123 Y98.883 E.03068
G1 X129.986 Y98.429 E.03057
G1 X130.633 Y98.012 E.02413
G1 X131.14 Y97.62 E.02009
G1 X131.557 Y97.274 E.01699
G1 X132.112 Y96.733 E.0243
G1 X132.869 Y95.83 E.03695
G1 X133.41 Y95.018 E.03059
G1 X133.868 Y94.155 E.03063
G1 X134.238 Y93.251 E.03063
G1 X134.501 Y92.375 E.02868
G1 X134.779 Y92.395 E.00874
G1 X162.705 Y92.395 E.8756
G1 X162.705 Y97.705 E.16649
G1 X159.946 Y97.705 E.08651
G1 X158.712 Y97.736 E.0387
G1 X157.375 Y97.832 E.04203
G1 X155.945 Y98.008 E.04517
G1 X154.625 Y98.24 E.04202
G1 X153.417 Y98.511 E.03882
G1 X152.14 Y98.862 E.04152
G1 X150.854 Y99.283 E.04243
G1 X149.508 Y99.802 E.04523
G1 X148.284 Y100.348 E.04202
G1 X147.103 Y100.945 E.04149
G1 X146.012 Y101.562 E.0393
G1 X144.878 Y102.277 E.04203
G1 X143.7 Y103.107 E.04518
G1 X142.705 Y103.884 E.03958
G1 X141.695 Y104.753 E.04178
G1 X141.323 Y105.104 E.01604
G1 X140.401 Y106.011 E.04055
G1 X139.525 Y106.959 E.04047
G1 X138.869 Y107.724 E.0316
G1 X138.107 Y108.7 E.03882
G1 X137.333 Y109.793 E.04199
G1 X136.615 Y110.924 E.042
G1 X135.952 Y112.088 E.042
G1 X135.348 Y113.284 E.04201
G1 X134.802 Y114.508 E.04202
G1 X134.318 Y115.757 E.042
G1 X133.895 Y117.028 E.042
G1 X133.536 Y118.319 E.04201
G1 X133.24 Y119.625 E.04199
G1 X133.008 Y120.945 E.04202
G1 X132.842 Y122.274 E.04199
G1 X132.736 Y123.712 E.04521
G1 X132.705 Y124.997 E.0403
G1 X132.705 Y127.705 E.08491
M73 Q0 S125
G1 X127.395 Y127.705 E.16649
G1 X127.395 Y100.141 E.86425
G1 X127.372 Y99.559 E.01826
M204 S1000
M73 P0 R124
G1 X126.9 Y99.219 F10800
M204 S800
G1 F1200
G1 X127.569 Y99.051 E.02163
G1 X128.078 Y98.899 E.01666
G1 X128.951 Y98.548 E.0295
G1 X129.782 Y98.112 E.02942
G1 X130.428 Y97.695 E.02411
G1 X130.905 Y97.326 E.01891
G1 X131.294 Y97.004 E.01583
G1 X131.848 Y96.463 E.02428
G1 X132.557 Y95.618 E.03459
G1 X133.079 Y94.838 E.02943
G1 X133.521 Y94.009 E.02946
G1 X133.878 Y93.14 E.02946
G1 X134.104 Y92.405 E.02411
G1 X134.22 Y91.877 E.01695
G1 X134.502 Y91.996 E.0096
G1 X134.779 Y92.018 E.00871
G1 X163.082 Y92.018 E.88742
G1 X163.082 Y98.082 E.19013
G1 X159.956 Y98.082 E.09801
G1 X158.721 Y98.113 E.03873
G1 X157.403 Y98.208 E.04143
G1 X156.009 Y98.38 E.04404
G1 X154.708 Y98.607 E.04141
G1 X153.5 Y98.879 E.03882
G1 X152.241 Y99.225 E.04094
G1 X150.972 Y99.641 E.04187
G1 X149.737 Y100.115 E.04148
G1 X148.453 Y100.684 E.04403
G1 X147.289 Y101.273 E.0409
G1 X146.198 Y101.89 E.0393
G1 X145.08 Y102.595 E.04144
G1 X143.932 Y103.404 E.04403
M73 Q1 S125
G1 X142.904 Y104.209 E.04094
M73 P1 R124
G1 X141.955 Y105.027 E.03928
G1 X141.583 Y105.378 E.01604
G1 X140.674 Y106.271 E.03995
G1 X139.81 Y107.205 E.03989
G1 X139.166 Y107.956 E.03102
G1 X138.355 Y108.998 E.0414
G1 X137.595 Y110.08 E.04146
G1 X136.89 Y111.197 E.04142
G1 X136.241 Y112.348 E.04143
G1 X135.649 Y113.529 E.04142
G1 X135.115 Y114.737 E.04141
G1 X134.642 Y115.971 E.04144
G1 X134.229 Y117.226 E.04143
G1 X133.899 Y118.419 E.03881
G1 X133.607 Y119.708 E.04144
G1 X133.38 Y121.009 E.04141
G1 X133.216 Y122.32 E.04143
G1 X133.117 Y123.638 E.04144
G1 X133.082 Y124.956 E.04134
G1 X133.082 Y128.082 E.09801
G1 X127.018 Y128.082 E.19013
G1 X127.018 Y100.141 E.87607
G1 X126.989 Y99.466 E.02118
G1 X126.92 Y99.275 E.00637
M204 S1000
G1 X126.304 Y98.941 F10800
M204 S800
G1 F1200
G1 X127.077 Y98.798 E.02465
G1 X127.94 Y98.548 E.02817
G1 X128.778 Y98.212 E.02831
G1 X129.577 Y97.795 E.02826
G1 X130.33 Y97.301 E.02824
G1 X130.932 Y96.822 E.02412
G1 X131.303 Y96.469 E.01606
G1 X131.672 Y96.099 E.01638
G1 X132.246 Y95.405 E.02824
G1 X132.748 Y94.657 E.02825
G1 X133.173 Y93.862 E.02826
G1 X133.517 Y93.029 E.02826
G1 X133.777 Y92.166 E.02826
G1 X133.94 Y91.339 E.02643
G1 X133.997 Y91.385 E.0023
G1 X134.563 Y91.624 E.01926
G1 X134.779 Y91.641 E.00679
G1 X163.459 Y91.641 E.89924
G1 X163.459 Y98.459 E.21377
G1 X159.965 Y98.459 E.10955
G1 X158.73 Y98.489 E.03873
G1 X157.431 Y98.584 E.04084
G1 X156.138 Y98.742 E.04084
G1 X154.79 Y98.975 E.04289
G1 X153.52 Y99.262 E.04082
G1 X152.28 Y99.607 E.04036
G1 X151.09 Y99.999 E.03928
G1 X149.873 Y100.467 E.04088
G1 X148.682 Y100.993 E.04082
G1 X147.474 Y101.601 E.0424
G1 X146.327 Y102.252 E.04135
G1 X145.282 Y102.914 E.03879
G1 X144.216 Y103.663 E.04085
G1 X143.18 Y104.469 E.04116
G1 X141.843 Y105.651 E.05595
G1 X140.947 Y106.531 E.03938
G1 X140.096 Y107.451 E.03929
G1 X139.463 Y108.188 E.03046
G1 X138.663 Y109.216 E.04084
G1 X137.914 Y110.282 E.04085
G1 X137.218 Y111.383 E.04084
G1 X136.578 Y112.517 E.04083
G1 X135.993 Y113.682 E.04087
G1 X135.467 Y114.873 E.04082
G1 X135 Y116.089 E.04084
G1 X134.593 Y117.327 E.04086
G1 X134.262 Y118.52 E.03882
G1 X133.975 Y119.79 E.04082
G1 X133.751 Y121.074 E.04087
G1 X133.59 Y122.366 E.04082
G1 X133.493 Y123.665 E.04084
G1 X133.459 Y124.965 E.04077
G1 X133.459 Y128.459 E.10955
G1 X126.641 Y128.459 E.21377
G1 X126.641 Y99.779 E.89924
G1 X126.588 Y99.408 E.01175
G1 X126.335 Y98.992 E.01527
M204 S1000
G1 X125.59 Y98.88 F10800
M204 S800
;WIDTH:0.555561
G1 F1200
G1 X125.466 Y98.818 E.00591
;WIDTH:0.600748
G1 X125.321 Y98.745 E.00753
G1 X125.522 Y98.707 E.00949
;WIDTH:0.555561
G1 X125.723 Y98.668 E.00873
;WIDTH:0.510374
G1 X125.924 Y98.629 E.00796
;WIDTH:0.465187
G1 X126.125 Y98.59 E.00719
;WIDTH:0.419999
G1 X126.974 Y98.435 E.02706
G1 X127.803 Y98.197 E.02704
G1 X128.606 Y97.877 E.0271
G1 X129.291 Y97.526 E.02413
G1 X129.74 Y97.241 E.01667
G1 X130.355 Y96.8 E.02373
G1 X130.767 Y96.465 E.01665
G1 X131.383 Y95.857 E.02714
G1 X131.934 Y95.193 E.02705
