; generated by PrusaSlicer 2.6.0+linux-x64-GTK3 on 2023-08-04 at 04:59:17 UTC


;
;
; 

; external perimeters extrusion width = 0.60mm
; perimeters extrusion width = 0.50mm
; infill extrusion width = 0.50mm
; solid infill extrusion width = 0.50mm
; top infill extrusion width = 0.45mm
; support material extrusion width = 0.38mm
; first layer extrusion width = 0.42mm

M73 P0 R81
M73 Q0 S82
M201 X1000 Y1000 Z200 E5000 ; sets maximum accelerations, mm/sec^2
M203 X200 Y200 Z12 E120 ; sets maximum feedrates, mm / sec
M204 S1250 T1250 ; sets acceleration (S) and retract acceleration (R), mm/sec^2
M205 X8.00 Y8.00 Z0.40 E4.50 ; sets the jerk limits, mm/sec
M205 S0 T0 ; sets the minimum extruding and travel feed rate, mm/sec
;TYPE:Custom
M862.3 P "MK3S" ; printer model check
M862.1 P0.4 ; nozzle diameter check
M115 U3.12.2 ; tell printer latest fw version
G90 ; use absolute coordinates
M83 ; extruder relative mode
M104 S230 ; set extruder temp
M140 S85 ; set bed temp
M190 S85 ; wait for bed temp
M109 S230 ; wait for extruder temp
G28 W ; home all without mesh bed level
G80 ; mesh bed leveling

G1 Z0.2 F720
G1 Y-3 F1000 ; go outside print area
G92 E0
G1 X60 E9 F1000 ; intro line
G1 X100 E12.5 F1000 ; intro line

G92 E0
M221 S95

; Don't change E values below. Excessive value can damage the printer.

M907 E538 ; set extruder motor current
G21 ; set units to millimeters
G90 ; use absolute coordinates
M83 ; use relative distances for extrusion
M900 K0.08 ; Filament gcode LA 1.5
M900 K45 ; Filament gcode LA 1.0
M107
;LAYER_CHANGE
;Z:0.2
;HEIGHT:0.2
;BEFORE_LAYER_CHANGE
G92 E0.0
;0.2


G1 E-1 F2100
G1 Z.2 F720
;AFTER_LAYER_CHANGE
;0.2
G1 Z.4
G1 X103.857 Y93.798 F10800
G1 Z.2 F720
G1 E1 F2100
M204 S800
;TYPE:Skirt/Brim
;WIDTH:0.42
G1 F1200
G1 X104.903 Y92.922 E.04278
G1 X105.843 Y92.728 E.03009
G1 X144.157 Y92.728 E1.20131
G1 X145.464 Y93.12 E.04278
G1 X146.34 Y94.166 E.04278
G1 X146.534 Y95.105 E.03006
G1 X146.534 Y114.895 E.6205
G1 X146.143 Y116.202 E.04277
G1 X145.097 Y117.078 E.04278
G1 X144.157 Y117.272 E.03009
G1 X105.843 Y117.272 E1.20131
G1 X104.536 Y116.88 E.04278
M73 Q0 S81
G1 X103.66 Y115.834 E.04278
G1 X103.466 Y114.895 E.03006
G1 X103.466 Y95.105 E.6205
G1 X103.84 Y93.856 E.04088
M204 S1000
; printing object R205-Hub-Rear-x2.stl id:0 copy 0
;WIPE_START
G1 F8640
G1 X104.903 Y92.922 E-.32674
G1 X105.843 Y92.728 E-.22162
G1 X107.799 Y92.728 E-.45164
;WIPE_END
G1 Z.4 F720
G1 X112.93 Y97.444 F10800
G1 Z.2 F720
G1 E1 F2100
M204 S800
;TYPE:Support material
G1 F1200
G1 X110.264 Y97.444 E.08359
G1 X109.93 Y97.778 E.01481
G1 X109.93 Y98.118 E.01066
G1 X109.93 Y112.222 E.44222
G1 X110.264 Y112.556 E.01481
G1 X112.93 Y112.556 E.08359
G1 X112.93 Y114.895 E.07334
G1 X105.843 Y114.895 E.22221
G1 X105.843 Y95.105 E.6205
G1 X112.93 Y95.105 E.22221
G1 X112.93 Y97.388 E.07158
M204 S1000
;WIPE_START
G1 F8640
G1 X112.93 Y95.105 E-.52715
G1 X110.882 Y95.105 E-.47285
;WIPE_END
G1 Z.4 F720
G1 X111.159 Y98.614 F10800
G1 X111.1 Y111.386
G1 X112.167 Y111.386
G1 X112.431 Y114.725
G1 Z.2 F720
G1 E1 F2100
M204 S800
G1 F1200
G1 X112.431 Y112.895 E.05738
G1 X112.012 Y112.895 E.01314
G1 X112.012 Y114.555 E.05205
G1 X111.593 Y114.555 E.01314
G1 X111.593 Y112.895 E.05205
G1 X111.174 Y112.895 E.01314
G1 X111.174 Y114.555 E.05205
G1 X110.755 Y114.555 E.01314
G1 X110.755 Y112.895 E.05205
G1 X110.336 Y112.895 E.01314
G1 X110.336 Y114.555 E.05205
G1 X109.917 Y114.555 E.01314
G1 X109.917 Y112.689 E.05851
G1 X109.591 Y112.363 E.01446
G1 X109.591 Y98.179 E.44473
G1 X109.591 Y97.637 E.01699
G1 X109.917 Y97.311 E.01446
G1 X109.917 Y95.445 E.05851
G1 X110.336 Y95.445 E.01314
G1 X110.336 Y97.105 E.05205
G1 X110.755 Y97.105 E.01314
G1 X110.755 Y95.445 E.05205
G1 X111.174 Y95.445 E.01314
G1 X111.174 Y97.105 E.05205
G1 X111.593 Y97.105 E.01314
G1 X111.593 Y95.445 E.05205
G1 X112.012 Y95.445 E.01314
G1 X112.012 Y97.105 E.05205
G1 X112.431 Y97.105 E.01314
G1 X112.431 Y95.275 E.05738
M204 S1000
;WIPE_START
G1 F8640
G1 X112.431 Y97.105 E-.42255
G1 X112.012 Y97.105 E-.09675
G1 X112.012 Y95.445 E-.3833
G1 X111.593 Y95.445 E-.09675
G1 X111.593 Y95.448 E-.00065
;WIPE_END
G1 Z.4 F720
G1 X111.249 Y98.614 F10800
G1 X111.1 Y98.614
G1 X111.1 Y99.985
G1 X109.498 Y114.725
G1 Z.2 F720
G1 E1 F2100
M204 S800
G1 F1200
G1 X109.498 Y95.445 E.60451
G1 X109.079 Y95.445 E.01314
G1 X109.079 Y114.555 E.59918
G1 X108.66 Y114.555 E.01314
G1 X108.66 Y95.445 E.59918
G1 X108.241 Y95.445 E.01314
G1 X108.241 Y114.555 E.59918
G1 X107.822 Y114.555 E.01314
G1 X107.822 Y95.445 E.59918
G1 X107.403 Y95.445 E.01314
G1 X107.403 Y114.555 E.59918
G1 X106.984 Y114.555 E.01314
G1 X106.984 Y95.445 E.59918
M73 P0 R80
G1 X106.565 Y95.445 E.01314
G1 X106.565 Y114.725 E.60451
M204 S1000
G1 E-1 F2100
G1 Z.4 F720
G1 X144.157 Y114.895 F10800
G1 Z.2 F720
G1 E1 F2100
M204 S800
G1 F1200
G1 X137.07 Y114.895 E.22221
G1 X137.07 Y112.556 E.07334
G1 X139.736 Y112.556 E.08359
G1 X140.07 Y112.222 E.01481
G1 X140.07 Y97.778 E.45288
G1 X139.736 Y97.444 E.01481
G1 X137.07 Y97.444 E.08359
G1 X137.07 Y95.105 E.07334
G1 X144.157 Y95.105 E.22221
G1 X144.157 Y114.838 E.61871
M204 S1000
G1 X143.435 Y114.725 F10800
M204 S800
G1 F1200
G1 X143.435 Y95.445 E.60451
G1 X143.016 Y95.445 E.01314
G1 X143.016 Y114.555 E.59918
G1 X142.597 Y114.555 E.01314
G1 X142.597 Y95.445 E.59918
G1 X142.178 Y95.445 E.01314
G1 X142.178 Y114.555 E.59918
G1 X141.759 Y114.555 E.01314
G1 X141.759 Y95.445 E.59918
G1 X141.34 Y95.445 E.01314
G1 X141.34 Y114.555 E.59918
G1 X140.921 Y114.555 E.01314
G1 X140.921 Y95.445 E.59918
G1 X140.502 Y95.445 E.01314
G1 X140.502 Y114.555 E.59918
G1 X140.083 Y114.555 E.01314
G1 X140.083 Y112.689 E.05851
G1 X139.877 Y112.895 E.00913
G1 X139.664 Y112.895 E.00668
G1 X139.664 Y114.555 E.05205
G1 X139.245 Y114.555 E.01314
G1 X139.245 Y112.895 E.05205
G1 X138.826 Y112.895 E.01314
G1 X138.826 Y114.555 E.05205
G1 X138.407 Y114.555 E.01314
G1 X138.407 Y112.895 E.05205
G1 X137.988 Y112.895 E.01314
G1 X137.988 Y114.555 E.05205
G1 X137.569 Y114.555 E.01314
G1 X137.569 Y112.726 E.05735
M204 S1000
;WIPE_START
G1 F8640
G1 X137.569 Y114.555 E-.42232
G1 X137.988 Y114.555 E-.09675
G1 X137.988 Y112.895 E-.3833
G1 X138.407 Y112.895 E-.09675
G1 X138.407 Y112.899 E-.00088
;WIPE_END
G1 Z.4 F720
G1 X138.572 Y111.386 F10800
G1 X138.9 Y111.386
G1 X138.9 Y108.384
G1 X140.083 Y97.551
G1 Z.2 F720
G1 E1 F2100
M204 S800
G1 F1200
G1 X140.083 Y95.445 E.06603
G1 X139.664 Y95.445 E.01314
G1 X139.664 Y97.105 E.05205
G1 X139.245 Y97.105 E.01314
G1 X139.245 Y95.445 E.05205
G1 X138.826 Y95.445 E.01314
G1 X138.826 Y97.105 E.05205
G1 X138.407 Y97.105 E.01314
G1 X138.407 Y95.445 E.05205
G1 X137.988 Y95.445 E.01314
G1 X137.988 Y97.105 E.05205
G1 X137.569 Y97.105 E.01314
G1 X137.569 Y95.275 E.05738
M204 S1000
;WIPE_START
G1 F8640
G1 X137.569 Y97.105 E-.42255
G1 X137.988 Y97.105 E-.09675
G1 X137.988 Y95.445 E-.3833
G1 X138.407 Y95.445 E-.09675
G1 X138.407 Y95.448 E-.00065
;WIPE_END
G1 Z.4 F720
G1 X138.14 Y98.614 F10800
G1 X137.205 Y109.691
G1 Z.2 F720
G1 E1 F2100
M204 S800
;TYPE:Perimeter
;WIDTH:0.419999
G1 F1200
G1 X126.775 Y109.691 E.32702
;WIDTH:0.447354
G1 X126.327 Y109.677 E.01507
;WIDTH:0.474708
G1 X125.879 Y109.663 E.01609
G1 X125.109 Y109.685 E.02766
;WIDTH:0.442349
G1 X123.675 Y109.691 E.04763
;WIDTH:0.419999
G1 X112.795 Y109.691 E.34113
G1 X112.795 Y100.309 E.29417
G1 X123.311 Y100.309 E.32972
;WIDTH:0.465784
G1 X124.218 Y100.332 E.0319
G1 X125.115 Y100.316 E.03154
;WIDTH:0.43247
G1 X126.017 Y100.309 E.02922
;WIDTH:0.419999
G1 X137.205 Y100.309 E.35079
G1 X137.205 Y104.281 E.12454
G1 X137.205 Y109.631 E.16775
M204 S1000
G1 X137.582 Y110.068 F10800
M204 S800
G1 F1200
G1 X112.418 Y110.068 E.789
G1 X112.418 Y99.932 E.31781
G1 X137.582 Y99.932 E.789
M73 Q1 S81
G1 X137.582 Y110.008 E.31593
M204 S1000
M73 P1 R80
G1 X137.959 Y110.445 F10800
M204 S800
G1 F1200
G1 X112.041 Y110.445 E.81264
G1 X112.041 Y99.555 E.34145
G1 X137.959 Y99.555 E.81264
G1 X137.959 Y110.385 E.33957
M204 S1000
G1 X138.336 Y110.822 F10800
M204 S800
G1 F1200
G1 X111.664 Y110.822 E.83628
G1 X111.664 Y99.178 E.36509
G1 X138.336 Y99.178 E.83628
G1 X138.336 Y110.762 E.36321
M204 S1000
G1 X138.713 Y111.199 F10800
M204 S800
G1 F1200
G1 X111.287 Y111.199 E.85992
G1 X111.287 Y98.801 E.38873
G1 X138.713 Y98.801 E.85992
G1 X138.713 Y111.139 E.38685
M204 S1000
G1 X139.09 Y111.576 F10800
M204 S800
;TYPE:External perimeter
G1 F1200
G1 X110.91 Y111.576 E.88356
G1 X110.91 Y98.424 E.41237
G1 X139.09 Y98.424 E.88356
G1 X139.09 Y111.516 E.41049
M204 S1000
G1 X138.694 Y111.518 F10800
G1 E-1 F2100
G1 Z.4 F720
G1 X122.855 Y108.695 F10800
G1 Z.2 F720
G1 E1 F2100
M204 S800
;TYPE:Perimeter
G1 F1200
G1 X122.622 Y108.571 E.00828
G1 X121.972 Y108.04 E.02632
G1 X121.437 Y107.389 E.02642
G1 X121.039 Y106.648 E.02637
G1 X120.793 Y105.843 E.02639
G1 X120.73 Y105.413 E.01363
G1 X120.71 Y105.005 E.01281
G1 X120.793 Y104.157 E.02672
G1 X121.044 Y103.34 E.0268
G1 X121.451 Y102.59 E.02676
G1 X121.998 Y101.935 E.02676
G1 X122.666 Y101.4 E.02683
G1 X123.425 Y101.009 E.02677
;WIDTH:0.447124
G1 X123.784 Y100.887 E.01274
;WIDTH:0.474248
G1 X124.142 Y100.765 E.01356
G1 X124.686 Y100.712 E.0196
;WIDTH:0.449008
G1 X125.542 Y100.729 E.02891
G1 X126.373 Y100.935 E.02891
;WIDTH:0.419999
G1 X127.151 Y101.288 E.02679
G1 X127.843 Y101.787 E.02675
G1 X128.326 Y102.286 E.02177
G1 X128.771 Y102.955 E.02519
G1 X129.102 Y103.743 E.0268
G1 X129.27 Y104.58 E.02677
G1 X129.29 Y104.991 E.0129
G1 X129.209 Y105.83 E.02643
G1 X128.966 Y106.636 E.0264
G1 X128.571 Y107.378 E.02636
G1 X128.039 Y108.029 E.02636
G1 X127.39 Y108.563 E.02635
G1 X126.648 Y108.961 E.0264
;WIDTH:0.449823
G1 X126.276 Y109.094 E.01337
;WIDTH:0.479647
G1 X125.903 Y109.227 E.01438
G1 X125.109 Y109.298 E.02895
;WIDTH:0.442349
G1 X124.572 Y109.28 E.01785
;WIDTH:0.475727
G1 X124.163 Y109.236 E.0148
G1 X123.764 Y109.101 E.01516
;WIDTH:0.447863
G1 X123.364 Y108.966 E.01421
;WIDTH:0.419999
G1 X122.908 Y108.723 E.0162
M204 S1000
G1 X122.919 Y108.295 F10800
M204 S800
G1 F1200
G1 X122.498 Y108.01 E.01594
G1 X121.958 Y107.463 E.0241
G1 X121.536 Y106.822 E.02406
G1 X121.247 Y106.111 E.02406
G1 X121.103 Y105.358 E.02404
G1 X121.109 Y104.583 E.0243
G1 X121.268 Y103.821 E.02441
G1 X121.575 Y103.105 E.02443
G1 X122.018 Y102.465 E.0244
G1 X122.58 Y101.924 E.02446
G1 X123.238 Y101.506 E.02444
G1 X123.965 Y101.226 E.02443
G1 X124.734 Y101.095 E.02446
G1 X125.512 Y101.12 E.02441
G1 X126.271 Y101.298 E.02444
G1 X126.979 Y101.624 E.02444
G1 X127.608 Y102.082 E.0244
G1 X128.043 Y102.536 E.01971
G1 X128.45 Y103.151 E.02312
G1 X128.748 Y103.872 E.02446
G1 X128.897 Y104.637 E.02444
G1 X128.892 Y105.409 E.02421
G1 X128.738 Y106.162 E.0241
G1 X128.439 Y106.868 E.02404
G1 X128.009 Y107.503 E.02405
G1 X127.463 Y108.042 E.02406
G1 X126.822 Y108.464 E.02406
G1 X126.111 Y108.753 E.02406
G1 X125.358 Y108.897 E.02404
G1 X124.591 Y108.892 E.02405
G1 X123.839 Y108.738 E.02407
G1 X123.132 Y108.439 E.02407
G1 X122.968 Y108.329 E.00619
M204 S1000
G1 X123.122 Y107.981 F10800
M204 S800
G1 F1200
G1 X122.723 Y107.707 E.01518
G1 X122.238 Y107.21 E.02177
G1 X121.86 Y106.628 E.02176
G1 X121.602 Y105.984 E.02175
G1 X121.476 Y105.302 E.02175
G1 X121.485 Y104.602 E.02195
G1 X121.633 Y103.914 E.02207
G1 X121.915 Y103.269 E.02207
G1 X122.319 Y102.693 E.02206
G1 X122.83 Y102.207 E.02211
G1 X123.426 Y101.832 E.02208
G1 X124.085 Y101.583 E.02209
G1 X124.781 Y101.47 E.02211
G1 X125.484 Y101.496 E.02206
G1 X126.169 Y101.661 E.02209
G1 X126.807 Y101.959 E.02208
G1 X127.373 Y102.377 E.02206
G1 X127.76 Y102.785 E.01763
G1 X128.128 Y103.348 E.02109
G1 X128.393 Y104.001 E.0221
G1 X128.524 Y104.693 E.02208
G1 X128.516 Y105.391 E.02189
G1 X128.372 Y106.07 E.02176
G1 X128.099 Y106.707 E.02173
G1 X127.706 Y107.278 E.02173
G1 X127.21 Y107.762 E.02173
G1 X126.628 Y108.14 E.02176
G1 X125.984 Y108.398 E.02175
G1 X125.302 Y108.524 E.02175
G1 X124.609 Y108.516 E.02173
G1 X123.931 Y108.372 E.02173
G1 X123.293 Y108.098 E.02177
G1 X123.171 Y108.015 E.00463
M204 S1000
G1 X123.4 Y107.715 F10800
M204 S800
G1 F1200
G1 X123.296 Y107.663 E.00365
G1 X122.81 Y107.28 E.0194
G1 X122.407 Y106.808 E.01946
G1 X122.104 Y106.267 E.01944
G1 X121.912 Y105.677 E.01945
G1 X121.849 Y105.247 E.01363
G1 X121.862 Y104.621 E.01963
M73 Q1 S80
G1 X121.999 Y104.007 E.01972
G1 X122.255 Y103.433 E.01971
G1 X122.619 Y102.92 E.01972
G1 X123.079 Y102.489 E.01976
G1 X123.615 Y102.159 E.01974
G1 X124.205 Y101.941 E.01972
G1 X124.828 Y101.844 E.01977
G1 X125.456 Y101.872 E.01971
G1 X126.067 Y102.024 E.01974
G1 X126.635 Y102.295 E.01973
G1 X127.138 Y102.672 E.01971
G1 X127.576 Y103.167 E.02072
G1 X127.888 Y103.714 E.01974
G1 X128.085 Y104.312 E.01974
G1 X128.162 Y104.889 E.01825
G1 X128.112 Y105.555 E.02094
G1 X127.944 Y106.152 E.01945
G1 X127.663 Y106.704 E.01942
G1 X127.279 Y107.19 E.01942
G1 X126.808 Y107.593 E.01944
G1 X126.267 Y107.896 E.01944
G1 X125.702 Y108.084 E.01867
G1 X125.109 Y108.162 E.01875
G1 X124.445 Y108.112 E.02088
G1 X123.848 Y107.944 E.01945
G1 X123.453 Y107.743 E.0139
M204 S1000
G1 X123.575 Y107.387 F10800
M204 S800
G1 F1200
G1 X123.09 Y107.027 E.01894
G1 X122.73 Y106.614 E.01718
G1 X122.459 Y106.14 E.01712
G1 X122.285 Y105.622 E.01713
G1 X122.222 Y105.192 E.01363
G1 X122.238 Y104.64 E.01731
G1 X122.364 Y104.1 E.01739
G1 X122.595 Y103.596 E.01738
G1 X122.92 Y103.148 E.01735
G1 X123.329 Y102.772 E.01742
G1 X123.803 Y102.485 E.01737
G1 X124.325 Y102.298 E.01739
G1 X124.874 Y102.218 E.0174
G1 X125.428 Y102.248 E.0174
G1 X125.965 Y102.387 E.01739
G1 X126.463 Y102.63 E.01737
G1 X126.903 Y102.967 E.01738
G1 X127.254 Y103.364 E.01662
G1 X127.533 Y103.843 E.01738
G1 X127.712 Y104.368 E.01739
G1 X127.785 Y104.889 E.0165
G1 X127.746 Y105.464 E.01807
G1 X127.603 Y105.991 E.01712
G1 X127.36 Y106.479 E.01709
G1 X127.026 Y106.911 E.01712
G1 X126.614 Y107.27 E.01713
G1 X126.14 Y107.541 E.01712
G1 X125.637 Y107.712 E.01666
G1 X125.109 Y107.785 E.01671
G1 X124.537 Y107.746 E.01798
G1 X124.009 Y107.603 E.01715
G1 X123.629 Y107.413 E.01332
M204 S1000
G1 X123.661 Y106.994 F10800
M204 S800
;TYPE:External perimeter
G1 F1200
G1 X123.369 Y106.773 E.01148
G1 X123.054 Y106.42 E.01483
G1 X122.814 Y106.013 E.01481
G1 X122.658 Y105.567 E.01481
G1 X122.595 Y105.137 E.01363
G1 X122.621 Y104.622 E.01617
G1 X122.743 Y104.158 E.01504
G1 X122.954 Y103.728 E.01502
G1 X123.246 Y103.348 E.01503
G1 X123.609 Y103.033 E.01507
G1 X124.026 Y102.796 E.01504
G1 X124.482 Y102.647 E.01504
G1 X124.959 Y102.591 E.01506
G1 X125.437 Y102.631 E.01504
G1 X125.897 Y102.764 E.01501
G1 X126.323 Y102.986 E.01506
G1 X126.692 Y103.284 E.01487
G1 X126.932 Y103.561 E.01149
G1 X127.179 Y103.972 E.01503
G1 X127.339 Y104.424 E.01503
G1 X127.407 Y104.899 E.01505
G1 X127.38 Y105.372 E.01485
G1 X127.262 Y105.83 E.01483
G1 X127.057 Y106.254 E.01477
G1 X126.773 Y106.632 E.01482
G1 X126.42 Y106.946 E.01481
G1 X126.013 Y107.186 E.01481
G1 X125.567 Y107.342 E.01481
G1 X125.1 Y107.407 E.01478
G1 X124.628 Y107.38 E.01482
G1 X124.171 Y107.262 E.0148
G1 X123.709 Y107.03 E.01621
M204 S1000
G1 X123.338 Y107.166 F10800
G1 E-1 F2100
G1 Z.4 F720
G1 X126.568 Y109.341 F10800
G1 Z.2 F720
G1 E1 F2100
M204 S800
;TYPE:Solid infill
G1 F1200
G1 X136.865 Y109.351 E.32285
G1 X136.865 Y100.649 E.27284
G1 X126.569 Y100.649 E.32282
G1 X126.922 Y100.79 E.01192
G1 X127.688 Y101.232 E.02773
G1 X128.343 Y101.795 E.02708
G1 X128.817 Y102.382 E.02366
G1 X129.259 Y103.187 E.02879
G1 X129.533 Y104.067 E.0289
G1 X129.613 Y104.714 E.02044
G1 X129.606 Y105.477 E.02392
G1 X129.435 Y106.326 E.02715
G1 X129.092 Y107.164 E.02839
G1 X128.591 Y107.92 E.02844
G1 X127.952 Y108.565 E.02847
G1 X127.2 Y109.072 E.02844
G1 X126.623 Y109.318 E.01967
M204 S1000
G1 E-1 F2100
G1 Z.4 F720
G1 X128.025 Y108.974 F10800
G1 Z.2 F720
G1 E1 F2100
M204 S800
G1 F1200
G1 X136.488 Y108.974 E.26535
G1 X136.488 Y101.026 E.2492
G1 X128.031 Y101.026 E.26516
G1 X128.59 Y101.51 E.02318
G1 X129.112 Y102.146 E.0258
G1 X129.59 Y103.007 E.03088
G1 X129.894 Y103.956 E.03124
G1 X129.987 Y104.669 E.02254
G1 X129.983 Y105.494 E.02587
G1 X129.804 Y106.401 E.02899
G1 X129.44 Y107.308 E.03064
G1 X128.905 Y108.13 E.03075
G1 X128.219 Y108.831 E.03075
G1 X128.073 Y108.939 E.00569
M204 S1000
