; generated by PrusaSlicer 2.6.1+linux-x64-GTK3 on 2023-11-12 at 00:13:46 UTC


;
;
; 

; external perimeters extrusion width = 0.60mm
; perimeters extrusion width = 0.50mm
; infill extrusion width = 0.50mm
; solid infill extrusion width = 0.50mm
; top infill extrusion width = 0.45mm
; support material extrusion width = 0.38mm
; first layer extrusion width = 0.42mm

M73 P0 R228
M73 Q0 S231
M201 X1000 Y1000 Z200 E5000 ; sets maximum accelerations, mm/sec^2
M203 X200 Y200 Z12 E120 ; sets maximum feedrates, mm / sec
M204 S1250 T1250 ; sets acceleration (S) and retract acceleration (R), mm/sec^2
M205 X8.00 Y8.00 Z0.40 E4.50 ; sets the jerk limits, mm/sec
M205 S0 T0 ; sets the minimum extruding and travel feed rate, mm/sec
;TYPE:Custom
M862.3 P "MK3S" ; printer model check
M862.1 P0.4 ; nozzle diameter check
M115 U3.12.2 ; tell printer latest fw version
G90 ; use absolute coordinates
M83 ; extruder relative mode
M104 S230 ; set extruder temp
M140 S85 ; set bed temp
M190 S85 ; wait for bed temp
M109 S230 ; wait for extruder temp
G28 W ; home all without mesh bed level
G80 ; mesh bed leveling

G1 Z0.2 F720
G1 Y-3 F1000 ; go outside print area
G92 E0
G1 X60 E9 F1000 ; intro line
G1 X100 E12.5 F1000 ; intro line

G92 E0
M221 S95

; Don't change E values below. Excessive value can damage the printer.

M907 E538 ; set extruder motor current
G21 ; set units to millimeters
G90 ; use absolute coordinates
M83 ; use relative distances for extrusion
M900 K0.08 ; Filament gcode LA 1.5
M900 K45 ; Filament gcode LA 1.0
M107
;LAYER_CHANGE
;Z:0.2
;HEIGHT:0.2
;BEFORE_LAYER_CHANGE
G92 E0.0
;0.2


G1 E-1 F2100
G1 Z.2 F720
;AFTER_LAYER_CHANGE
;0.2
G1 Z.4
G1 X86.695 Y50.572 F10800
G1 Z.2 F720
G1 E1 F2100
M204 S800
;TYPE:Skirt/Brim
;WIDTH:0.42
G1 F1200
G1 X87.265 Y49.595 E.03547
G1 X87.637 Y49.112 E.01912
G1 X89.953 Y46.797 E.10267
G1 X91.634 Y46.1 E.05706
G1 X158.366 Y46.1 E2.09234
G1 X160.047 Y46.797 E.05706
G1 X162.363 Y49.112 E.10267
G1 X162.735 Y49.595 E.01912
G1 X178.945 Y77.383 E1.00868
G1 X188.218 Y93.61 E.586
G1 X190.596 Y98.358 E.1665
G1 X190.847 Y99.421 E.03425
G1 X190.847 Y110.579 E.34985
G1 X190.596 Y111.642 E.03425
G1 X188.218 Y116.39 E.1665
G1 X178.945 Y132.617 E.586
G1 X162.735 Y160.405 E1.00868
G1 X162.363 Y160.888 E.01912
G1 X160.047 Y163.203 E.10267
G1 X158.366 Y163.9 E.05706
G1 X91.634 Y163.9 E2.09234
G1 X89.953 Y163.203 E.05706
G1 X87.637 Y160.888 E.10267
G1 X87.265 Y160.405 E.01912
G1 X71.055 Y132.617 E1.00868
G1 X61.782 Y116.39 E.586
G1 X59.404 Y111.642 E.1665
G1 X59.153 Y110.579 E.03425
G1 X59.153 Y99.421 E.34985
G1 X59.404 Y98.358 E.03425
G1 X61.782 Y93.61 E.1665
G1 X71.055 Y77.383 E.586
G1 X86.665 Y50.624 E.97133
M204 S1000
; printing object LoRaGateWay101-Top.stl id:0 copy 0
;WIPE_START
G1 F8640
G1 X87.265 Y49.595 E-.27504
G1 X87.637 Y49.112 E-.14077
G1 X89.426 Y47.323 E-.58419
;WIPE_END
G1 Z.4 F720
G1 X132.895 Y97.105 F10800
G1 Z.2 F720
G1 E1 F2100
M204 S800
;TYPE:Support material
G1 F1200
G1 X135.21 Y97.105 E.07259
G1 X135.21 Y101.737 E.14523
G1 X137.526 Y101.737 E.07262
G1 X137.526 Y108.263 E.20462
G1 X135.21 Y108.263 E.07262
G1 X135.21 Y112.895 E.14523
G1 X132.895 Y112.895 E.07259
G1 X132.895 Y115.21 E.07259
G1 X117.105 Y115.21 E.49508
G1 X117.105 Y112.895 E.07259
G1 X114.79 Y112.895 E.07259
G1 X114.79 Y108.263 E.14523
G1 X112.474 Y108.263 E.07262
G1 X112.474 Y101.737 E.20462
G1 X114.79 Y101.737 E.07262
G1 X114.79 Y97.105 E.14523
G1 X117.105 Y97.105 E.07259
G1 X117.105 Y94.79 E.07259
G1 X132.895 Y94.79 E.49508
G1 X132.895 Y97.049 E.07083
M204 S1000
G1 X123.632 Y103.632 F10800
M204 S800
G1 F1200
G1 X126.368 Y103.632 E.08579
G1 X126.368 Y106.368 E.08579
G1 X123.632 Y106.368 E.08579
G1 X123.632 Y103.689 E.084
M204 S1000
;WIPE_START
G1 F8640
G1 X123.632 Y106.368 E-.61859
G1 X125.284 Y106.368 E-.38141
;WIPE_END
G1 Z.4 F720
G1 X136.851 Y108.094 F10800
G1 Z.2 F720
G1 E1 F2100
M204 S800
G1 F1200
G1 X136.851 Y102.076 E.18869
G1 X136.312 Y102.076 E.0169
G1 X136.312 Y107.924 E.18336
G1 X135.774 Y107.924 E.01687
G1 X135.774 Y102.076 E.18336
G1 X135.235 Y102.076 E.0169
G1 X135.235 Y107.924 E.18336
G1 X134.871 Y107.924 E.01141
G1 X134.871 Y112.555 E.1452
G1 X134.696 Y112.555 E.00549
G1 X134.696 Y97.445 E.47376
G1 X134.158 Y97.445 E.01687
G1 X134.158 Y112.555 E.47376
G1 X133.619 Y112.555 E.0169
G1 X133.619 Y97.445 E.47376
G1 X133.08 Y97.445 E.0169
G1 X133.08 Y112.555 E.47376
G1 X132.555 Y112.555 E.01646
G1 X132.555 Y114.871 E.07262
G1 X132.542 Y114.871 E.00041
G1 X132.542 Y95.129 E.619
G1 X132.003 Y95.129 E.0169
M73 P0 R227
G1 X132.003 Y114.871 E.619
G1 X131.464 Y114.871 E.0169
G1 X131.464 Y95.129 E.619
G1 X130.926 Y95.129 E.01687
G1 X130.926 Y114.871 E.619
G1 X130.387 Y114.871 E.0169
G1 X130.387 Y95.129 E.619
G1 X129.848 Y95.129 E.0169
G1 X129.848 Y114.871 E.619
G1 X129.309 Y114.871 E.0169
G1 X129.309 Y95.129 E.619
G1 X128.771 Y95.129 E.01687
G1 X128.771 Y114.871 E.619
G1 X128.232 Y114.871 E.0169
G1 X128.232 Y95.129 E.619
G1 X127.693 Y95.129 E.0169
G1 X127.693 Y114.871 E.619
G1 X127.155 Y114.871 E.01687
G1 X127.155 Y95.129 E.619
G1 X126.616 Y95.129 E.0169
G1 X126.616 Y114.871 E.619
G1 X126.077 Y114.871 E.0169
G1 X126.077 Y106.707 E.25598
G1 X125.539 Y106.707 E.01687
M73 Q0 S230
G1 X125.539 Y114.871 E.25598
G1 X125 Y114.871 E.0169
G1 X125 Y106.707 E.25598
G1 X124.461 Y106.707 E.0169
G1 X124.461 Y114.871 E.25598
G1 X123.923 Y114.871 E.01687
G1 X123.923 Y106.538 E.26128
M204 S1000
;WIPE_START
G1 F8640
G1 X123.923 Y110.869 E-1
;WIPE_END
G1 Z.4 F720
G1 X126.077 Y103.462 F10800
G1 Z.2 F720
G1 E1 F2100
M204 S800
G1 F1200
G1 X126.077 Y95.129 E.26128
G1 X125.539 Y95.129 E.01687
G1 X125.539 Y103.293 E.25598
G1 X125 Y103.293 E.0169
G1 X125 Y95.129 E.25598
G1 X124.461 Y95.129 E.0169
G1 X124.461 Y103.293 E.25598
G1 X123.923 Y103.293 E.01687
G1 X123.923 Y95.129 E.25598
G1 X123.384 Y95.129 E.0169
G1 X123.384 Y114.871 E.619
G1 X122.845 Y114.871 E.0169
G1 X122.845 Y95.129 E.619
G1 X122.307 Y95.129 E.01687
G1 X122.307 Y114.871 E.619
G1 X121.768 Y114.871 E.0169
G1 X121.768 Y95.129 E.619
G1 X121.229 Y95.129 E.0169
G1 X121.229 Y114.871 E.619
G1 X120.691 Y114.871 E.01687
G1 X120.691 Y95.129 E.619
G1 X120.152 Y95.129 E.0169
G1 X120.152 Y114.871 E.619
G1 X119.613 Y114.871 E.0169
G1 X119.613 Y95.129 E.619
G1 X119.074 Y95.129 E.0169
G1 X119.074 Y114.871 E.619
G1 X118.536 Y114.871 E.01687
G1 X118.536 Y95.129 E.619
G1 X117.997 Y95.129 E.0169
G1 X117.997 Y114.871 E.619
G1 X117.458 Y114.871 E.0169
G1 X117.458 Y95.129 E.619
G1 X117.445 Y95.129 E.00041
G1 X117.445 Y97.445 E.07262
G1 X116.92 Y97.445 E.01646
G1 X116.92 Y112.555 E.47376
G1 X116.381 Y112.555 E.0169
G1 X116.381 Y97.445 E.47376
G1 X115.842 Y97.445 E.0169
G1 X115.842 Y112.555 E.47376
G1 X115.304 Y112.555 E.01687
G1 X115.304 Y97.445 E.47376
G1 X115.129 Y97.445 E.00549
G1 X115.129 Y102.076 E.1452
G1 X114.765 Y102.076 E.01141
G1 X114.765 Y107.924 E.18336
G1 X114.226 Y107.924 E.0169
G1 X114.226 Y102.076 E.18336
G1 X113.688 Y102.076 E.01687
G1 X113.688 Y107.924 E.18336
G1 X113.149 Y107.924 E.0169
G1 X113.149 Y101.906 E.18869
M204 S1000
;WIPE_START
G1 F8640
G1 X113.149 Y106.237 E-1
;WIPE_END
G1 Z.4 F720
G1 X158.366 Y50.793 F10800
G1 Z.2 F720
G1 E1 F2100
M204 S800
G1 F1200
G1 X160.682 Y50.793 E.07262
G1 X160.682 Y55.424 E.1452
G1 X162.998 Y55.424 E.07262
G1 X162.998 Y60.056 E.14523
G1 X165.313 Y60.056 E.07259
G1 X165.313 Y64.687 E.1452
G1 X167.629 Y64.687 E.07262
G1 X167.629 Y67.002 E.07259
G1 X169.944 Y67.002 E.07259
G1 X169.944 Y71.634 E.14523
G1 X172.26 Y71.634 E.07262
G1 X172.26 Y76.265 E.1452
G1 X174.576 Y76.265 E.07262
G1 X174.576 Y78.58 E.07259
G1 X176.891 Y78.58 E.07259
G1 X176.891 Y83.212 E.14523
G1 X179.207 Y83.212 E.07262
G1 X179.207 Y87.843 E.1452
G1 X181.523 Y87.843 E.07262
G1 X181.523 Y92.474 E.1452
G1 X183.838 Y92.474 E.07259
G1 X183.838 Y94.79 E.07262
G1 X186.154 Y94.79 E.07262
G1 X186.154 Y99.421 E.1452
G1 X188.469 Y99.421 E.07259
G1 X188.469 Y110.579 E.34985
G1 X186.154 Y110.579 E.07259
G1 X186.154 Y115.21 E.1452
G1 X183.838 Y115.21 E.07262
G1 X183.838 Y117.526 E.07262
G1 X181.523 Y117.526 E.07259
G1 X181.523 Y122.157 E.1452
G1 X179.207 Y122.157 E.07262
G1 X179.207 Y126.788 E.1452
G1 X176.891 Y126.788 E.07262
G1 X176.891 Y131.42 E.14523
G1 X174.576 Y131.42 E.07259
G1 X174.576 Y133.735 E.07259
G1 X172.26 Y133.735 E.07262
G1 X172.26 Y138.366 E.1452
G1 X169.944 Y138.366 E.07262
G1 X169.944 Y142.998 E.14523
G1 X167.629 Y142.998 E.07259
G1 X167.629 Y145.313 E.07259
G1 X165.313 Y145.313 E.07262
G1 X165.313 Y149.944 E.1452
G1 X162.998 Y149.944 E.07259
G1 X162.998 Y154.576 E.14523
G1 X160.682 Y154.576 E.07262
G1 X160.682 Y159.207 E.1452
G1 X158.366 Y159.207 E.07262
G1 X158.366 Y161.523 E.07262
G1 X91.634 Y161.523 E2.09234
G1 X91.634 Y159.207 E.07262
G1 X89.318 Y159.207 E.07262
G1 X89.318 Y154.576 E.1452
G1 X87.002 Y154.576 E.07262
G1 X87.002 Y149.944 E.14523
G1 X84.687 Y149.944 E.07259
G1 X84.687 Y145.313 E.1452
G1 X82.371 Y145.313 E.07262
G1 X82.371 Y142.998 E.07259
G1 X80.056 Y142.998 E.07259
G1 X80.056 Y138.366 E.14523
G1 X77.74 Y138.366 E.07262
G1 X77.74 Y133.735 E.1452
G1 X75.424 Y133.735 E.07262
G1 X75.424 Y131.42 E.07259
G1 X73.109 Y131.42 E.07259
G1 X73.109 Y126.788 E.14523
G1 X70.793 Y126.788 E.07262
G1 X70.793 Y122.157 E.1452
G1 X68.477 Y122.157 E.07262
G1 X68.477 Y117.526 E.1452
G1 X66.162 Y117.526 E.07259
G1 X66.162 Y115.21 E.07262
G1 X63.846 Y115.21 E.07262
G1 X63.846 Y110.579 E.1452
G1 X61.531 Y110.579 E.07259
G1 X61.531 Y99.421 E.34985
G1 X63.846 Y99.421 E.07259
G1 X63.846 Y94.79 E.1452
G1 X66.162 Y94.79 E.07262
G1 X66.162 Y92.474 E.07262
G1 X68.477 Y92.474 E.07259
G1 X68.477 Y87.843 E.1452
G1 X70.793 Y87.843 E.07262
G1 X70.793 Y83.212 E.1452
G1 X73.109 Y83.212 E.07262
G1 X73.109 Y78.58 E.14523
G1 X75.424 Y78.58 E.07259
G1 X75.424 Y76.265 E.07259
G1 X77.74 Y76.265 E.07262
G1 X77.74 Y71.634 E.1452
G1 X80.056 Y71.634 E.07262
G1 X80.056 Y67.002 E.14523
G1 X82.371 Y67.002 E.07259
G1 X82.371 Y64.687 E.07259
G1 X84.687 Y64.687 E.07262
G1 X84.687 Y60.056 E.1452
G1 X87.002 Y60.056 E.07259
G1 X87.002 Y55.424 E.14523
G1 X89.318 Y55.424 E.07262
G1 X89.318 Y50.793 E.1452
G1 X91.634 Y50.793 E.07262
G1 X91.634 Y48.477 E.07262
G1 X158.366 Y48.477 E2.09234
G1 X158.366 Y50.736 E.07083
M204 S1000
G1 X94.847 Y52.468 F10800
M204 S800
G1 F1200
M73 P0 R226
G1 X155.153 Y52.468 E1.89085
G1 X155.417 Y52.621 E.00957
G1 X185.57 Y104.847 E1.89084
G1 X185.57 Y105.153 E.00959
G1 X155.417 Y157.379 E1.89084
G1 X155.153 Y157.532 E.00957
G1 X94.847 Y157.532 E1.89085
G1 X94.583 Y157.379 E.00957
M73 Q0 S229
G1 X64.43 Y105.153 E1.89084
G1 X64.43 Y104.847 E.00959
G1 X94.583 Y52.621 E1.89084
G1 X94.798 Y52.497 E.00778
M204 S1000
;WIPE_START
G1 F8640
G1 X94.583 Y52.621 E-.05731
G1 X92.542 Y56.157 E-.94269
;WIPE_END
G1 Z.4 F720
G1 X188.026 Y110.409 F10800
G1 Z.2 F720
G1 E1 F2100
M204 S800
G1 F1200
G1 X188.026 Y99.76 E.33389
G1 X187.487 Y99.76 E.0169
G1 X187.487 Y110.24 E.32859
G1 X186.949 Y110.24 E.01687
G1 X186.949 Y99.76 E.32859
G1 X186.41 Y99.76 E.0169
G1 X186.41 Y110.24 E.32859
G1 X185.871 Y110.24 E.0169
G1 X185.871 Y99.76 E.32859
G1 X185.814 Y99.76 E.00179
G1 X185.814 Y95.129 E.1452
G1 X185.333 Y95.129 E.01508
G1 X185.333 Y103.758 E.27056
G1 X184.794 Y102.825 E.03378
G1 X184.794 Y95.129 E.2413
G1 X184.255 Y95.129 E.0169
G1 X184.255 Y101.891 E.21202
G1 X183.717 Y100.958 E.03377
G1 X183.717 Y95.129 E.18276
G1 X183.499 Y95.129 E.00684
G1 X183.499 Y92.814 E.07259
G1 X183.178 Y92.814 E.01006
G1 X183.178 Y100.025 E.2261
G1 X182.639 Y99.092 E.03378
G1 X182.639 Y92.814 E.19684
G1 X182.101 Y92.814 E.01687
G1 X182.101 Y98.159 E.16759
G1 X181.562 Y97.226 E.03378
G1 X181.562 Y92.814 E.13834
G1 X181.183 Y92.814 E.01188
G1 X181.183 Y88.182 E.14523
G1 X181.023 Y88.182 E.00502
G1 X181.023 Y96.293 E.25431
G1 X180.485 Y95.36 E.03377
G1 X180.485 Y88.182 E.22506
G1 X179.946 Y88.182 E.0169
G1 X179.946 Y94.427 E.19581
G1 X179.407 Y93.494 E.03378
G1 X179.407 Y88.182 E.16655
G1 X178.869 Y88.182 E.01687
G1 X178.869 Y92.561 E.1373
G1 X178.33 Y91.628 E.03378
G1 X178.33 Y83.551 E.25325
G1 X177.791 Y83.551 E.0169
G1 X177.791 Y90.695 E.224
G1 X177.252 Y89.762 E.03378
G1 X177.252 Y83.551 E.19474
G1 X176.714 Y83.551 E.01687
G1 X176.714 Y88.829 E.16549
G1 X176.175 Y87.896 E.03378
G1 X176.175 Y78.92 E.28144
G1 X175.636 Y78.92 E.0169
G1 X175.636 Y86.963 E.25218
G1 X175.098 Y86.03 E.03377
G1 X175.098 Y78.92 E.22293
G1 X174.559 Y78.92 E.0169
G1 X174.559 Y85.097 E.19368
G1 X174.02 Y84.164 E.03378
G1 X174.02 Y76.604 E.23704
G1 X173.482 Y76.604 E.01687
G1 X173.482 Y83.231 E.20778
G1 X172.943 Y82.298 E.03378
G1 X172.943 Y76.604 E.17853
G1 X172.404 Y76.604 E.0169
G1 X172.404 Y81.365 E.14928
G1 X171.866 Y80.432 E.03377
G1 X171.866 Y71.973 E.26523
G1 X171.327 Y71.973 E.0169
G1 X171.327 Y79.499 E.23597
G1 X170.788 Y78.566 E.03378
G1 X170.788 Y71.973 E.20672
G1 X170.25 Y71.973 E.01687
G1 X170.25 Y77.633 E.17747
G1 X169.711 Y76.7 E.03378
G1 X169.711 Y71.973 E.14821
G1 X169.605 Y71.973 E.00332
G1 X169.605 Y67.342 E.1452
G1 X169.172 Y67.342 E.01358
G1 X169.172 Y75.767 E.26416
G1 X168.633 Y74.834 E.03378
G1 X168.633 Y67.342 E.23491
G1 X168.095 Y67.342 E.01687
G1 X168.095 Y73.901 E.20565
G1 X167.556 Y72.968 E.03378
G1 X167.556 Y67.342 E.1764
G1 X167.29 Y67.342 E.00834
G1 X167.29 Y65.026 E.07262
G1 X167.017 Y65.026 E.00856
G1 X167.017 Y72.035 E.21976
G1 X166.479 Y71.102 E.03377
G1 X166.479 Y65.026 E.19051
G1 X165.94 Y65.026 E.0169
G1 X165.94 Y70.168 E.16122
G1 X165.401 Y69.235 E.03378
M73 P1 R226
G1 X165.401 Y65.026 E.13197
G1 X164.974 Y65.026 E.01339
G1 X164.974 Y60.395 E.1452
G1 X164.863 Y60.395 E.00348
G1 X164.863 Y68.302 E.24792
G1 X164.324 Y67.369 E.03378
G1 X164.324 Y60.395 E.21866
M73 Q1 S229
G1 X163.785 Y60.395 E.0169
G1 X163.785 Y66.436 E.18941
G1 X163.247 Y65.503 E.03377
G1 X163.247 Y60.395 E.16016
G1 X162.708 Y60.395 E.0169
G1 X162.708 Y64.57 E.1309
G1 X162.169 Y63.637 E.03378
G1 X162.169 Y55.764 E.24685
G1 X161.631 Y55.764 E.01687
G1 X161.631 Y62.704 E.2176
G1 X161.092 Y61.771 E.03378
G1 X161.092 Y55.764 E.18835
G1 X160.553 Y55.764 E.0169
G1 X160.553 Y60.838 E.15909
G1 X160.015 Y59.905 E.03377
G1 X160.015 Y51.132 E.27507
G1 X159.476 Y51.132 E.0169
G1 X159.476 Y58.972 E.24582
G1 X158.937 Y58.039 E.03378
G1 X158.937 Y51.132 E.21656
G1 X158.398 Y51.132 E.0169
G1 X158.398 Y57.106 E.18731
G1 X157.86 Y56.173 E.03377
G1 X157.86 Y48.817 E.23064
G1 X157.321 Y48.817 E.0169
G1 X157.321 Y55.24 E.20139
G1 X156.782 Y54.307 E.03378
G1 X156.782 Y48.817 E.17214
G1 X156.244 Y48.817 E.01687
G1 X156.244 Y53.374 E.14288
G1 X155.705 Y52.441 E.03378
G1 X155.705 Y48.817 E.11363
G1 X155.166 Y48.817 E.0169
G1 X155.166 Y52.129 E.10385
G1 X154.628 Y52.129 E.01687
G1 X154.628 Y48.817 E.10385
G1 X154.089 Y48.817 E.0169
G1 X154.089 Y52.129 E.10385
G1 X153.55 Y52.129 E.0169
G1 X153.55 Y48.817 E.10385
G1 X153.012 Y48.817 E.01687
G1 X153.012 Y52.129 E.10385
G1 X152.473 Y52.129 E.0169
G1 X152.473 Y48.817 E.10385
G1 X151.934 Y48.817 E.0169
G1 X151.934 Y52.129 E.10385
G1 X151.396 Y52.129 E.01687
G1 X151.396 Y48.817 E.10385
G1 X150.857 Y48.817 E.0169
G1 X150.857 Y52.129 E.10385
G1 X150.318 Y52.129 E.0169
G1 X150.318 Y48.817 E.10385
G1 X149.78 Y48.817 E.01687
G1 X149.78 Y52.129 E.10385
G1 X149.241 Y52.129 E.0169
G1 X149.241 Y48.817 E.10385
G1 X148.702 Y48.817 E.0169
G1 X148.702 Y52.129 E.10385
G1 X148.163 Y52.129 E.0169
G1 X148.163 Y48.817 E.10385
G1 X147.625 Y48.817 E.01687
G1 X147.625 Y52.129 E.10385
G1 X147.086 Y52.129 E.0169
G1 X147.086 Y48.817 E.10385
G1 X146.547 Y48.817 E.0169
G1 X146.547 Y52.129 E.10385
G1 X146.009 Y52.129 E.01687
G1 X146.009 Y48.817 E.10385
G1 X145.47 Y48.817 E.0169
G1 X145.47 Y52.129 E.10385
G1 X144.931 Y52.129 E.0169
G1 X144.931 Y48.817 E.10385
G1 X144.393 Y48.817 E.01687
G1 X144.393 Y52.129 E.10385
G1 X143.854 Y52.129 E.0169
G1 X143.854 Y48.817 E.10385
G1 X143.315 Y48.817 E.0169
G1 X143.315 Y52.129 E.10385
G1 X142.777 Y52.129 E.01687
G1 X142.777 Y48.817 E.10385
G1 X142.238 Y48.817 E.0169
G1 X142.238 Y52.129 E.10385
G1 X141.699 Y52.129 E.0169
G1 X141.699 Y48.817 E.10385
G1 X141.161 Y48.817 E.01687
G1 X141.161 Y52.129 E.10385
G1 X140.622 Y52.129 E.0169
G1 X140.622 Y48.817 E.10385
G1 X140.083 Y48.817 E.0169
G1 X140.083 Y52.129 E.10385
