; generated by PrusaSlicer 2.6.1+linux-x64-GTK3 on 2023-11-11 at 23:46:16 UTC


;
;
; 

; external perimeters extrusion width = 0.60mm
; perimeters extrusion width = 0.50mm
; infill extrusion width = 0.50mm
; solid infill extrusion width = 0.50mm
; top infill extrusion width = 0.45mm
; first layer extrusion width = 0.42mm

M73 P0 R109
M73 Q0 S109
M201 X1000 Y1000 Z200 E5000 ; sets maximum accelerations, mm/sec^2
M203 X200 Y200 Z12 E120 ; sets maximum feedrates, mm / sec
M204 S1250 T1250 ; sets acceleration (S) and retract acceleration (R), mm/sec^2
M205 X8.00 Y8.00 Z0.40 E4.50 ; sets the jerk limits, mm/sec
M205 S0 T0 ; sets the minimum extruding and travel feed rate, mm/sec
;TYPE:Custom
M862.3 P "MK3S" ; printer model check
M862.1 P0.4 ; nozzle diameter check
M115 U3.12.2 ; tell printer latest fw version
G90 ; use absolute coordinates
M83 ; extruder relative mode
M104 S230 ; set extruder temp
M140 S85 ; set bed temp
M190 S85 ; wait for bed temp
M109 S230 ; wait for extruder temp
G28 W ; home all without mesh bed level
G80 ; mesh bed leveling

G1 Z0.2 F720
G1 Y-3 F1000 ; go outside print area
G92 E0
G1 X60 E9 F1000 ; intro line
G1 X100 E12.5 F1000 ; intro line

G92 E0
M221 S95

; Don't change E values below. Excessive value can damage the printer.

M907 E538 ; set extruder motor current
G21 ; set units to millimeters
G90 ; use absolute coordinates
M83 ; use relative distances for extrusion
M900 K0.08 ; Filament gcode LA 1.5
M900 K45 ; Filament gcode LA 1.0
M107
;LAYER_CHANGE
;Z:0.2
;HEIGHT:0.2
;BEFORE_LAYER_CHANGE
G92 E0.0
;0.2


G1 E-1 F2100
G1 Z.2 F720
;AFTER_LAYER_CHANGE
;0.2
G1 Z.4
G1 X86.383 Y49.874 F10800
G1 Z.2 F720
G1 E1 F2100
M204 S800
;TYPE:Skirt/Brim
;WIDTH:0.42
G1 F1200
G1 X90.454 Y42.823 E.25528
G1 X91.447 Y41.886 E.04281
G1 X92.513 Y41.634 E.03434
G1 X154.822 Y41.634 E1.95365
G1 X156.129 Y42.026 E.04278
G1 X156.881 Y42.823 E.03436
G1 X188.036 Y96.784 E1.95366
G1 X188.35 Y98.112 E.04279
G1 X188.036 Y99.161 E.03433
G1 X156.881 Y153.123 E1.95369
G1 X155.888 Y154.059 E.04279
G1 X154.822 Y154.311 E.03434
G1 X92.513 Y154.311 E1.95365
G1 X91.206 Y153.92 E.04277
G1 X90.454 Y153.123 E.03436
G1 X59.3 Y99.161 E1.95367
G1 X58.985 Y97.833 E.04279
M73 P0 R108
G1 X59.3 Y96.784 E.03434
G1 X86.353 Y49.925 E1.69651
M204 S1000
; printing object LoRaGateWay101-Base.stl id:0 copy 0
;WIPE_START
G1 F8640
M73 Q0 S108
G1 X88.519 Y46.175 E-1
;WIPE_END
G1 Z.4 F720
G1 X154.368 Y151.147 F10800
G1 Z.2 F720
G1 E1 F2100
M204 S800
;TYPE:Perimeter
;WIDTH:0.419999
G1 F1200
G1 X92.967 Y151.147 E1.92518
G1 X62.267 Y97.973 E1.92515
G1 X92.967 Y44.798 E1.92518
G1 X154.368 Y44.798 E1.92518
G1 X185.068 Y97.973 E1.92518
G1 X154.398 Y151.095 E1.92327
M204 S1000
G1 X154.586 Y151.524 F10800
M204 S800
;TYPE:External perimeter
G1 F1200
G1 X92.75 Y151.524 E1.93882
G1 X61.832 Y97.973 E1.93881
G1 X92.75 Y44.421 E1.93883
G1 X154.586 Y44.421 E1.93882
G1 X185.504 Y97.973 E1.93883
G1 X154.616 Y151.472 E1.93692
M204 S1000
G1 X154.239 Y151.324 F10800
;WIPE_START
G1 F8640
G1 X150.285 Y151.476 E-1
;WIPE_END
G1 Z.4 F720
G1 X155.324 Y46.794 F10800
G1 Z.2 F720
M73 Q1 S108
G1 E1 F2100
M204 S800
;TYPE:Solid infill
;WIDTH:0.420812
G1 F1200
G1 X153.668 Y45.138 E.07359
G1 X153.133 Y45.138 E.01681
M73 P1 R108
G1 X155.591 Y47.595 E.1092
G1 X156.321 Y48.86 E.04589
G1 X152.599 Y45.138 E.1654
G1 X152.064 Y45.138 E.01681
G1 X157.051 Y50.124 E.22159
G1 X157.781 Y51.389 E.04589
G1 X151.53 Y45.138 E.27778
G1 X150.996 Y45.138 E.01678
G1 X158.511 Y52.653 E.33395
G1 X159.241 Y53.917 E.04587
G1 X150.461 Y45.138 E.39014
G1 X149.927 Y45.138 E.01678
G1 X159.971 Y55.182 E.44633
G1 X160.701 Y56.446 E.04587
G1 X149.392 Y45.138 E.50252
G1 X148.858 Y45.138 E.01678
G1 X161.431 Y57.711 E.55871
G1 X162.161 Y58.975 E.04587
G1 X148.323 Y45.138 E.6149
G1 X147.789 Y45.138 E.01678
G1 X162.891 Y60.24 E.67109
G1 X163.621 Y61.504 E.04587
G1 X147.255 Y45.138 E.72726
G1 X146.72 Y45.138 E.01681
G1 X164.351 Y62.769 E.78347
G1 X165.081 Y64.033 E.04587
G1 X146.186 Y45.138 E.83964
G1 X145.651 Y45.138 E.01681
G1 X165.811 Y65.298 E.89585
G1 X166.541 Y66.562 E.04587
G1 X145.117 Y45.138 E.95202
G1 X144.583 Y45.138 E.01678
G1 X167.271 Y67.826 E1.00819
G1 X168.001 Y69.091 E.04589
G1 X144.048 Y45.138 E1.0644
G1 X143.514 Y45.138 E.01678
M73 P1 R107
G1 X168.731 Y70.355 E1.12057
G1 X169.462 Y71.62 E.04591
M73 Q1 S107
G1 X142.979 Y45.138 E1.17681
G1 X142.445 Y45.138 E.01678
G1 X170.192 Y72.884 E1.23298
G1 X170.922 Y74.149 E.04589
G1 X141.91 Y45.138 E1.28919
G1 X141.376 Y45.138 E.01678
G1 X171.652 Y75.413 E1.34536
G1 X172.382 Y76.678 E.04589
G1 X140.842 Y45.138 E1.40155
G1 X140.307 Y45.138 E.01681
G1 X173.112 Y77.942 E1.45774
G1 X173.842 Y79.207 E.04589
G1 X139.773 Y45.138 E1.51393
G1 X139.238 Y45.138 E.01681
G1 X174.572 Y80.471 E1.57012
G1 X175.302 Y81.735 E.04587
G1 X138.704 Y45.138 E1.62629
G1 X138.169 Y45.138 E.01681
G1 X176.032 Y83 E1.6825
G1 X176.762 Y84.264 E.04587
G1 X137.635 Y45.138 E1.73867
G1 X137.101 Y45.138 E.01678
G1 X177.492 Y85.529 E1.79486
G1 X178.222 Y86.793 E.04587
G1 X136.566 Y45.138 E1.85105
G1 X136.032 Y45.138 E.01678
G1 X178.952 Y88.058 E1.90724
G1 X179.682 Y89.322 E.04587
G1 X135.497 Y45.138 E1.96344
G1 X134.963 Y45.138 E.01678
G1 X180.412 Y90.587 E2.01963
G1 X181.142 Y91.851 E.04587
G1 X134.429 Y45.138 E2.0758
G1 X133.894 Y45.138 E.01681
G1 X181.872 Y93.115 E2.13199
M73 Q2 S107
G1 X182.602 Y94.38 E.04589
M73 P2 R107
G1 X133.36 Y45.138 E2.18818
G1 X132.825 Y45.138 E.01681
G1 X183.332 Y95.644 E2.24437
G1 X184.062 Y96.909 E.04589
G1 X132.291 Y45.138 E2.30056
G1 X131.756 Y45.138 E.01681
M73 P2 R106
G1 X184.645 Y98.026 E2.35022
G1 X184.45 Y98.365 E.01229
M73 Q2 S106
G1 X131.222 Y45.138 E2.36528
G1 X130.688 Y45.138 E.01678
G1 X184.254 Y98.704 E2.38032
G1 X184.058 Y99.043 E.0123
G1 X130.153 Y45.138 E2.39539
G1 X129.619 Y45.138 E.01678
G1 X183.863 Y99.382 E2.41045
G1 X183.667 Y99.72 E.01228
G1 X129.084 Y45.138 E2.42549
G1 X128.55 Y45.138 E.01678
G1 X183.472 Y100.059 E2.44056
G1 X183.276 Y100.398 E.0123
G1 X128.016 Y45.138 E2.4556
G1 X127.481 Y45.138 E.01681
G1 X183.08 Y100.737 E2.47066
G1 X182.885 Y101.076 E.01229
G1 X126.947 Y45.138 E2.48573
G1 X126.412 Y45.138 E.01681
G1 X182.689 Y101.414 E2.50077
G1 X182.494 Y101.753 E.01229
G1 X125.878 Y45.138 E2.51583
G1 X125.343 Y45.138 E.01681
G1 X182.298 Y102.092 E2.5309
G1 X182.102 Y102.431 E.0123
G1 X124.809 Y45.138 E2.54594
G1 X124.275 Y45.138 E.01678
M73 P3 R106
M73 Q3 S106
G1 X181.907 Y102.77 E2.561
G1 X181.711 Y103.109 E.0123
M73 P3 R105
G1 X123.74 Y45.138 E2.57607
G1 X123.206 Y45.138 E.01678
M73 Q3 S105
G1 X181.516 Y103.447 E2.59111
G1 X181.32 Y103.786 E.0123
G1 X122.671 Y45.138 E2.60618
G1 X122.137 Y45.138 E.01678
G1 X181.124 Y104.125 E2.62122
G1 X180.929 Y104.464 E.01229
G1 X121.602 Y45.138 E2.6363
G1 X121.068 Y45.138 E.01678
G1 X180.733 Y104.803 E2.65135
G1 X180.537 Y105.141 E.01228
G1 X120.534 Y45.138 E2.66637
G1 X119.999 Y45.138 E.01681
G1 X180.342 Y105.48 E2.68145
G1 X180.146 Y105.819 E.0123
G1 X119.465 Y45.138 E2.69649
G1 X118.93 Y45.138 E.01681
G1 X179.951 Y106.158 E2.71158
G1 X179.755 Y106.497 E.0123
G1 X118.396 Y45.138 E2.72662
G1 X117.862 Y45.138 E.01678
G1 X179.559 Y106.835 E2.74164
G1 X179.364 Y107.174 E.01229
G1 X117.327 Y45.138 E2.75673
G1 X116.793 Y45.138 E.01678
G1 X179.168 Y107.513 E2.77177
G1 X178.973 Y107.852 E.01229
M73 P4 R104
M73 Q4 S105
G1 X116.258 Y45.138 E2.78686
G1 X115.724 Y45.138 E.01678
M73 Q4 S104
G1 X178.777 Y108.191 E2.8019
G1 X178.581 Y108.529 E.01228
G1 X115.189 Y45.138 E2.81694
G1 X114.655 Y45.138 E.01678
G1 X178.386 Y108.868 E2.83201
G1 X178.19 Y109.207 E.0123
G1 X114.121 Y45.138 E2.84705
G1 X113.586 Y45.138 E.01681
G1 X177.994 Y109.546 E2.86211
G1 X177.799 Y109.885 E.01229
G1 X113.052 Y45.138 E2.87718
G1 X112.517 Y45.138 E.01681
G1 X177.603 Y110.224 E2.89224
G1 X177.408 Y110.562 E.01226
G1 X111.983 Y45.138 E2.90728
G1 X111.448 Y45.138 E.01681
G1 X177.212 Y110.901 E2.92235
G1 X177.016 Y111.24 E.0123
G1 X110.914 Y45.138 E2.93739
G1 X110.38 Y45.138 E.01678
G1 X176.821 Y111.579 E2.95245
G1 X176.625 Y111.918 E.0123
G1 X109.845 Y45.138 E2.96752
G1 X109.311 Y45.138 E.01678
M73 P4 R103
G1 X176.43 Y112.256 E2.98256
G1 X176.234 Y112.595 E.0123
M73 P5 R103
M73 Q5 S103
G1 X108.776 Y45.138 E2.99762
G1 X108.242 Y45.138 E.01678
G1 X176.038 Y112.934 E3.01266
G1 X175.843 Y113.273 E.01229
G1 X107.708 Y45.138 E3.02773
G1 X107.173 Y45.138 E.01681
G1 X175.647 Y113.612 E3.04279
G1 X175.452 Y113.95 E.01226
G1 X106.639 Y45.138 E3.05783
G1 X106.104 Y45.138 E.01681
G1 X175.256 Y114.289 E3.0729
G1 X175.06 Y114.628 E.0123
G1 X105.57 Y45.138 E3.08794
G1 X105.035 Y45.138 E.01681
G1 X174.865 Y114.967 E3.10303
G1 X174.669 Y115.306 E.0123
G1 X104.501 Y45.138 E3.11807
G1 X103.967 Y45.138 E.01678
G1 X174.473 Y115.644 E3.13309
G1 X174.278 Y115.983 E.01229
G1 X103.432 Y45.138 E3.14818
G1 X102.898 Y45.138 E.01678
M73 P5 R102
G1 X174.082 Y116.322 E3.16322
G1 X173.887 Y116.661 E.01229
M73 Q5 S102
G1 X102.363 Y45.138 E3.1783
G1 X101.829 Y45.138 E.01678
M73 Q6 S102
G1 X173.691 Y117 E3.19335
G1 X173.495 Y117.339 E.0123
M73 P6 R102
G1 X101.295 Y45.138 E3.20839
G1 X100.76 Y45.138 E.01681
G1 X173.3 Y117.677 E3.22345
G1 X173.104 Y118.016 E.0123
G1 X100.226 Y45.138 E3.23849
G1 X99.691 Y45.138 E.01681
G1 X172.909 Y118.355 E3.25358
G1 X172.713 Y118.694 E.0123
G1 X99.157 Y45.138 E3.26862
G1 X98.622 Y45.138 E.01681
G1 X172.517 Y119.033 E3.28369
G1 X172.322 Y119.371 E.01226
G1 X98.088 Y45.138 E3.29873
G1 X97.554 Y45.138 E.01678
G1 X172.126 Y119.71 E3.31377
G1 X171.931 Y120.049 E.01229
G1 X97.019 Y45.138 E3.32886
G1 X96.485 Y45.138 E.01678
M73 P6 R101
M73 Q6 S101
G1 X171.735 Y120.388 E3.3439
G1 X171.539 Y120.727 E.0123
G1 X95.95 Y45.138 E3.35896
G1 X95.416 Y45.138 E.01678
G1 X171.344 Y121.065 E3.37401
G1 X171.148 Y121.404 E.0123
M73 P7 R101
M73 Q7 S101
G1 X94.881 Y45.138 E3.38907
G1 X94.347 Y45.138 E.01678
G1 X170.952 Y121.743 E3.40411
G1 X170.757 Y122.082 E.01229
G1 X93.813 Y45.138 E3.41918
G1 X93.278 Y45.138 E.01681
G1 X170.561 Y122.421 E3.43424
G1 X170.366 Y122.759 E.01226
G1 X93.01 Y45.404 E3.43746
G1 X92.814 Y45.742 E.01228
G1 X170.17 Y123.098 E3.43748
G1 X169.974 Y123.437 E.0123
G1 X92.619 Y46.081 E3.43746
G1 X92.423 Y46.42 E.0123
G1 X169.779 Y123.776 E3.43748
G1 X169.583 Y124.115 E.0123
M73 P7 R100
M73 Q7 S100
G1 X92.227 Y46.759 E3.43748
G1 X92.032 Y47.098 E.01229
G1 X169.388 Y124.453 E3.43746
G1 X169.192 Y124.792 E.0123
G1 X91.836 Y47.436 E3.43748
G1 X91.64 Y47.775 E.0123
G1 X168.996 Y125.131 E3.43748
G1 X168.801 Y125.47 E.01229
M73 P8 R100
M73 Q8 S100
G1 X91.445 Y48.114 E3.43748
G1 X91.249 Y48.453 E.0123
G1 X168.605 Y125.809 E3.43748
G1 X168.41 Y126.148 E.01229
G1 X91.054 Y48.792 E3.43748
G1 X90.858 Y49.13 E.01228
G1 X168.214 Y126.486 E3.43748
G1 X168.018 Y126.825 E.0123
G1 X90.662 Y49.469 E3.43748
G1 X90.467 Y49.808 E.01229
G1 X167.823 Y127.164 E3.43748
G1 X167.627 Y127.503 E.0123
G1 X90.271 Y50.147 E3.43748
G1 X90.076 Y50.486 E.01229
M73 P8 R99
M73 Q8 S99
G1 X167.431 Y127.842 E3.43746
G1 X167.236 Y128.18 E.01226
G1 X89.88 Y50.824 E3.43748
G1 X89.684 Y51.163 E.0123
G1 X167.04 Y128.519 E3.43748
G1 X166.845 Y128.858 E.01229
G1 X89.489 Y51.502 E3.43748
G1 X89.293 Y51.841 E.0123
G1 X166.649 Y129.197 E3.43748
G1 X166.453 Y129.536 E.0123
M73 P9 R99
M73 Q9 S99
G1 X89.098 Y52.18 E3.43746
G1 X88.902 Y52.518 E.01228
G1 X166.258 Y129.874 E3.43748
G1 X166.062 Y130.213 E.0123
G1 X88.706 Y52.857 E3.43748
G1 X88.511 Y53.196 E.01229
G1 X165.867 Y130.552 E3.43748
G1 X165.671 Y130.891 E.0123
G1 X88.315 Y53.535 E3.43748
G1 X88.119 Y53.874 E.0123
G1 X165.475 Y131.23 E3.43748
G1 X165.28 Y131.568 E.01226
M73 P9 R98
M73 Q9 S98
G1 X87.924 Y54.213 E3.43746
G1 X87.728 Y54.551 E.01228
G1 X165.084 Y131.907 E3.43748
G1 X164.889 Y132.246 E.01229
G1 X87.533 Y54.89 E3.43748
G1 X87.337 Y55.229 E.0123
G1 X164.693 Y132.585 E3.43748
G1 X164.497 Y132.924 E.0123
G1 X87.141 Y55.568 E3.43748
G1 X86.946 Y55.907 E.01229
G1 X164.302 Y133.263 E3.43748
G1 X164.106 Y133.601 E.01228
M73 P10 R98
M73 Q10 S98
G1 X86.75 Y56.245 E3.43748
G1 X86.555 Y56.584 E.01229
G1 X163.91 Y133.94 E3.43746
G1 X163.715 Y134.279 E.01229
G1 X86.359 Y56.923 E3.43748
G1 X86.163 Y57.262 E.0123
G1 X163.519 Y134.618 E3.43748
G1 X163.324 Y134.957 E.01229
G1 X85.968 Y57.601 E3.43748
G1 X85.772 Y57.939 E.01228
M73 P10 R97
M73 Q10 S97
G1 X163.128 Y135.295 E3.43748
G1 X162.932 Y135.634 E.0123
G1 X85.577 Y58.278 E3.43746
G1 X85.381 Y58.617 E.0123
G1 X162.737 Y135.973 E3.43748
G1 X162.541 Y136.312 E.0123
G1 X85.185 Y58.956 E3.43748
G1 X84.99 Y59.295 E.01229
G1 X162.346 Y136.651 E3.43748
G1 X162.15 Y136.989 E.01228
G1 X84.794 Y59.633 E3.43748
G1 X84.598 Y59.972 E.0123
G1 X161.954 Y137.328 E3.43748
G1 X161.759 Y137.667 E.01229
M73 P11 R97
M73 Q11 S97
G1 X84.403 Y60.311 E3.43748
G1 X84.207 Y60.65 E.0123
G1 X161.563 Y138.006 E3.43748
G1 X161.368 Y138.345 E.01229
G1 X84.012 Y60.989 E3.43748
G1 X83.816 Y61.328 E.0123
M73 P11 R96
G1 X161.172 Y138.683 E3.43746
G1 X160.976 Y139.022 E.0123
M73 Q11 S96
G1 X83.62 Y61.666 E3.43748
G1 X83.425 Y62.005 E.01229
G1 X160.781 Y139.361 E3.43748
G1 X160.585 Y139.7 E.0123
G1 X83.229 Y62.344 E3.43748
G1 X83.034 Y62.683 E.01229
G1 X160.389 Y140.039 E3.43746
G1 X160.194 Y140.377 E.01226
G1 X82.838 Y63.022 E3.43746
G1 X82.642 Y63.36 E.01228
G1 X159.998 Y140.716 E3.43748
G1 X159.803 Y141.055 E.01229
G1 X82.447 Y63.699 E3.43748
G1 X82.251 Y64.038 E.0123
G1 X159.607 Y141.394 E3.43748
G1 X159.411 Y141.733 E.0123
M73 P12 R96
M73 Q12 S96
G1 X82.056 Y64.377 E3.43746
G1 X81.86 Y64.716 E.0123
G1 X159.216 Y142.072 E3.43748
G1 X159.02 Y142.41 E.01228
M73 P12 R95
G1 X81.664 Y65.054 E3.43748
G1 X81.469 Y65.393 E.01229
M73 Q12 S95
G1 X158.825 Y142.749 E3.43748
G1 X158.629 Y143.088 E.0123
G1 X81.273 Y65.732 E3.43748
G1 X81.077 Y66.071 E.0123
G1 X158.433 Y143.427 E3.43748
G1 X158.238 Y143.766 E.01229
G1 X80.882 Y66.41 E3.43748
G1 X80.686 Y66.748 E.01228
G1 X158.042 Y144.104 E3.43748
G1 X157.847 Y144.443 E.01229
G1 X80.491 Y67.087 E3.43748
G1 X80.295 Y67.426 E.0123
G1 X157.651 Y144.782 E3.43748
G1 X157.455 Y145.121 E.0123
G1 X80.099 Y67.765 E3.43748
G1 X79.904 Y68.104 E.01229
G1 X157.26 Y145.46 E3.43748
G1 X157.064 Y145.798 E.01228
M73 P13 R95
M73 Q13 S95
G1 X79.708 Y68.443 E3.43746
G1 X79.513 Y68.781 E.01226
M73 P13 R94
G1 X156.868 Y146.137 E3.43746
G1 X156.673 Y146.476 E.01229
M73 Q13 S94
G1 X79.317 Y69.12 E3.43748
G1 X79.121 Y69.459 E.0123
G1 X156.477 Y146.815 E3.43748
G1 X156.282 Y147.154 E.01229
G1 X78.926 Y69.798 E3.43748
G1 X78.73 Y70.137 E.0123
G1 X156.086 Y147.492 E3.43746
G1 X155.89 Y147.831 E.0123
G1 X78.535 Y70.475 E3.43746
G1 X78.339 Y70.814 E.0123
G1 X155.695 Y148.17 E3.43748
G1 X155.499 Y148.509 E.0123
G1 X78.143 Y71.153 E3.43748
G1 X77.948 Y71.492 E.01229
G1 X155.304 Y148.848 E3.43748
G1 X155.108 Y149.187 E.0123
G1 X77.752 Y71.831 E3.43748
G1 X77.556 Y72.169 E.01228
G1 X154.912 Y149.525 E3.43748
G1 X154.717 Y149.864 E.01229
M73 P14 R93
M73 Q14 S94
G1 X77.361 Y72.508 E3.43748
G1 X77.165 Y72.847 E.0123
M73 Q14 S93
G1 X154.521 Y150.203 E3.43748
G1 X154.326 Y150.542 E.01229
G1 X76.97 Y73.186 E3.43748
G1 X76.774 Y73.525 E.0123
G1 X154.057 Y150.808 E3.43424
G1 X153.523 Y150.808 E.01678
G1 X76.578 Y73.863 E3.41922
G1 X76.383 Y74.202 E.01229
G1 X152.988 Y150.808 E3.40413
G1 X152.454 Y150.808 E.01678
G1 X76.187 Y74.541 E3.38909
G1 X75.992 Y74.88 E.01229
G1 X151.919 Y150.808 E3.37401
G1 X151.385 Y150.808 E.01678
G1 X75.796 Y75.219 E3.35896
G1 X75.6 Y75.557 E.01228
G1 X150.851 Y150.808 E3.34394
G1 X150.316 Y150.808 E.01681
G1 X75.405 Y75.896 E3.32886
G1 X75.209 Y76.235 E.0123
M73 P14 R92
G1 X149.782 Y150.808 E3.31382
G1 X149.247 Y150.808 E.01681
M73 P15 R92
M73 Q15 S92
G1 X75.013 Y76.574 E3.29875
G1 X74.818 Y76.913 E.01229
G1 X148.713 Y150.808 E3.28369
G1 X148.178 Y150.808 E.01681
G1 X74.622 Y77.252 E3.26862
G1 X74.427 Y77.59 E.01226
G1 X147.644 Y150.808 E3.25358
G1 X147.11 Y150.808 E.01678
G1 X74.231 Y77.929 E3.23854
G1 X74.035 Y78.268 E.0123
G1 X146.575 Y150.808 E3.22347
G1 X146.041 Y150.808 E.01678
G1 X73.84 Y78.607 E3.20841
G1 X73.644 Y78.946 E.0123
G1 X145.506 Y150.808 E3.19335
G1 X144.972 Y150.808 E.01678
G1 X73.449 Y79.284 E3.1783
G1 X73.253 Y79.623 E.0123
G1 X144.438 Y150.808 E3.16326
