; generated by PrusaSlicer 2.6.0+linux-x64-GTK3 on 2023-08-10 at 05:29:52 UTC


;
;
; 

; external perimeters extrusion width = 0.60mm
; perimeters extrusion width = 0.50mm
; infill extrusion width = 0.50mm
; solid infill extrusion width = 0.50mm
; top infill extrusion width = 0.45mm
; first layer extrusion width = 0.42mm

M73 P0 R76
M73 Q0 S77
M201 X1000 Y1000 Z200 E5000 ; sets maximum accelerations, mm/sec^2
M203 X200 Y200 Z12 E120 ; sets maximum feedrates, mm / sec
M204 S1250 T1250 ; sets acceleration (S) and retract acceleration (R), mm/sec^2
M205 X8.00 Y8.00 Z0.40 E4.50 ; sets the jerk limits, mm/sec
M205 S0 T0 ; sets the minimum extruding and travel feed rate, mm/sec
;TYPE:Custom
M862.3 P "MK3S" ; printer model check
M862.1 P0.4 ; nozzle diameter check
M115 U3.12.2 ; tell printer latest fw version
G90 ; use absolute coordinates
M83 ; extruder relative mode
M104 S215 ; set extruder temp
M140 S60 ; set bed temp
M190 S60 ; wait for bed temp
M109 S215 ; wait for extruder temp
G28 W ; home all without mesh bed level
G80 ; mesh bed leveling

G1 Z0.2 F720
G1 Y-3 F1000 ; go outside print area
G92 E0
G1 X60 E9 F1000 ; intro line
G1 X100 E12.5 F1000 ; intro line

G92 E0
M221 S95

; Don't change E values below. Excessive value can damage the printer.

M907 E538 ; set extruder motor current
G21 ; set units to millimeters
G90 ; use absolute coordinates
M83 ; use relative distances for extrusion
M900 K0.05 ; Filament gcode LA 1.5
M900 K30 ; Filament gcode LA 1.0
M107
;LAYER_CHANGE
;Z:0.2
;HEIGHT:0.2
;BEFORE_LAYER_CHANGE
G92 E0.0
;0.2


G1 E-.8 F2100
M73 Q0 S76
G1 Z.4 F720
;AFTER_LAYER_CHANGE
;0.2
G1 X99.576 Y65.708 F10800
G1 Z.2 F720
G1 E.8 F2100
M204 S800
;TYPE:Skirt/Brim
;WIDTH:0.42
G1 F1200
G1 X100.69 Y64.02 E.06341
G1 X103.001 Y61.016 E.11884
G1 X105.705 Y58.131 E.12398
G1 X108.618 Y55.58 E.12141
G1 X111.666 Y53.388 E.11772
G1 X115.012 Y51.438 E.12143
G1 X118.604 Y49.794 E.12386
G1 X120.772 Y48.996 E.07243
G1 X122.875 Y48.361 E.06888
G1 X126.623 Y47.524 E.12041
G1 X130.571 Y47.042 E.12471
G1 X134.442 Y46.953 E.1214
G1 X138.186 Y47.227 E.1177
G1 X142.09 Y47.897 E.1242
G1 X144.32 Y48.459 E.07211
G1 X146.424 Y49.126 E.06921
G1 X149.991 Y50.548 E.1204
G1 X153.514 Y52.372 E.12439
G1 X156.665 Y54.413 E.11771
G1 X159.698 Y56.82 E.12141
G1 X162.484 Y59.51 E.12143
G1 X163.992 Y61.206 E.07116
G1 X165.035 Y62.51 E.05236
G1 X166.334 Y64.291 E.06912
G1 X167.206 Y65.636 E.05026
G1 X168.364 Y67.588 E.07116
G1 X169.098 Y69.014 E.05029
G1 X170.362 Y71.793 E.09572
G1 X170.945 Y73.287 E.05028
G1 X171.633 Y75.383 E.06917
G1 X172.082 Y76.989 E.05229
G1 X172.578 Y79.204 E.07117
G1 X173.136 Y83.036 E.12142
G1 X173.318 Y86.917 E.12182
G1 X173.136 Y90.654 E.11731
G1 X172.56 Y94.58 E.12441
G1 X171.633 Y98.307 E.12042
G1 X170.945 Y100.402 E.06914
G1 X170.099 Y102.542 E.07215
G1 X168.364 Y106.101 E.12414
G1 X166.334 Y109.399 E.12143
G1 X164.068 Y112.392 E.11771
G1 X161.371 Y115.317 E.12475
G1 X158.503 Y117.871 E.12041
G1 X156.761 Y119.207 E.06883
G1 X154.846 Y120.501 E.07247
G1 X151.415 Y122.457 E.12383
G1 X147.879 Y124.035 E.12141
G1 X144.206 Y125.262 E.12142
G1 X140.433 Y126.126 E.12136
G1 X136.625 Y126.617 E.12039
G1 X134.324 Y126.739 E.07225
G1 X132.121 Y126.724 E.06908
G1 X130.452 Y126.639 E.0524
G1 X128.195 Y126.405 E.07115
G1 X124.384 Y125.714 E.12144
G1 X120.659 Y124.656 E.12141
G1 X117.055 Y123.241 E.1214
G1 X113.626 Y121.495 E.12065
G1 X111.666 Y120.302 E.07194
G1 X109.848 Y119.041 E.06937
G1 X108.525 Y118.036 E.05209
G1 X106.794 Y116.569 E.07114
G1 X104.036 Y113.849 E.12145
G1 X101.557 Y110.875 E.12139
G1 X99.44 Y107.775 E.1177
G1 X97.572 Y104.383 E.12141
G1 X96.632 Y102.317 E.07117
G1 X96.019 Y100.759 E.0525
G1 X95.305 Y98.679 E.06895
G1 X94.688 Y96.455 E.07237
G1 X93.941 Y92.688 E.12041
G1 X93.56 Y88.84 E.12124
G1 X93.554 Y84.968 E.1214
G1 X93.925 Y81.113 E.12143
G1 X94.688 Y77.235 E.12392
G1 X95.27 Y75.124 E.06866
G1 X95.794 Y73.558 E.05178
G1 X96.586 Y71.482 E.06967
G1 X97.243 Y70.019 E.05028
G1 X98.635 Y67.302 E.09572
G1 X99.543 Y65.758 E.05616
M204 S1000
; printing object R205-Antenna-Cover.stl id:0 copy 0
;WIPE_START
G1 F8640
G1 X100.69 Y64.02 E-.48082
G1 X101.533 Y62.924 E-.31918
;WIPE_END
G1 Z.6 F720
G1 X139.897 Y51.138 F10800
G1 Z.2 F720
G1 E.8 F2100
M204 S800
;TYPE:Perimeter
;WIDTH:0.419999
G1 F1200
G1 X141.456 Y51.453 E.04987
G1 X143.25 Y51.909 E.05804
G1 X145.018 Y52.457 E.05804
G1 X146.665 Y53.056 E.05495
G1 X148.371 Y53.776 E.05806
G1 X149.949 Y54.536 E.05492
G1 X151.576 Y55.422 E.05809
G1 X153.071 Y56.336 E.05494
G1 X154.601 Y57.377 E.05802
G1 X156.075 Y58.496 E.05803
G1 X157.418 Y59.622 E.05495
G1 X158.775 Y60.882 E.05806
G1 X159.998 Y62.136 E.05492
G1 X161.225 Y63.524 E.05809
G1 X162.317 Y64.895 E.05496
G1 X163.399 Y66.396 E.05802
G1 X164.402 Y67.951 E.05802
G1 X165.278 Y69.468 E.05493
G1 X166.123 Y71.117 E.0581
G1 X166.844 Y72.714 E.05494
G1 X167.521 Y74.437 E.05804
G1 X168.109 Y76.191 E.058
G1 X168.583 Y77.879 E.05497
G1 X168.995 Y79.684 E.05805
G1 X169.299 Y81.409 E.05492
G1 X169.529 Y83.247 E.05808
G1 X169.66 Y84.993 E.0549
G1 X169.704 Y86.993 E.06272
G1 X169.66 Y88.697 E.05345
G1 X169.529 Y90.442 E.05487
G1 X169.299 Y92.28 E.05808
G1 X168.995 Y94.005 E.05492
G1 X168.583 Y95.811 E.05808
G1 X168.109 Y97.498 E.05494
G1 X167.521 Y99.253 E.05803
G1 X166.844 Y100.975 E.05801
G1 X166.123 Y102.572 E.05494
G1 X165.278 Y104.221 E.0581
G1 X164.402 Y105.738 E.05493
G1 X163.399 Y107.294 E.05804
G1 X162.317 Y108.795 E.05802
G1 X161.225 Y110.165 E.05493
G1 X159.999 Y111.553 E.05807
G1 X158.775 Y112.807 E.05494
G1 X157.418 Y114.067 E.05806
G1 X156.075 Y115.194 E.05497
G1 X154.601 Y116.313 E.05803
G1 X153.071 Y117.354 E.05802
G1 X151.576 Y118.267 E.05492
G1 X149.949 Y119.153 E.05809
G1 X148.371 Y119.913 E.05492
G1 X146.665 Y120.633 E.05806
G1 X145.018 Y121.233 E.05496
G1 X143.25 Y121.78 E.05803
G1 X141.456 Y122.236 E.05804
G1 X139.739 Y122.583 E.05492
G1 X137.907 Y122.859 E.05809
G1 X136.164 Y123.034 E.05493
G1 X134.315 Y123.127 E.05805
G1 X132.465 Y123.125 E.05801
G1 X130.714 Y123.038 E.05497
G1 X128.872 Y122.853 E.05805
G1 X127.139 Y122.592 E.05495
G1 X125.324 Y122.225 E.05806
G1 X123.626 Y121.793 E.05494
G1 X121.857 Y121.249 E.05803
G1 X120.118 Y120.615 E.05804
G1 X118.504 Y119.934 E.05493
G1 X116.835 Y119.13 E.05809
G1 X115.296 Y118.292 E.05494
G1 X113.716 Y117.328 E.05803
G1 X112.267 Y116.34 E.05499
G1 X110.791 Y115.225 E.058
G1 X109.374 Y114.034 E.05804
G1 X108.09 Y112.843 E.05491
G1 X106.796 Y111.516 E.05811
G1 X105.637 Y110.203 E.05491
G1 X104.481 Y108.757 E.05805
G1 X103.403 Y107.253 E.05802
G1 X102.452 Y105.781 E.05495
G1 X101.527 Y104.177 E.05806
G1 X100.727 Y102.618 E.05494
G1 X99.965 Y100.93 E.05807
G1 X99.325 Y99.298 E.05496
G1 X98.734 Y97.545 E.058
G1 X98.234 Y95.763 E.05803
G1 X97.844 Y94.055 E.05493
G1 X97.522 Y92.23 E.05811
G1 X97.305 Y90.492 E.05492
G1 X97.165 Y88.646 E.05805
G1 X97.121 Y86.796 E.05802
G1 X97.165 Y85.044 E.05495
G1 X97.305 Y83.197 E.05808
G1 X97.522 Y81.459 E.05492
G1 X97.844 Y79.635 E.05807
G1 X98.234 Y77.927 E.05493
G1 X98.734 Y76.145 E.05803
G1 X99.325 Y74.391 E.05803
G1 X99.965 Y72.76 E.05493
G1 X100.727 Y71.072 E.05807
G1 X101.527 Y69.513 E.05494
G1 X102.452 Y67.909 E.05806
G1 X103.403 Y66.436 E.05497
G1 X104.481 Y64.933 E.05799
G1 X105.637 Y63.487 E.05805
G1 X106.796 Y62.173 E.05494
G1 X108.09 Y60.847 E.05809
G1 X109.374 Y59.655 E.05493
G1 X110.791 Y58.465 E.05802
G1 X112.267 Y57.349 E.05802
G1 X113.716 Y56.362 E.05497
G1 X115.296 Y55.397 E.05805
G1 X116.835 Y54.559 E.05494
G1 X118.504 Y53.755 E.05809
G1 X120.118 Y53.075 E.05491
G1 X121.857 Y52.44 E.05805
G1 X123.626 Y51.897 E.05802
G1 X125.324 Y51.464 E.05494
G1 X127.139 Y51.098 E.05805
G1 X128.872 Y50.837 E.05495
G1 X130.714 Y50.651 E.05805
G1 X132.465 Y50.564 E.05497
G1 X134.315 Y50.562 E.05801
G1 X136.164 Y50.656 E.05805
G1 X137.907 Y50.83 E.05492
G1 X139.839 Y51.126 E.06128
M204 S1000
G1 X139.972 Y50.769 F10800
M204 S800
;TYPE:External perimeter
G1 F1200
G1 X141.54 Y51.086 E.05016
G1 X143.353 Y51.546 E.05865
G1 X145.138 Y52.099 E.05859
G1 X146.803 Y52.705 E.05556
G1 X148.526 Y53.432 E.05864
G1 X150.121 Y54.201 E.05552
G1 X151.765 Y55.095 E.05867
G1 X153.276 Y56.019 E.05553
G1 X154.822 Y57.071 E.05863
G1 X156.311 Y58.201 E.05861
G1 X157.667 Y59.339 E.0555
G1 X159.039 Y60.612 E.05868
G1 X160.275 Y61.88 E.05552
G1 X161.513 Y63.282 E.05864
G1 X162.618 Y64.667 E.05555
G1 X163.711 Y66.183 E.0586
G1 X164.724 Y67.755 E.05864
G1 X165.609 Y69.288 E.0555
G1 X166.463 Y70.954 E.0587
G1 X167.191 Y72.567 E.05549
G1 X167.876 Y74.308 E.05866
G1 X168.469 Y76.08 E.05859
G1 X168.949 Y77.786 E.05557
G1 X169.364 Y79.609 E.05862
G1 X169.672 Y81.353 E.05553
G1 X169.905 Y83.21 E.05868
G1 X170.037 Y84.974 E.05546
G1 X170.081 Y87.003 E.06363
G1 X170.037 Y88.716 E.05373
G1 X169.905 Y90.48 E.05546
G1 X169.672 Y92.336 E.05865
G1 X169.364 Y94.08 E.05553
G1 X168.949 Y95.904 E.05865
G1 X168.469 Y97.609 E.05554
G1 X167.876 Y99.382 E.05862
G1 X167.191 Y101.122 E.05863
G1 X166.463 Y102.736 E.05552
G1 X165.609 Y104.401 E.05867
G1 X164.724 Y105.935 E.05553
G1 X163.711 Y107.506 E.05861
G1 X162.618 Y109.023 E.05862
G1 X161.513 Y110.408 E.05555
G1 X160.275 Y111.81 E.05864
G1 X159.039 Y113.077 E.0555
G1 X157.667 Y114.35 E.05868
G1 X156.311 Y115.489 E.05552
G1 X154.822 Y116.619 E.05861
G1 X153.276 Y117.671 E.05863
G1 X151.765 Y118.594 E.05552
G1 X150.121 Y119.489 E.05869
G1 X148.526 Y120.257 E.05551
G1 X146.803 Y120.984 E.05864
G1 X145.138 Y121.59 E.05556
G1 X143.353 Y122.143 E.05859
G1 X141.54 Y122.604 E.05865
G1 X139.805 Y122.955 E.0555
G1 X137.954 Y123.234 E.05869
G1 X136.192 Y123.41 E.05552
G1 X134.325 Y123.505 E.05861
G1 X132.455 Y123.502 E.05863
G1 X130.686 Y123.414 E.05553
G1 X128.825 Y123.227 E.05864
G1 X127.074 Y122.963 E.05552
G1 X125.24 Y122.593 E.05866
G1 X123.524 Y122.156 E.05552
G1 X121.737 Y121.607 E.05861
G1 X119.98 Y120.966 E.05864
G1 X118.348 Y120.278 E.05553
G1 X116.663 Y119.466 E.05865
G1 X115.108 Y118.619 E.05552
G1 X113.511 Y117.644 E.05867
G1 X112.047 Y116.647 E.05554
G1 X110.556 Y115.52 E.0586
G1 X109.124 Y114.317 E.05864
G1 X107.826 Y113.113 E.05551
G1 X106.519 Y111.773 E.05869
G1 X105.348 Y110.445 E.05551
G1 X104.181 Y108.984 E.05863
G1 X103.091 Y107.465 E.05862
G1 X102.13 Y105.977 E.05554
G1 X101.195 Y104.357 E.05865
G1 X100.388 Y102.781 E.05552
G1 X99.618 Y101.076 E.05866
G1 X98.97 Y99.427 E.05555
G1 X98.373 Y97.656 E.0586
G1 X97.868 Y95.856 E.05862
G1 X97.474 Y94.129 E.05554
G1 X97.149 Y92.286 E.05868
G1 X96.929 Y90.53 E.05549
G1 X96.788 Y88.665 E.05864
G1 X96.744 Y86.796 E.05862
G1 X96.788 Y85.025 E.05555
G1 X96.929 Y83.16 E.05864
G1 X97.149 Y81.403 E.05552
G1 X97.474 Y79.56 E.05868
G1 X97.868 Y77.834 E.05551
G1 X98.373 Y76.033 E.05865
G1 X98.97 Y74.262 E.0586
G1 X99.618 Y72.613 E.05555
G1 X100.388 Y70.908 E.05866
G1 X101.195 Y69.333 E.05549
G1 X102.13 Y67.712 E.05867
G1 X103.091 Y66.224 E.05554
G1 X104.181 Y64.705 E.05862
G1 X105.348 Y63.244 E.05863
G1 X106.519 Y61.916 E.05551
G1 X107.826 Y60.577 E.05867
G1 X109.124 Y59.373 E.05551
G1 X110.556 Y58.17 E.05864
G1 X112.047 Y57.043 E.0586
G1 X113.511 Y56.045 E.05555
G1 X115.108 Y55.07 E.05867
G1 X116.663 Y54.224 E.0555
G1 X118.348 Y53.412 E.05865
G1 X119.98 Y52.724 E.05553
G1 X121.737 Y52.083 E.05864
G1 X123.524 Y51.533 E.05862
G1 X125.24 Y51.096 E.05552
G1 X127.074 Y50.726 E.05866
G1 X128.825 Y50.462 E.05552
G1 X130.686 Y50.275 E.05864
G1 X132.455 Y50.187 E.05553
G1 X134.325 Y50.185 E.05863
G1 X136.192 Y50.28 E.05861
G1 X137.954 Y50.456 E.05552
G1 X139.913 Y50.757 E.06214
M204 S1000
G1 X140.108 Y51.145 F10800
;WIPE_START
G1 F8640
G1 X141.54 Y51.086 E-.38328
G1 X143.289 Y51.53 E-.41672
;WIPE_END
G1 Z.6 F720
G1 X150.764 Y69.137 F10800
G1 Z.2 F720
G1 E.8 F2100
M204 S800
;TYPE:Perimeter
G1 F1200
G1 X151.771 Y70.189 E.04566
G1 X152.566 Y71.109 E.03812
G1 X153.332 Y72.09 E.03902
G1 X154.016 Y73.062 E.03727
G1 X154.668 Y74.09 E.03817
G1 X155.268 Y75.148 E.03814
G1 X155.816 Y76.234 E.03814
G1 X156.309 Y77.346 E.03814
G1 X156.748 Y78.481 E.03816
G1 X157.132 Y79.641 E.03831
G1 X157.456 Y80.811 E.03807
G1 X157.722 Y81.995 E.03805
G1 X157.932 Y83.199 E.03832
G1 X158.081 Y84.401 E.03798
G1 X158.171 Y85.615 E.03817
G1 X158.201 Y86.859 E.03902
G1 X158.172 Y88.048 E.03729
G1 X158.083 Y89.261 E.03813
G1 X157.935 Y90.469 E.03816
G1 X157.722 Y91.694 E.03899
G1 X157.462 Y92.856 E.03733
G1 X157.13 Y94.053 E.03895
G1 X156.756 Y95.184 E.03735
G1 X156.281 Y96.406 E.04111
G1 X155.826 Y97.433 E.03522
G1 X155.279 Y98.521 E.03818
G1 X154.68 Y99.58 E.03815
G1 X154.029 Y100.608 E.03815
G1 X153.332 Y101.599 E.03799
G1 X152.584 Y102.559 E.03816
G1 X151.79 Y103.48 E.03813
G1 X150.798 Y104.522 E.04511
G1 X150.552 Y104.674 E.00907
G1 X150.308 Y104.692 E.00767
G1 X150.072 Y104.601 E.00793
G1 X148.261 Y102.805 E.07997
G1 X148.131 Y102.601 E.00758
G1 X148.096 Y102.431 E.00544
G1 X148.117 Y102.252 E.00565
G1 X148.295 Y101.969 E.01048
M73 Q1 S76
G1 X149.132 Y101.09 E.03806
G1 X149.812 Y100.302 E.03263
G1 X150.453 Y99.481 E.03266
G1 X151.052 Y98.63 E.03263
G1 X151.609 Y97.75 E.03265
G1 X152.122 Y96.844 E.03264
M73 P1 R76
G1 X152.59 Y95.914 E.03264
G1 X153.012 Y94.962 E.03265
G1 X153.387 Y93.991 E.03264
G1 X153.714 Y93.002 E.03266
G1 X153.991 Y91.999 E.03263
G1 X154.219 Y90.983 E.03265
G1 X154.397 Y89.957 E.03265
G1 X154.525 Y88.924 E.03264
G1 X154.602 Y87.886 E.03264
G1 X154.627 Y86.845 E.03265
G1 X154.602 Y85.804 E.03265
G1 X154.525 Y84.766 E.03264
G1 X154.397 Y83.732 E.03267
G1 X154.219 Y82.706 E.03265
G1 X153.991 Y81.69 E.03265
G1 X153.714 Y80.687 E.03263
G1 X153.387 Y79.698 E.03266
G1 X153.012 Y78.727 E.03264
G1 X152.59 Y77.775 E.03265
G1 X152.122 Y76.845 E.03264
G1 X151.609 Y75.939 E.03264
G1 X151.052 Y75.06 E.03263
G1 X150.453 Y74.208 E.03266
G1 X149.812 Y73.388 E.03263
G1 X149.132 Y72.599 E.03266
G1 X148.252 Y71.675 E.04001
G1 X148.109 Y71.406 E.00955
G1 X148.12 Y71.121 E.00894
G1 X148.261 Y70.885 E.00862
G1 X149.99 Y69.156 E.07667
G1 X150.209 Y69.021 E.00807
G1 X150.489 Y69 E.0088
G1 X150.718 Y69.1 E.00783
M204 S1000
G1 X150.525 Y69.427 F10800
M204 S800
;TYPE:External perimeter
G1 F1200
G1 X151.498 Y70.449 E.04424
G1 X152.281 Y71.356 E.03757
G1 X153.023 Y72.307 E.03782
G1 X153.708 Y73.279 E.03728
G1 X154.349 Y74.291 E.03756
G1 X154.94 Y75.334 E.03759
G1 X155.479 Y76.404 E.03757
G1 X155.965 Y77.499 E.03756
G1 X156.396 Y78.617 E.03757
G1 X156.772 Y79.756 E.03761
G1 X157.092 Y80.91 E.03755
G1 X157.355 Y82.081 E.03763
G1 X157.56 Y83.26 E.03752
G1 X157.707 Y84.457 E.03781
G1 X157.795 Y85.645 E.03735
G1 X157.824 Y86.849 E.03776
G1 X157.795 Y88.038 E.03729
G1 X157.707 Y89.233 E.03757
G1 X157.561 Y90.422 E.03756
G1 X157.356 Y91.603 E.03758
G1 X157.094 Y92.772 E.03756
G1 X156.774 Y93.927 E.03758
G1 X156.399 Y95.065 E.03757
G1 X155.968 Y96.183 E.03757
G1 X155.482 Y97.278 E.03756
G1 X154.944 Y98.349 E.03758
G1 X154.353 Y99.391 E.03756
G1 X153.712 Y100.404 E.03759
G1 X153.022 Y101.384 E.03758
G1 X152.287 Y102.327 E.03749
G1 X151.503 Y103.236 E.03764
G1 X150.524 Y104.264 E.04451
G1 X150.381 Y104.321 E.00483
G1 X150.256 Y104.266 E.00428
G1 X148.528 Y102.538 E.07662
G1 X148.473 Y102.414 E.00425
G1 X148.525 Y102.275 E.00465
G1 X149.411 Y101.344 E.0403
G1 X150.104 Y100.541 E.03326
G1 X150.756 Y99.706 E.03322
G1 X151.366 Y98.839 E.03324
G1 X151.933 Y97.944 E.03322
G1 X152.455 Y97.022 E.03322
G1 X152.931 Y96.076 E.0332
G1 X153.361 Y95.107 E.03324
G1 X153.742 Y94.118 E.03323
G1 X154.075 Y93.112 E.03323
G1 X154.357 Y92.091 E.03321
G1 X154.589 Y91.057 E.03323
G1 X154.771 Y90.013 E.03323
G1 X154.9 Y88.961 E.03323
G1 X154.978 Y87.904 E.03323
G1 X155.004 Y86.845 E.03321
G1 X154.978 Y85.785 E.03325
G1 X154.9 Y84.729 E.0332
G1 X154.771 Y83.677 E.03323
G1 X154.589 Y82.633 E.03323
G1 X154.357 Y81.599 E.03323
G1 X154.075 Y80.577 E.03324
G1 X153.742 Y79.571 E.03323
G1 X153.361 Y78.583 E.0332
G1 X152.931 Y77.614 E.03324
G1 X152.455 Y76.667 E.03323
G1 X151.933 Y75.745 E.03322
G1 X151.366 Y74.85 E.03322
G1 X150.756 Y73.984 E.03321
G1 X150.104 Y73.148 E.03324
G1 X149.411 Y72.346 E.03323
G1 X148.525 Y71.415 E.0403
G1 X148.474 Y71.263 E.00503
G1 X148.528 Y71.151 E.0039
G1 X150.256 Y69.423 E.07662
G1 X150.401 Y69.369 E.00485
