; generated by PrusaSlicer 2.6.0+linux-x64-GTK3 on 2023-08-13 at 22:58:37 UTC


;
;
; 

; external perimeters extrusion width = 0.60mm
; perimeters extrusion width = 0.50mm
; infill extrusion width = 0.50mm
; solid infill extrusion width = 0.50mm
; top infill extrusion width = 0.45mm
; first layer extrusion width = 0.42mm

M73 P0 R26
M73 Q0 S26
M201 X1000 Y1000 Z200 E5000 ; sets maximum accelerations, mm/sec^2
M203 X200 Y200 Z12 E120 ; sets maximum feedrates, mm / sec
M204 S1250 T1250 ; sets acceleration (S) and retract acceleration (R), mm/sec^2
M205 X8.00 Y8.00 Z0.40 E4.50 ; sets the jerk limits, mm/sec
M205 S0 T0 ; sets the minimum extruding and travel feed rate, mm/sec
;TYPE:Custom
M862.3 P "MK3S" ; printer model check
M862.1 P0.4 ; nozzle diameter check
M115 U3.12.2 ; tell printer latest fw version
G90 ; use absolute coordinates
M83 ; extruder relative mode
M104 S240 ; set extruder temp
M140 S50 ; set bed temp
M190 S50 ; wait for bed temp
M109 S240 ; wait for extruder temp
G28 W ; home all without mesh bed level
G80 ; mesh bed leveling

G1 Z0.2 F720
G1 Y-3 F1000 ; go outside print area
G92 E0
G1 X60 E9 F1000 ; intro line
G1 X100 E12.5 F1000 ; intro line

G92 E0
M221 S95

; Don't change E values below. Excessive value can damage the printer.

M907 E538 ; set extruder motor current
G21 ; set units to millimeters
G90 ; use absolute coordinates
M83 ; use relative distances for extrusion
M900 K0 ; Filament gcode
M107
;LAYER_CHANGE
;Z:0.2
;HEIGHT:0.2
;BEFORE_LAYER_CHANGE
G92 E0.0
;0.2


G1 E-.8 F2100
G1 Z.2 F720
;AFTER_LAYER_CHANGE
;0.2
G1 X117.375 Y99.622 F10800
G1 E.8 F1500
M204 S800
;TYPE:Skirt/Brim
;WIDTH:0.42
G1 F1074.044
G1 X118.61 Y98.201 E.06611
G1 X119.45 Y97.499 E.03844
G1 X120.668 Y96.692 E.05131
G1 X121.94 Y96.139 E.04871
G1 X123.44 Y95.751 E.05441
G1 X125.285 Y95.626 E.06494
G1 X126.931 Y95.827 E.05823
G1 X128.726 Y96.404 E.06621
G1 X130.188 Y97.196 E.05839
G1 X131.607 Y98.344 E.0641
G1 X132.326 Y99.156 E.03809
G1 X132.904 Y99.954 E.0346
G1 X133.734 Y101.613 E.06514
G1 X134.233 Y103.335 E.06296
G1 X134.376 Y105.125 E.06306
G1 X134.187 Y106.905 E.06286
M73 P0 R25
M73 Q0 S25
G1 X133.602 Y108.693 E.06606
G1 X132.716 Y110.324 E.06518
G1 X131.429 Y111.826 E.06946
G1 X129.995 Y112.928 E.06351
G1 X128.413 Y113.725 E.06221
G1 X126.501 Y114.258 E.0697
G1 X124.777 Y114.374 E.06068
G1 X123.093 Y114.18 E.05953
G1 X122.003 Y113.887 E.03964
G1 X120.966 Y113.466 E.0393
G1 X119.489 Y112.529 E.06142
G1 X118.249 Y111.44 E.05795
G1 X117.164 Y110.065 E.06151
G1 X116.298 Y108.367 E.06694
G1 X115.803 Y106.576 E.06525
G1 X115.672 Y104.805 E.06236
G1 X115.903 Y102.925 E.06652
G1 X116.459 Y101.243 E.06221
G1 X117.346 Y99.674 E.06329
M204 S1000
G1 X117.672 Y99.858 F10800
M204 S800
G1 F1074.044
G1 X118.871 Y98.473 E.06433
G1 X119.672 Y97.804 E.03665
G1 X120.86 Y97.016 E.05006
G1 X122.078 Y96.49 E.04659
G1 X123.504 Y96.123 E.05171
G1 X125.281 Y96.003 E.06254
G1 X126.84 Y96.193 E.05515
G1 X128.579 Y96.751 E.06413
G1 X129.975 Y97.507 E.05575
G1 X131.34 Y98.61 E.06163
G1 X132.584 Y100.153 E.0696
G1 X133.386 Y101.759 E.06304
G1 X133.862 Y103.404 E.06014
G1 X133.999 Y105.116 E.06031
G1 X133.817 Y106.832 E.0606
G1 X133.26 Y108.534 E.06289
G1 X132.408 Y110.106 E.06279
G1 X131.166 Y111.555 E.06702
G1 X129.798 Y112.607 E.0606
G1 X128.28 Y113.372 E.05969
G1 X126.432 Y113.887 E.06737
G1 X124.788 Y113.997 E.05786
G1 X123.18 Y113.813 E.05684
G1 X122.123 Y113.53 E.03843
G1 X121.118 Y113.12 E.03812
G1 X119.715 Y112.227 E.0584
G1 X118.52 Y111.178 E.05584
G1 X117.483 Y109.863 E.05881
G1 X116.648 Y108.227 E.0645
G1 X116.175 Y106.51 E.06254
G1 X116.049 Y104.816 E.05965
G1 X116.272 Y103.005 E.06408
G1 X116.803 Y101.398 E.05943
G1 X117.643 Y99.91 E.06001
M204 S1000
; printing object R206-Flex-Stop-x4.stl id:0 copy 0
G1 E-.8 F2100
G1 X130.056 Y103.424 F10800
G1 E.8 F1500
M204 S800
;TYPE:Perimeter
;WIDTH:0.45213
G1 F989.712
G1 X130.183 Y103.922 E.01959
G1 X130.263 Y104.46 E.02073
;WIDTH:0.455201
G1 F982.34
G1 X130.291 Y105.017 E.02141
G1 X130.278 Y105.455 E.01682
;WIDTH:0.4518
G1 F990.511
G1 X130.207 Y105.955 E.01923
G1 X130.088 Y106.467 E.02002
;WIDTH:0.44969
G1 F995.649
G1 X129.765 Y107.298 E.03377
;WIDTH:0.450008
G1 F994.871
G1 X129.523 Y107.749 E.0194
;WIDTH:0.452099
G1 F989.787
G1 X129.24 Y108.165 E.01917
G1 X128.749 Y108.739 E.02878
;WIDTH:0.446084
G1 F1004.554
G1 X128.06 Y109.32 E.03384
;WIDTH:0.449617
G1 F995.827
G1 X127.634 Y109.59 E.0191
G1 X127.087 Y109.86 E.0231
;WIDTH:0.452825
G1 F988.034
G1 X126.515 Y110.068 E.02323
G1 X126.007 Y110.198 E.02002
;WIDTH:0.445958
G1 F1004.868
G1 X125.358 Y110.281 E.02456
;WIDTH:0.445648
G1 F1005.641
G1 X124.847 Y110.292 E.01917
;WIDTH:0.451929
G1 F990.198
G1 X124.32 Y110.246 E.02015
G1 X123.705 Y110.129 E.02385
;WIDTH:0.450008
G1 F994.871
G1 X123.211 Y109.982 E.01954
;WIDTH:0.452936
G1 F987.766
G1 X122.742 Y109.783 E.01945
G1 X122.075 Y109.395 E.02946
;WIDTH:0.45071
G1 F993.158
G1 X121.561 Y109.013 E.02432
G1 X121.189 Y108.666 E.01932
;WIDTH:0.441719
G1 F1015.549
G1 X120.621 Y107.96 E.03365
;WIDTH:0.442374
G1 F1013.884
G1 X120.241 Y107.306 E.02814
;WIDTH:0.449455
G1 F996.224
G1 X120.047 Y106.844 E.01897
G1 X119.793 Y105.924 E.03613
;WIDTH:0.444834
G1 F1007.678
G1 X119.73 Y105.427 E.01875
G1 X119.745 Y104.479 E.03549
;WIDTH:0.440733
G1 F1018.066
G1 X119.854 Y103.776 E.02636
;WIDTH:0.450392
G1 F993.933
G1 X119.998 Y103.296 E.01902
G1 X120.26 Y102.662 E.02603
;WIDTH:0.449216
G1 F996.81
G1 X120.64 Y102.012 E.02849
G1 X120.94 Y101.612 E.01892
;WIDTH:0.444349
G1 F1008.896
G1 X121.507 Y101.032 E.03032
;WIDTH:0.450028
G1 F994.822
G1 X121.999 Y100.649 E.02364
G1 X122.463 Y100.357 E.02079
;WIDTH:0.453159
G1 F987.229
G1 X123.021 Y100.095 E.02355
G1 X123.506 Y99.921 E.01969
;WIDTH:0.44646
M73 Q1 S25
G1 F1003.618
G1 X124.01 Y99.798 E.0195
;WIDTH:0.452504
G1 F988.808
G1 X124.522 Y99.732 E.01969
G1 X125.025 Y99.706 E.01921
;WIDTH:0.447834
G1 F1000.212
G1 X125.604 Y99.741 E.02187
;WIDTH:0.452523
G1 F988.762
G1 X126.104 Y99.824 E.01933
G1 X126.611 Y99.959 E.02001
;WIDTH:0.448799
G1 F997.834
G1 X127.355 Y100.261 E.03035
;WIDTH:0.443208
G1 F1011.772
G1 X127.905 Y100.572 E.02355
;WIDTH:0.453115
G1 F987.335
G1 X128.308 Y100.87 E.01915
G1 X128.73 Y101.246 E.02159
;WIDTH:0.441955
G1 F1014.948
M73 P1 R25
G1 X129.08 Y101.633 E.01939
;WIDTH:0.454495
G1 F984.025
G1 X129.434 Y102.115 E.02292
G1 X129.704 Y102.606 E.02148
;WIDTH:0.443805
G1 F1010.265
G1 X130.032 Y103.369 E.03101
M204 S1000
G1 X130.386 Y103.199 F10800
M204 S800
;TYPE:External perimeter
;WIDTH:0.419999
G1 F1074.046
G1 X130.57 Y103.856 E.02396
G1 X130.651 Y104.436 E.02057
G1 X130.685 Y105.033 E.021
G1 X130.665 Y105.519 E.01708
G1 X130.596 Y106.017 E.01766
G1 X130.478 Y106.526 E.01835
G1 X130.321 Y107.001 E.01757
G1 X130.118 Y107.469 E.01791
G1 X129.854 Y107.961 E.01961
G1 X129.56 Y108.395 E.01841
G1 X129.067 Y108.974 E.0267
G1 X128.688 Y109.327 E.01819
G1 X128.277 Y109.646 E.01827
G1 X127.826 Y109.933 E.01877
G1 X127.124 Y110.272 E.02738
G1 X126.637 Y110.443 E.01813
G1 X126.091 Y110.58 E.01977
G1 X125.398 Y110.669 E.02454
G1 X124.853 Y110.683 E.01914
G1 X124.279 Y110.638 E.02022
G1 X123.622 Y110.514 E.02348
G1 X123.09 Y110.355 E.0195
G1 X122.578 Y110.143 E.01946
G1 X121.694 Y109.616 E.03614
G1 X121.297 Y109.304 E.01773
G1 X120.914 Y108.942 E.01851
G1 X120.419 Y108.354 E.02699
G1 X120.133 Y107.924 E.01814
G1 X119.886 Y107.467 E.01824
G1 X119.683 Y106.99 E.0182
G1 X119.523 Y106.498 E.01817
G1 X119.408 Y105.982 E.01856
G1 X119.342 Y105.468 E.0182
G1 X119.323 Y104.951 E.01817
G1 X119.381 Y104.183 E.02705
G1 X119.479 Y103.677 E.0181
G1 X119.622 Y103.179 E.01819
G1 X119.81 Y102.696 E.0182
G1 X120.048 Y102.222 E.01863
G1 X120.322 Y101.782 E.0182
G1 X120.634 Y101.369 E.01818
G1 X120.982 Y100.987 E.01815
G1 X121.357 Y100.644 E.01785
G1 X121.768 Y100.331 E.01814
G1 X122.262 Y100.019 E.02052
G1 X122.86 Y99.734 E.02326
G1 X123.385 Y99.548 E.01956
G1 X123.927 Y99.416 E.01959
G1 X124.477 Y99.34 E.0195
G1 X125.017 Y99.315 E.01898
G1 X125.646 Y99.351 E.02212
G1 X126.176 Y99.436 E.01885
G1 X126.721 Y99.582 E.01981
G1 X127.208 Y99.761 E.01822
G1 X127.676 Y99.984 E.01821
G1 X128.126 Y100.251 E.01837
G1 X128.546 Y100.555 E.01821
G1 X128.941 Y100.901 E.01844
G1 X129.464 Y101.479 E.02737
G1 X129.763 Y101.894 E.01796
G1 X130.261 Y102.853 E.03795
G1 X130.366 Y103.143 E.01083
M204 S1000
G1 X130.124 Y103.501 F10800
G1 E-.8 F2100
G1 X126.684 Y100.421 F10800
G1 E.8 F1500
M204 S800
;TYPE:Perimeter
;WIDTH:0.448799
G1 F997.834
G1 X127.09 Y100.576 E.01643
;WIDTH:0.44286
G1 F1012.652
G1 X127.66 Y100.891 E.02426
;WIDTH:0.444396
G1 F1008.778
G1 X128.369 Y101.451 E.03378
G1 X128.784 Y101.899 E.02283
;WIDTH:0.454495
G1 F984.025
G1 X129.08 Y102.324 E.01985
G1 X129.35 Y102.771 E.02002
;WIDTH:0.444111
G1 F1009.494
G1 X129.666 Y103.524 E.03051
;WIDTH:0.444268
G1 X129.854 Y104.362 E.0321
;WIDTH:0.455201
G1 F982.34
G1 X129.879 Y105.01 E.0249
G1 X129.868 Y105.519 E.01955
;WIDTH:0.443556
G1 F1010.893
G1 X129.732 Y106.252 E.02782
;WIDTH:0.443058
G1 F1012.151
G1 X129.522 Y106.869 E.02429
;WIDTH:0.450008
G1 F994.871
G1 X129.165 Y107.556 E.02935
G1 X128.544 Y108.373 E.03891
;WIDTH:0.447943
G1 F999.943
G1 X128.168 Y108.724 E.0194
G1 X127.673 Y109.099 E.02342
;WIDTH:0.441066
G1 F1017.215
G1 X126.93 Y109.494 E.0312
;WIDTH:0.452825
G1 F988.034
G1 X126.404 Y109.674 E.02122
G1 X125.952 Y109.798 E.01789
;WIDTH:0.445958
G1 F1004.868
G1 X125.435 Y109.872 E.0196
;WIDTH:0.445591
G1 F1005.784
G1 X124.888 Y109.891 E.02052
;WIDTH:0.451929
G1 F990.198
G1 X124.379 Y109.841 E.01948
G1 X123.819 Y109.739 E.02168
;WIDTH:0.450008
G1 F994.871
G1 X123.28 Y109.581 E.02129
;WIDTH:0.443337
G1 F1011.445
G1 X122.397 Y109.134 E.03691
;WIDTH:0.45071
G1 F993.158
G1 X121.815 Y108.693 E.02773
G1 X121.494 Y108.41 E.01625
;WIDTH:0.44244
G1 F1013.716
G1 X121.043 Y107.872 E.02612
G1 X120.59 Y107.112 E.03292
;WIDTH:0.445516
G1 F1005.971
G1 X120.285 Y106.277 E.03333
G1 X120.145 Y105.591 E.02625
;WIDTH:0.450717
G1 F993.141
G1 X120.124 Y104.961 E.02394
G1 X120.168 Y104.295 E.02535
;WIDTH:0.446354
G1 F1003.882
G1 X120.258 Y103.801 E.01887
;WIDTH:0.44327
G1 F1011.615
G1 X120.538 Y103.003 E.03153
;WIDTH:0.449216
G1 F996.81
G1 X120.985 Y102.226 E.03392
G1 X121.236 Y101.883 E.01608
;WIDTH:0.444349
G1 F1008.896
G1 X121.679 Y101.41 E.02423
;WIDTH:0.450028
G1 F994.822
G1 X122.229 Y100.985 E.02635
G1 X122.634 Y100.724 E.01827
;WIDTH:0.453159
G1 F987.229
G1 X123.174 Y100.475 E.02272
G1 X123.603 Y100.312 E.01753
;WIDTH:0.44646
G1 F1003.618
G1 X124.113 Y100.188 E.01972
;WIDTH:0.443871
G1 F1010.098
G1 X124.915 Y100.109 E.03009
G1 X125.483 Y100.132 E.02123
;WIDTH:0.452523
G1 F988.762
G1 X126.014 Y100.224 E.02056
G1 X126.47 Y100.339 E.01794
;WIDTH:0.448799
G1 F997.834
G1 X126.628 Y100.4 E.0064
M204 S1000
G1 X126.573 Y100.798 F10800
M204 S800
;TYPE:External perimeter
;WIDTH:0.419999
G1 F1074.046
G1 X126.766 Y100.869 E.00722
G1 X127.468 Y101.229 E.0277
G1 X128.126 Y101.755 E.02958
G1 X128.497 Y102.16 E.01929
G1 X128.978 Y102.886 E.03058
G1 X129.306 Y103.672 E.02991
G1 X129.473 Y104.443 E.0277
G1 X129.486 Y105.448 E.0353
G1 X129.35 Y106.181 E.02618
G1 X129.156 Y106.74 E.02078
G1 X128.819 Y107.37 E.02509
G1 X128.24 Y108.131 E.03358
G1 X127.796 Y108.532 E.02101
G1 X127.259 Y108.885 E.02257
G1 X126.75 Y109.151 E.02017
G1 X125.954 Y109.402 E.02931
G1 X125.379 Y109.488 E.02042
G1 X124.924 Y109.503 E.01599
G1 X124.148 Y109.422 E.0274
G1 X123.452 Y109.226 E.02539
G1 X122.572 Y108.793 E.03444
G1 X121.792 Y108.161 E.03525
G1 X121.313 Y107.589 E.0262
G1 X120.927 Y106.92 E.02712
G1 X120.654 Y106.151 E.02866
G1 X120.525 Y105.524 E.02248
G1 X120.516 Y104.957 E.01991
G1 X120.515 Y104.589 E.01292
G1 X120.624 Y103.929 E.02349
G1 X120.904 Y103.133 E.02963
G1 X121.319 Y102.431 E.02864
G1 X121.521 Y102.148 E.01221
G1 X121.962 Y101.673 E.02276
G1 X122.461 Y101.3 E.02188
G1 X122.796 Y101.08 E.01407
G1 X123.573 Y100.726 E.02998
G1 X124.146 Y100.577 E.02079
G1 X124.953 Y100.496 E.02848
G1 X125.477 Y100.526 E.01843
G1 X126.189 Y100.655 E.02541
G1 X126.517 Y100.777 E.01229
M204 S1000
G1 X126.726 Y100.661 F10800
; stop printing object R206-Flex-Stop-x4.stl id:0 copy 0
;LAYER_CHANGE
;Z:0.5
;HEIGHT:0.3
;BEFORE_LAYER_CHANGE
G92 E0.0
;0.5


G1 E-.8 F2100
G1 Z.5 F720
;AFTER_LAYER_CHANGE
;0.5
G1 X127.997 Y96.17 F10800
G1 E.8 F1500
;TYPE:Skirt/Brim
;WIDTH:0.42
G1 F759.239
G1 X128.726 Y96.404 E.03803
G1 X130.188 Y97.196 E.0826
G1 X131.607 Y98.344 E.09067
G1 X132.326 Y99.156 E.05388
G1 X132.904 Y99.954 E.04895
G1 X133.734 Y101.613 E.09215
G1 X134.233 Y103.335 E.08906
G1 X134.376 Y105.125 E.08921
G1 X134.187 Y106.905 E.08892
G1 X133.602 Y108.693 E.09346
G1 X132.716 Y110.324 E.09221
G1 X131.429 Y111.826 E.09826
G1 X129.995 Y112.928 E.08984
G1 X128.413 Y113.725 E.088
G1 X126.501 Y114.258 E.0986
G1 X124.777 Y114.374 E.08584
G1 X123.093 Y114.18 E.08421
G1 X122.003 Y113.887 E.05607
G1 X120.966 Y113.466 E.0556
G1 X119.489 Y112.529 E.08689
G1 X118.249 Y111.44 E.08198
G1 X117.164 Y110.065 E.08701
G1 X116.298 Y108.367 E.09469
G1 X115.803 Y106.576 E.09231
G1 X115.672 Y104.805 E.08822
G1 X115.903 Y102.925 E.0941
G1 X116.459 Y101.243 E.088
G1 X117.375 Y99.622 E.09249
G1 X118.61 Y98.201 E.09353
G1 X119.45 Y97.499 E.05438
G1 X120.668 Y96.692 E.07258
G1 X121.94 Y96.139 E.0689
G1 X123.44 Y95.751 E.07697
G1 X125.285 Y95.626 E.09186
G1 X126.931 Y95.827 E.08238
G1 X127.94 Y96.151 E.05265
G1 X127.825 Y96.509 F10800
G1 F759.239
G1 X128.579 Y96.751 E.03934
G1 X129.975 Y97.507 E.07887
G1 X131.34 Y98.61 E.08718
G1 X132.584 Y100.153 E.09846
G1 X133.386 Y101.759 E.08918
G1 X133.862 Y103.404 E.08507
G1 X133.999 Y105.116 E.08532
G1 X133.817 Y106.832 E.08572
G1 X133.26 Y108.534 E.08896
G1 X132.408 Y110.106 E.08883
G1 X131.166 Y111.555 E.09481
G1 X129.798 Y112.607 E.08573
G1 X128.28 Y113.372 E.08444
G1 X126.432 Y113.887 E.0953
G1 X124.788 Y113.997 E.08185
G1 X123.18 Y113.813 E.0804
G1 X122.123 Y113.53 E.05436
G1 X121.118 Y113.12 E.05392
G1 X119.715 Y112.227 E.08262
G1 X118.52 Y111.178 E.07899
G1 X117.483 Y109.863 E.08319
G1 X116.648 Y108.227 E.09125
G1 X116.175 Y106.51 E.08847
G1 X116.049 Y104.816 E.08439
G1 X116.272 Y103.005 E.09065
G1 X116.803 Y101.398 E.08408
G1 X117.681 Y99.842 E.08875
G1 X118.871 Y98.473 E.09011
G1 X119.672 Y97.804 E.05184
G1 X120.86 Y97.016 E.07082
G1 X122.078 Y96.49 E.06591
G1 X123.504 Y96.123 E.07315
G1 X125.281 Y96.003 E.08848
G1 X126.84 Y96.193 E.07802
G1 X127.768 Y96.491 E.04842
; printing object R206-Flex-Stop-x4.stl id:0 copy 0
G1 E-.8 F2100
G1 X130.271 Y103.291 F10800
M73 Q2 S25
G1 E.8 F1500
M204 S800
;TYPE:Perimeter
;WIDTH:0.502305
G1 F616.545

G1 X130.459 Y104.018 E.04594

;WIDTH:0.49572
G1 F625.958

G1 X130.549 Y104.913 E.0542


G1 X130.549 Y104.93 E.00102

;WIDTH:0.507836
M73 P2 R25
G1 F608.855

G1 X130.532 Y105.46 E.03285
G1 X130.472 Y105.96 E.0312

;WIDTH:0.504159
G1 F613.946

G1 X130.35 Y106.468 E.0321
G1 X130.153 Y107.03 E.03659

;WIDTH:0.495933
G1 F625.649

G1 X129.717 Y107.907 E.05904

;WIDTH:0.499925
G1 F619.914

G1 X129.319 Y108.479 E.0424

;WIDTH:0.5061
G1 F611.248

G1 X128.981 Y108.863 E.03157
G1 X128.608 Y109.217 E.03173

;WIDTH:0.498748
G1 F621.594

G1 X128.211 Y109.524 E.03045

;WIDTH:0.502527
G1 F616.233

G1 X127.781 Y109.796 E.03114
G1 X127.31 Y110.04 E.03247

;WIDTH:0.501708
G1 F617.387

G1 X126.841 Y110.228 E.03087
G1 X126.353 Y110.378 E.03119

;WIDTH:0.50877
G1 F607.576

G1 X125.862 Y110.48 E.03113
G1 X124.809 Y110.541 E.06548

;WIDTH:0.505729
G1 F611.762

G1 X124.049 Y110.456 E.04715

;WIDTH:0.495057
G1 F626.921

G1 X123.147 Y110.232 E.05591

;WIDTH:0.501568
G1 F617.585

G1 X122.606 Y110.004 E.03585
G1 X122.194 Y109.773 E.02885

;WIDTH:0.486685
G1 F639.35

G1 X121.603 Y109.366 E.04233

;WIDTH:0.491316
G1 F632.415

G1 X121.22 Y109.034 E.03023
G1 X120.865 Y108.675 E.03011

;WIDTH:0.483716
G1 F643.877

G1 X120.547 Y108.28 E.0297

;WIDTH:0.489389
G1 F635.282

G1 X120.241 Y107.813 E.03315
G1 X120.001 Y107.371 E.02986

;WIDTH:0.483179
G1 F644.702

G1 X119.807 Y106.905 E.02953

;WIDTH:0.4858
G1 F640.693

G1 X119.657 Y106.422 E.02977

;WIDTH:0.491253
G1 F632.508

G1 X119.521 Y105.732 E.04194
G1 X119.476 Y105.227 E.03023

;WIDTH:0.494484
G1 F627.757

