; generated by PrusaSlicer 2.6.0+linux-x64-GTK3 on 2023-09-17 at 00:58:48 UTC


;
;
; 

; external perimeters extrusion width = 0.60mm
; perimeters extrusion width = 0.50mm
; infill extrusion width = 0.50mm
; solid infill extrusion width = 0.50mm
; top infill extrusion width = 0.45mm
; support material extrusion width = 0.38mm
; first layer extrusion width = 0.42mm

M73 P0 R25
M73 Q0 S25
M201 X1000 Y1000 Z200 E5000 ; sets maximum accelerations, mm/sec^2
M203 X200 Y200 Z12 E120 ; sets maximum feedrates, mm / sec
M204 S1250 T1250 ; sets acceleration (S) and retract acceleration (R), mm/sec^2
M205 X8.00 Y8.00 Z0.40 E4.50 ; sets the jerk limits, mm/sec
M205 S0 T0 ; sets the minimum extruding and travel feed rate, mm/sec
;TYPE:Custom
M862.3 P "MK3S" ; printer model check
M862.1 P0.4 ; nozzle diameter check
M115 U3.12.2 ; tell printer latest fw version
G90 ; use absolute coordinates
M83 ; extruder relative mode
M104 S230 ; set extruder temp
M140 S85 ; set bed temp
M190 S85 ; wait for bed temp
M109 S230 ; wait for extruder temp
G28 W ; home all without mesh bed level
G80 ; mesh bed leveling

G1 Z0.2 F720
G1 Y-3 F1000 ; go outside print area
G92 E0
G1 X60 E9 F1000 ; intro line
G1 X100 E12.5 F1000 ; intro line

G92 E0
M221 S95

; Don't change E values below. Excessive value can damage the printer.

M907 E538 ; set extruder motor current
G21 ; set units to millimeters
G90 ; use absolute coordinates
M83 ; use relative distances for extrusion
M900 K0.08 ; Filament gcode LA 1.5
M900 K45 ; Filament gcode LA 1.0
M107
;LAYER_CHANGE
;Z:0.2
;HEIGHT:0.2
;BEFORE_LAYER_CHANGE
G92 E0.0
;0.2


G1 E-1 F2100
M73 P0 R24
G1 Z.2 F720
;AFTER_LAYER_CHANGE
;0.2
G1 Z.4
G1 X117.924 Y79.674 F10800
G1 Z.2 F720
G1 E1 F2100
M204 S800
;TYPE:Skirt/Brim
;WIDTH:0.42
G1 F1200
G1 X119.737 Y78.835 E.06264
G1 X130.263 Y78.835 E.33004
G1 X131.57 Y79.226 E.04277
G1 X132.623 Y80.924 E.06265
G1 X136.711 Y114.48 E1.0599
G1 X137.272 Y120.001 E.174
G1 X137.272 Y128.788 E.27551
G1 X136.88 Y130.095 E.04278
G1 X135.834 Y130.972 E.0428
G1 X134.895 Y131.165 E.03006
G1 X115.105 Y131.165 E.6205
G1 X113.798 Y130.774 E.04277
G1 X112.922 Y129.728 E.04278
G1 X112.728 Y128.788 E.03009
G1 X112.741 Y119.744 E.28357
G1 X113.294 Y114.437 E.1673
G1 X117.377 Y80.924 E1.05855
G1 X117.9 Y79.729 E.0409
M204 S1000
; printing object R206-Servo-Horn.stl id:0 copy 0
;WIPE_START
G1 F8640
G1 X119.737 Y78.835 E-.47173
G1 X122.025 Y78.835 E-.52827
;WIPE_END
G1 Z.4 F720
G1 X130.263 Y86.371 F10800
M73 Q0 S24
G1 Z.2 F720
G1 E1 F2100
M204 S800
;TYPE:Support material
G1 F1200
G1 X119.737 Y86.371 E.33004
G1 X119.737 Y81.212 E.16176
M73 P1 R24
M73 Q1 S24
G1 X130.263 Y81.212 E.33004
G1 X130.263 Y86.314 E.15997
M204 S1000
G1 X129.609 Y86.194 F10800
M204 S800
G1 F1200
G1 X129.609 Y81.551 E.14558
G1 X129.19 Y81.551 E.01314
G1 X129.19 Y86.024 E.14025
G1 X128.771 Y86.024 E.01314
G1 X128.771 Y81.551 E.14025
G1 X128.352 Y81.551 E.01314
G1 X128.352 Y86.024 E.14025
G1 X127.933 Y86.024 E.01314
G1 X127.933 Y81.551 E.14025
G1 X127.514 Y81.551 E.01314
G1 X127.514 Y86.024 E.14025
G1 X127.095 Y86.024 E.01314
G1 X127.095 Y81.551 E.14025
G1 X126.676 Y81.551 E.01314
G1 X126.676 Y86.024 E.14025
G1 X126.257 Y86.024 E.01314
G1 X126.257 Y81.551 E.14025
G1 X125.838 Y81.551 E.01314
G1 X125.838 Y86.024 E.14025
G1 X125.419 Y86.024 E.01314
G1 X125.419 Y81.551 E.14025
G1 X125 Y81.551 E.01314
G1 X125 Y86.024 E.14025
G1 X124.581 Y86.024 E.01314
G1 X124.581 Y81.551 E.14025
G1 X124.162 Y81.551 E.01314
G1 X124.162 Y86.024 E.14025
G1 X123.743 Y86.024 E.01314
G1 X123.743 Y81.551 E.14025
G1 X123.324 Y81.551 E.01314
G1 X123.324 Y86.024 E.14025
G1 X122.905 Y86.024 E.01314
G1 X122.905 Y81.551 E.14025
G1 X122.486 Y81.551 E.01314
G1 X122.486 Y86.024 E.14025
G1 X122.067 Y86.024 E.01314
G1 X122.067 Y81.551 E.14025
G1 X121.648 Y81.551 E.01314
G1 X121.648 Y86.024 E.14025
G1 X121.229 Y86.024 E.01314
G1 X121.229 Y81.551 E.14025
G1 X120.81 Y81.551 E.01314
G1 X120.81 Y86.024 E.14025
G1 X120.391 Y86.024 E.01314
G1 X120.391 Y81.381 E.14558
M204 S1000
;WIPE_START
G1 F8640
G1 X120.391 Y85.712 E-1
;WIPE_END
G1 Z.4 F720
G1 X125.208 Y112.227 F10800
G1 Z.2 F720
G1 E1 F2100
M204 S800
G1 F1200
G1 X125.47 Y112.25 E.00825
G1 X125.841 Y112.315 E.01181
G1 X126.204 Y112.417 E.01182
G1 X126.555 Y112.555 E.01183
G1 X126.89 Y112.727 E.01181
G1 X127.207 Y112.931 E.01182
G1 X127.501 Y113.166 E.0118
G1 X127.771 Y113.429 E.01182
G1 X128.013 Y113.718 E.01182
G1 X128.226 Y114.029 E.01182
G1 X128.406 Y114.36 E.01181
G1 X128.552 Y114.707 E.0118
G1 X128.663 Y115.067 E.01181
G1 X128.738 Y115.437 E.01184
G1 X128.775 Y115.812 E.01181
G1 X128.775 Y116.188 E.01179
G1 X128.738 Y116.563 E.01181
G1 X128.663 Y116.933 E.01184
G1 X128.552 Y117.293 E.01181
G1 X128.406 Y117.64 E.0118
G1 X128.226 Y117.971 E.01181
G1 X128.013 Y118.282 E.01182
G1 X127.771 Y118.571 E.01182
G1 X127.501 Y118.834 E.01182
G1 X127.207 Y119.069 E.0118
G1 X126.89 Y119.273 E.01182
G1 X126.555 Y119.445 E.01181
G1 X126.204 Y119.583 E.01183
G1 X125.841 Y119.685 E.01182
G1 X125.47 Y119.75 E.01181
G1 X125.094 Y119.779 E.01182
G1 X124.718 Y119.769 E.01179
G1 X124.344 Y119.722 E.01182
G1 X123.976 Y119.639 E.01183
G1 X123.619 Y119.519 E.01181
G1 X123.276 Y119.364 E.0118
G1 X122.949 Y119.175 E.01184
G1 X122.644 Y118.955 E.01179
G1 X122.361 Y118.706 E.01182
G1 X122.105 Y118.43 E.0118
G1 X121.877 Y118.129 E.01184
G1 X121.681 Y117.808 E.01179
G1 X121.517 Y117.468 E.01184
G1 X121.388 Y117.114 E.01181
G1 X121.295 Y116.749 E.01181
G1 X121.239 Y116.376 E.01183
G1 X121.22 Y116 E.0118
G1 X121.231 Y115.737 E.00825
G1 X121.321 Y115.141 E.0189
G1 X121.424 Y114.778 E.01183
G1 X121.564 Y114.428 E.01182
G1 X121.737 Y114.094 E.01179
G1 X121.943 Y113.779 E.0118
G1 X122.18 Y113.485 E.01184
G1 X122.444 Y113.217 E.0118
G1 X122.644 Y113.045 E.00827
G1 X122.949 Y112.825 E.01179
G1 X123.276 Y112.636 E.01184
G1 X123.619 Y112.481 E.0118
G1 X123.976 Y112.361 E.01181
G1 X124.344 Y112.278 E.01183
G1 X124.718 Y112.231 E.01182
G1 X125.151 Y112.224 E.01358
M204 S1000
G1 X128.352 Y117.338 F10800
M204 S800
G1 F1200
G1 X128.352 Y115.228 E.06616
G1 X128.196 Y114.73 E.01636
G1 X128.1 Y114.507 E.00761
G1 X127.933 Y114.201 E.01093
G1 X127.933 Y117.799 E.11281
G1 X127.743 Y118.077 E.01056
G1 X127.514 Y118.349 E.01115
G1 X127.514 Y113.651 E.1473
G1 X127.095 Y113.272 E.01771
G1 X127.095 Y118.728 E.17107
G1 X126.676 Y119.004 E.01573
G1 X126.676 Y112.996 E.18838
G1 X126.257 Y112.799 E.01452
G1 X126.257 Y119.201 E.20073
G1 X125.838 Y119.336 E.0138
G1 X125.838 Y112.664 E.2092
G1 X125.419 Y112.585 E.01337
G1 X125.419 Y119.415 E.21415
G1 X125 Y119.439 E.01316
G1 X125 Y112.561 E.21565
G1 X124.581 Y112.587 E.01316
G1 X124.581 Y119.413 E.21402
G1 X124.162 Y119.336 E.01336
G1 X124.162 Y112.664 E.2092
G1 X123.743 Y112.797 E.01378
G1 X123.743 Y119.202 E.20082
G1 X123.324 Y119.003 E.01454
G1 X123.324 Y112.997 E.18831
G1 X122.905 Y113.272 E.01571
G1 X122.905 Y118.728 E.17107
G1 X122.486 Y118.346 E.01778
G1 X122.486 Y113.654 E.14711
G1 X122.302 Y113.867 E.00883
G1 X122.067 Y114.205 E.01291
G1 X122.067 Y117.795 E.11256
G1 X121.83 Y117.336 E.0162
G1 X121.713 Y117.014 E.01074
G1 X121.648 Y116.77 E.00792
G1 X121.648 Y114.663 E.06606
M204 S1000
;WIPE_START
G1 F8640
G1 X121.648 Y116.77 E-.48651
G1 X121.713 Y117.014 E-.05831
G1 X121.83 Y117.336 E-.07911
G1 X122.067 Y117.795 E-.11928
G1 X122.067 Y116.683 E-.25679
;WIPE_END
G1 Z.4 F720
G1 X116.207 Y119.942 F10800
G1 Z.2 F720
G1 E1 F2100
M204 S800
G1 F1200
G1 X116.44 Y120.425 E.01681
G1 X116.696 Y120.885 E.01651
G1 X117.113 Y121.537 E.02427
M73 Q2 S24
G1 X117.424 Y121.956 E.01636
G1 X117.771 Y122.369 E.01691
G1 X118.305 Y122.93 E.02428
G1 X118.531 Y123.141 E.00969
G1 X118.732 Y123.22 E.00677
G1 X131.268 Y123.22 E.39306
M73 P2 R24
G1 X131.468 Y123.141 E.00674
G1 X131.687 Y122.939 E.00934
G1 X132.326 Y122.26 E.02923
G1 X132.671 Y121.831 E.01726
G1 X133.133 Y121.168 E.02534
G1 X133.408 Y120.708 E.0168
G1 X133.662 Y120.221 E.01722
G1 X133.908 Y119.668 E.01898
G1 X134.895 Y120.001 E.03266
G1 X134.895 Y128.788 E.27551
G1 X115.105 Y128.788 E.6205
G1 X115.105 Y119.99 E.27586
G1 X116.089 Y119.664 E.0325
G1 X116.185 Y119.89 E.0077
M204 S1000
;WIPE_START
G1 F8640
G1 X116.089 Y119.664 E-.0567
G1 X115.105 Y119.99 E-.23935
G1 X115.105 Y123.039 E-.70395
;WIPE_END
G1 Z.4 F720
G1 X134.217 Y128.619 F10800
G1 Z.2 F720
G1 E1 F2100
M204 S800
G1 F1200
G1 X134.217 Y120.131 E.26614
G1 X134.097 Y120.09 E.00398
G1 X133.799 Y120.697 E.0212
G1 X133.799 Y128.449 E.24306
G1 X133.38 Y128.449 E.01314
G1 X133.38 Y121.41 E.2207
G1 X132.961 Y122.009 E.02292
G1 X132.961 Y128.449 E.20192
G1 X132.542 Y128.449 E.01314
G1 X132.542 Y122.529 E.18562
G1 X132.123 Y122.982 E.01935
G1 X132.123 Y128.449 E.17141
G1 X131.704 Y128.449 E.01314
G1 X131.704 Y123.386 E.15875
G1 X131.652 Y123.434 E.00222
G1 X131.332 Y123.559 E.01077
G1 X131.285 Y123.559 E.00147
G1 X131.285 Y128.449 E.15332
G1 X130.866 Y128.449 E.01314
G1 X130.866 Y123.559 E.15332
G1 X130.447 Y123.559 E.01314
G1 X130.447 Y128.449 E.15332
G1 X130.028 Y128.449 E.01314
G1 X130.028 Y123.559 E.15332
G1 X129.609 Y123.559 E.01314
G1 X129.609 Y128.449 E.15332
G1 X129.19 Y128.449 E.01314
G1 X129.19 Y123.559 E.15332
G1 X128.771 Y123.559 E.01314
G1 X128.771 Y128.449 E.15332
G1 X128.352 Y128.449 E.01314
G1 X128.352 Y123.559 E.15332
G1 X127.933 Y123.559 E.01314
G1 X127.933 Y128.449 E.15332
G1 X127.514 Y128.449 E.01314
G1 X127.514 Y123.559 E.15332
G1 X127.095 Y123.559 E.01314
G1 X127.095 Y128.449 E.15332
G1 X126.676 Y128.449 E.01314
G1 X126.676 Y123.559 E.15332
G1 X126.257 Y123.559 E.01314
G1 X126.257 Y128.449 E.15332
G1 X125.838 Y128.449 E.01314
G1 X125.838 Y123.559 E.15332
G1 X125.419 Y123.559 E.01314
G1 X125.419 Y128.449 E.15332
G1 X125 Y128.449 E.01314
G1 X125 Y123.559 E.15332
G1 X124.581 Y123.559 E.01314
G1 X124.581 Y128.449 E.15332
G1 X124.162 Y128.449 E.01314
G1 X124.162 Y123.559 E.15332
G1 X123.743 Y123.559 E.01314
G1 X123.743 Y128.449 E.15332
G1 X123.324 Y128.449 E.01314
G1 X123.324 Y123.559 E.15332
G1 X122.905 Y123.559 E.01314
G1 X122.905 Y128.449 E.15332
G1 X122.486 Y128.449 E.01314
G1 X122.486 Y123.559 E.15332
G1 X122.067 Y123.559 E.01314
G1 X122.067 Y128.449 E.15332
G1 X121.648 Y128.449 E.01314
G1 X121.648 Y123.559 E.15332
G1 X121.229 Y123.559 E.01314
G1 X121.229 Y128.449 E.15332
G1 X120.81 Y128.449 E.01314
G1 X120.81 Y123.559 E.15332
G1 X120.391 Y123.559 E.01314
G1 X120.391 Y128.449 E.15332
G1 X119.972 Y128.449 E.01314
G1 X119.972 Y123.559 E.15332
G1 X119.553 Y123.559 E.01314
G1 X119.553 Y128.449 E.15332
G1 X119.134 Y128.449 E.01314
G1 X119.134 Y123.559 E.15332
G1 X118.715 Y123.559 E.01314
G1 X118.715 Y128.449 E.15332
G1 X118.296 Y128.449 E.01314
G1 X118.296 Y123.386 E.15875
G1 X117.877 Y122.982 E.01825
M73 P3 R24
M73 Q3 S24
G1 X117.877 Y128.449 E.17141
G1 X117.458 Y128.449 E.01314
G1 X117.458 Y122.528 E.18565
G1 X117.039 Y122.007 E.02096
G1 X117.039 Y128.449 E.20198
G1 X116.62 Y128.449 E.01314
G1 X116.62 Y121.413 E.22061
G1 X116.201 Y120.697 E.02601
G1 X116.201 Y128.449 E.24306
G1 X115.783 Y128.449 E.01311
G1 X115.783 Y119.944 E.26667
M204 S1000
;WIPE_START
G1 F8640
G1 X115.783 Y124.275 E-1
;WIPE_END
G1 Z.4 F720
G1 X121.383 Y110.437 F10800
G1 Z.2 F720
G1 E1 F2100
M204 S800
;TYPE:Perimeter
;WIDTH:0.419999
G1 F1200
G1 X121.227 Y110.538 E.00583
G1 X120.515 Y111.106 E.02856
G1 X120.219 Y111.394 E.01295
G1 X119.634 Y112.092 E.02856
G1 X119.402 Y112.433 E.01293
G1 X118.966 Y113.232 E.02854
G1 X118.863 Y113.541 E.01021
;WIDTH:0.394204
G1 X118.76 Y113.85 E.00951
;WIDTH:0.411761
G1 X118.72 Y113.907 E.00214
;WIDTH:0.455114
G1 X118.679 Y113.964 E.00241
;WIDTH:0.498467
G1 X118.639 Y114.021 E.00264
;WIDTH:0.54182
G1 X118.599 Y114.078 E.00289
;WIDTH:0.585173
G1 X118.558 Y114.135 E.00317
;WIDTH:0.628526
G1 X118.518 Y114.192 E.00339
G1 X118.506 Y114.123 E.00341
;WIDTH:0.585173
G1 X118.493 Y114.055 E.00312
;WIDTH:0.54182
G1 X118.481 Y113.986 E.00291
;WIDTH:0.498467
G1 X118.468 Y113.917 E.00266
;WIDTH:0.455114
G1 X118.456 Y113.848 E.0024
;WIDTH:0.411761
G1 X118.443 Y113.78 E.00212
;WIDTH:0.394204
G1 X118.503 Y113.44 E.01008
;WIDTH:0.419999
G1 X118.562 Y113.1 E.01082
G1 X121.818 Y89.229 E.75539
G1 X128.182 Y89.229 E.19954
G1 X131.482 Y113.421 E.76555
;WIDTH:0.46462
G1 X131.491 Y113.65 E.00804
;WIDTH:0.50924
G1 X131.5 Y113.878 E.00885
;WIDTH:0.55386
G1 X131.508 Y114.107 E.00973
;WIDTH:0.59848
G1 X131.517 Y114.335 E.01054
G1 X131.383 Y114.032 E.0153
;WIDTH:0.55386
G1 X131.249 Y113.728 E.01411
;WIDTH:0.50924
G1 X131.115 Y113.425 E.01285
;WIDTH:0.46462
G1 X130.98 Y113.121 E.01166
;WIDTH:0.419999
G1 X130.53 Y112.33 E.02853
G1 X130.291 Y111.993 E.01295
G1 X129.693 Y111.307 E.02853
G1 X129.392 Y111.024 E.01295
G1 X128.354 Y110.27 E.04023
G1 X127.348 Y109.792 E.03492
G1 X126.476 Y109.529 E.02856
G1 X126.071 Y109.45 E.01294
G1 X125.165 Y109.365 E.02853
G1 X124.788 Y109.364 E.01182
G1 X123.645 Y109.501 E.03609
G1 X122.768 Y109.748 E.02857
G1 X122.384 Y109.899 E.01294
G1 X121.574 Y110.314 E.02854
G1 X121.434 Y110.405 E.00524
M204 S1000
;WIPE_START
G1 F8640
G1 X121.227 Y110.538 E-.05681
G1 X120.515 Y111.106 E-.21031
G1 X120.219 Y111.394 E-.09536
G1 X119.634 Y112.092 E-.21029
G1 X119.402 Y112.433 E-.09523
G1 X118.966 Y113.232 E-.21017
G1 X118.863 Y113.541 E-.07521
G1 X118.799 Y113.733 E-.04662
;WIPE_END
G1 Z.4 F720
G1 X121.489 Y88.852 F10800
G1 Z.2 F720
G1 E1 F2100
M204 S800
G1 F1200
G1 X128.511 Y88.852 E.22017
G1 X132.078 Y114.998 E.82738
G1 X132.139 Y115.741 E.02337
G1 X132.103 Y116.754 E.03178
G1 X131.98 Y117.531 E.02467
G1 X131.803 Y118.184 E.02121
G1 X131.415 Y119.146 E.03252
G1 X131.029 Y119.835 E.02476
G1 X130.69 Y120.321 E.01858
G1 X130.341 Y120.732 E.01691
G1 X129.078 Y120.732 E.0396
G1 X129.474 Y120.382 E.01657
G1 X129.976 Y119.775 E.0247
G1 X130.382 Y119.212 E.02176
G1 X130.605 Y118.756 E.01592
G1 X130.94 Y117.982 E.02644
G1 X131.165 Y117.1 E.02854
G1 X131.221 Y116.683 E.01319
G1 X131.255 Y115.714 E.0304
G1 X131.18 Y115.091 E.01967
G1 X131.074 Y114.481 E.01941
G1 X130.653 Y113.307 E.03911
G1 X130.007 Y112.241 E.03908
G1 X129.163 Y111.323 E.0391
G1 X128.182 Y110.606 E.0381
G1 X127.239 Y110.153 E.0328
G1 X126.036 Y109.825 E.0391
G1 X124.821 Y109.74 E.03819
G1 X123.747 Y109.864 E.0339
G1 X122.556 Y110.234 E.0391
G1 X121.462 Y110.833 E.03911
G1 X120.508 Y111.637 E.03912
G1 X119.733 Y112.613 E.03908
G1 X119.166 Y113.724 E.03911
G1 X118.978 Y114.334 E.02001
G1 X118.831 Y114.925 E.01909
G1 X118.752 Y115.71 E.02474
G1 X118.754 Y116.304 E.01862
G1 X118.851 Y117.213 E.02866
G1 X119.006 Y117.756 E.01771
G1 X119.297 Y118.587 E.02761
G1 X119.635 Y119.208 E.02217
G1 X119.923 Y119.666 E.01696
G1 X120.508 Y120.363 E.02853
G1 X120.916 Y120.732 E.01725
G1 X119.653 Y120.732 E.0396
G1 X119.151 Y120.106 E.02516
G1 X118.854 Y119.641 E.0173
G1 X118.359 Y118.636 E.03513
G1 X118.144 Y118.015 E.0206
G1 X117.988 Y117.371 E.02078
G1 X117.866 Y116.376 E.03143
G1 X117.863 Y115.646 E.02289
G1 X117.923 Y114.993 E.02056
G1 X121.481 Y88.911 E.82536
M204 S1000
G1 X121.16 Y88.475 F10800
M204 S800
G1 F1200
G1 X128.84 Y88.475 E.2408
G1 X132.453 Y114.966 E.83829
G1 X132.516 Y115.754 E.02479
G1 X132.479 Y116.791 E.03254
G1 X132.349 Y117.61 E.026
G1 X132.161 Y118.304 E.02254
G1 X131.755 Y119.309 E.03399
G1 X131.349 Y120.036 E.02611
G1 X130.989 Y120.552 E.01973
G1 X130.515 Y121.109 E.02293
G1 X127.889 Y121.109 E.08234
G1 X128.542 Y120.701 E.02414
G1 X129.225 Y120.099 E.02855
G1 X129.985 Y119.136 E.03846
G1 X130.265 Y118.593 E.01916
G1 X130.575 Y117.889 E.02412
G1 X130.742 Y117.233 E.02122
G1 X130.845 Y116.659 E.01828
M73 Q4 S24
G1 X130.88 Y115.759 E.02824
G1 X130.806 Y115.135 E.0197
M73 P4 R24
G1 X130.716 Y114.599 E.01704
G1 X130.325 Y113.494 E.03675
G1 X129.723 Y112.489 E.03673
G1 X128.933 Y111.622 E.03678
G1 X128.01 Y110.941 E.03596
G1 X127.13 Y110.514 E.03067
G1 X126.001 Y110.201 E.03673
G1 X124.855 Y110.115 E.03603
G1 X123.849 Y110.227 E.03174
G1 X122.728 Y110.57 E.03676
G1 X121.697 Y111.128 E.03676
G1 X120.797 Y111.879 E.03675
G1 X120.064 Y112.794 E.03676
G1 X119.527 Y113.835 E.03673
G1 X119.338 Y114.445 E.02002
G1 X119.206 Y114.963 E.01676
G1 X119.128 Y115.748 E.02473
G1 X119.129 Y116.266 E.01624
G1 X119.221 Y117.145 E.02771
G1 X119.366 Y117.645 E.01632
