; generated by PrusaSlicer 2.6.0+linux-x64-GTK3 on 2023-08-22 at 01:22:04 UTC


;
;
; 

; external perimeters extrusion width = 0.60mm
; perimeters extrusion width = 0.50mm
; infill extrusion width = 0.50mm
; solid infill extrusion width = 0.50mm
; top infill extrusion width = 0.45mm
; first layer extrusion width = 0.42mm

M73 P0 R34
M73 Q0 S34
M201 X1000 Y1000 Z200 E5000 ; sets maximum accelerations, mm/sec^2
M203 X200 Y200 Z12 E120 ; sets maximum feedrates, mm / sec
M204 S1250 T1250 ; sets acceleration (S) and retract acceleration (R), mm/sec^2
M205 X8.00 Y8.00 Z0.40 E4.50 ; sets the jerk limits, mm/sec
M205 S0 T0 ; sets the minimum extruding and travel feed rate, mm/sec
;TYPE:Custom
M862.3 P "MK3S" ; printer model check
M862.1 P0.4 ; nozzle diameter check
M115 U3.12.2 ; tell printer latest fw version
G90 ; use absolute coordinates
M83 ; extruder relative mode
M104 S215 ; set extruder temp
M140 S60 ; set bed temp
M190 S60 ; wait for bed temp
M109 S215 ; wait for extruder temp
G28 W ; home all without mesh bed level
G80 ; mesh bed leveling

G1 Z0.2 F720
G1 Y-3 F1000 ; go outside print area
G92 E0
G1 X60 E9 F1000 ; intro line
G1 X100 E12.5 F1000 ; intro line

G92 E0
M221 S95

; Don't change E values below. Excessive value can damage the printer.

M907 E538 ; set extruder motor current
G21 ; set units to millimeters
G90 ; use absolute coordinates
M83 ; use relative distances for extrusion
M900 K0.05 ; Filament gcode LA 1.5
M900 K30 ; Filament gcode LA 1.0
M107
;LAYER_CHANGE
;Z:0.2
;HEIGHT:0.2
;BEFORE_LAYER_CHANGE
G92 E0.0
;0.2


G1 E-.8 F2100
G1 Z.4 F720
;AFTER_LAYER_CHANGE
;0.2
G1 X70.518 Y96.333 F10800
G1 Z.2 F720
G1 E.8 F2100
M204 S800
;TYPE:Skirt/Brim
;WIDTH:0.42
G1 F1200
G1 X72.054 Y95.306 E.05793
G1 X98.503 Y90.263 E.84423
G1 X126.734 Y90.274 E.88516
G1 X177.734 Y95.255 E1.60668
G1 X178.997 Y95.772 E.04279
M73 P0 R33
G1 X179.768 Y96.898 E.04279
G1 X179.88 Y97.621 E.02294
G1 X179.88 Y101.162 E.11103
G1 X179.489 Y102.469 E.04277
G1 X179.006 Y103.004 E.0226
G1 X159.158 Y119.201 E.80324
G1 X157.655 Y119.737 E.05003
G1 X151.794 Y119.728 E.18377
G1 X98.294 Y115.008 E1.68397
G1 X97.726 Y114.886 E.01822
G1 X71.726 Y105.887 E.86266
G1 X70.619 Y105.089 E.04279
G1 X70.126 Y103.64 E.04799
G1 X70.126 Y97.64 E.18813
G1 X70.5 Y96.391 E.04088
M204 S1000
; printing object R207-RC-Sat-Ant.stl id:0 copy 0
;WIPE_START
G1 F8640
G1 X72.054 Y95.306 E-.43763
G1 X73.596 Y95.012 E-.36237
;WIPE_END
G1 Z.6 F720
G1 X126.089 Y102.514 F10800
G1 Z.2 F720
G1 E.8 F2100
M204 S800
;TYPE:Perimeter
;WIDTH:0.419999
G1 F1200
G1 X125.813 Y102.6 E.00906
G1 X125.586 Y102.782 E.00912
G1 X125.443 Y102.988 E.00786
G1 X125.339 Y103.418 E.01387
G1 X125.339 Y111.476 E.25265
G1 X99.668 Y111.476 E.80489
M73 P1 R33
M73 Q1 S34
G1 X99.668 Y103.419 E.25262
G1 X99.574 Y103.009 E.01319
G1 X99.31 Y102.68 E.01323
G1 X98.986 Y102.513 E.01143
G1 X98.725 Y102.476 E.00827
G1 X73.667 Y102.476 E.78567
G1 X73.667 Y98.804 E.11513
G1 X98.725 Y98.804 E.78567
G1 X98.986 Y98.767 E.00827
G1 X99.309 Y98.601 E.01139
G1 X99.562 Y98.294 E.01247
G1 X99.667 Y97.861 E.01397
G1 X99.667 Y93.804 E.1272
G1 X125.339 Y93.804 E.80493
G1 X125.339 Y96.849 E.09547
G1 X125.357 Y98.043 E.03744
G1 X125.474 Y98.347 E.01021
G1 X125.772 Y98.655 E.01344
G1 X126.022 Y98.768 E.0086
G1 X126.282 Y98.804 E.00823
G1 X176.339 Y98.785 E1.5695
G1 X176.339 Y99.998 E.03803
G1 X165.477 Y99.998 E.34057
G1 X164.925 Y100.013 E.01731
G1 X164.371 Y100.056 E.01742
G1 X163.82 Y100.126 E.01742
G1 X163.273 Y100.223 E.01742
G1 X162.732 Y100.348 E.01741
G1 X162.197 Y100.499 E.01743
G1 X161.666 Y100.679 E.01758
G1 X161.154 Y100.88 E.01725
G1 X160.648 Y101.109 E.01741
G1 X160.154 Y101.363 E.01742
G1 X159.673 Y101.642 E.01743
G1 X159.207 Y101.943 E.01739
G1 X158.756 Y102.268 E.01743
G1 X158.322 Y102.615 E.01742
G1 X157.906 Y102.982 E.01739
G1 X157.508 Y103.37 E.01743
G1 X157.131 Y103.778 E.01742
G1 X156.774 Y104.203 E.0174
G1 X156.438 Y104.646 E.01743
G1 X156.125 Y105.105 E.01742
G1 X155.836 Y105.579 E.01741
G1 X155.57 Y106.067 E.01743
G1 X155.329 Y106.567 E.0174
G1 X155.113 Y107.079 E.01742
G1 X154.923 Y107.601 E.01742
G1 X154.759 Y108.132 E.01743
G1 X154.621 Y108.67 E.01741
G1 X154.51 Y109.217 E.0175
G1 X154.428 Y109.758 E.01716
G1 X154.372 Y110.316 E.01758
G1 X154.343 Y110.871 E.01743
G1 X154.343 Y111.425 E.01737
G1 X154.369 Y111.98 E.01742
G1 X154.424 Y112.533 E.01742
M73 Q1 S33
G1 X154.506 Y113.081 E.01737
G1 X154.615 Y113.628 E.01749
G1 X154.751 Y114.166 E.0174
G1 X154.914 Y114.697 E.01742
G1 X155.103 Y115.221 E.01747
G1 X155.326 Y115.748 E.01794
G1 X155.554 Y116.204 E.01599
G1 X153.168 Y116.196 E.07481
G1 X153.168 Y103.418 E.40064
G1 X153.107 Y103.086 E.01058
G1 X152.91 Y102.771 E.01165
G1 X152.725 Y102.619 E.00751
G1 X152.49 Y102.514 E.00807
G1 X152.225 Y102.476 E.00839
G1 X126.283 Y102.476 E.81339
G1 X126.146 Y102.496 E.00434
M204 S1000
G1 X126.178 Y102.874 F10800
M204 S800
G1 F1200
G1 X125.966 Y102.949 E.00705
G1 X125.779 Y103.16 E.00884
G1 X125.716 Y103.418 E.00833
G1 X125.716 Y111.853 E.26447
G1 X99.29 Y111.853 E.82857
G1 X99.29 Y103.737 E.25447
G1 X99.256 Y103.224 E.01612
G1 X99.118 Y103.012 E.00793
G1 X99.007 Y102.928 E.00436
G1 X98.725 Y102.853 E.00915
G1 X73.29 Y102.853 E.7975
G1 X73.29 Y98.427 E.13877
G1 X98.725 Y98.427 E.7975
G1 X99.007 Y98.352 E.00915
G1 X99.225 Y98.125 E.00987
G1 X99.29 Y97.861 E.00852
G1 X99.29 Y93.427 E.13902
G1 X125.716 Y93.427 E.82857
G1 X125.718 Y97.91 E.14056
G1 X125.797 Y98.153 E.00801
G1 X126.001 Y98.352 E.00894
G1 X126.282 Y98.427 E.00912
G1 X176.716 Y98.408 E1.58132
G1 X176.716 Y100.375 E.06167
M73 P2 R33
M73 Q2 S33
G1 X165.501 Y100.375 E.35164
G1 X164.953 Y100.389 E.01719
G1 X164.418 Y100.43 E.01682
G1 X163.885 Y100.497 E.01684
G1 X163.357 Y100.591 E.01682
G1 X162.833 Y100.711 E.01685
G1 X162.317 Y100.857 E.01681
G1 X161.803 Y101.03 E.017
G1 X161.309 Y101.224 E.01664
G1 X160.82 Y101.445 E.01683
G1 X160.342 Y101.69 E.01684
G1 X159.877 Y101.959 E.01684
G1 X159.427 Y102.25 E.0168
G1 X158.991 Y102.563 E.01683
G1 X158.571 Y102.898 E.01684
G1 X158.169 Y103.253 E.01682
G1 X157.784 Y103.627 E.01683
G1 X157.419 Y104.021 E.01684
G1 X157.074 Y104.432 E.01682
G1 X156.749 Y104.859 E.01683
G1 X156.447 Y105.302 E.01681
G1 X156.167 Y105.76 E.01683
G1 X155.909 Y106.231 E.01684
G1 X155.676 Y106.715 E.01684
G1 X155.467 Y107.209 E.01682
G1 X155.283 Y107.713 E.01682
G1 X155.124 Y108.226 E.01684
G1 X154.991 Y108.746 E.01683
G1 X154.883 Y109.274 E.0169
G1 X154.803 Y109.797 E.01659
G1 X154.748 Y110.336 E.01699
G1 X154.72 Y110.872 E.01683
G1 X154.719 Y111.408 E.01681
G1 X154.745 Y111.944 E.01683
G1 X154.797 Y112.479 E.01685
G1 X154.876 Y113.008 E.01677
G1 X154.981 Y113.536 E.01688
G1 X155.112 Y114.057 E.01684
G1 X155.269 Y114.57 E.01682
G1 X155.451 Y115.075 E.01683
G1 X155.664 Y115.58 E.01718
G1 X155.931 Y116.102 E.01838
G1 X156.343 Y116.66 E.02175
G1 X155.301 Y116.575 E.03278
G1 X152.791 Y116.573 E.0787
G1 X152.79 Y103.418 E.41247
G1 X152.714 Y103.134 E.00922
G1 X152.525 Y102.939 E.00851
G1 X152.225 Y102.853 E.00979
G1 X126.235 Y102.855 E.8149
M204 S1000
G1 X126.283 Y103.23 F10800
M204 S800
;TYPE:External perimeter
G1 F1200
G1 X126.143 Y103.291 E.00479
G1 X126.093 Y103.418 E.00428
G1 X126.093 Y112.23 E.27629
G1 X98.913 Y112.23 E.85221
G1 X98.913 Y103.419 E.27626
G1 X98.856 Y103.283 E.00462
G1 X98.725 Y103.23 E.00443
G1 X72.913 Y103.23 E.80932
G1 X72.913 Y98.05 E.16241
G1 X98.725 Y98.05 E.80932
G1 X98.842 Y98.009 E.00389
G1 X98.913 Y97.861 E.00515
G1 X98.913 Y93.05 E.15085
G1 X126.093 Y93.05 E.85221
G1 X126.093 Y97.861 E.15085
G1 X126.137 Y97.982 E.00404
G1 X126.282 Y98.05 E.00502
G1 X177.093 Y98.031 E1.59314
G1 X177.093 Y100.752 E.08531
G1 X165.501 Y100.752 E.36346
G1 X164.981 Y100.765 E.01631
G1 X164.464 Y100.804 E.01626
G1 X163.95 Y100.869 E.01624
G1 X163.44 Y100.959 E.01624
G1 X162.935 Y101.074 E.01624
G1 X162.437 Y101.214 E.01622
G1 X161.941 Y101.381 E.01641
G1 X161.464 Y101.568 E.01606
G1 X160.991 Y101.781 E.01626
G1 X160.53 Y102.017 E.01624
G1 X160.082 Y102.276 E.01623
G1 X159.646 Y102.556 E.01625
G1 X159.225 Y102.858 E.01625
G1 X158.82 Y103.181 E.01624
G1 X158.431 Y103.523 E.01624
G1 X158.06 Y103.884 E.01623
G1 X157.707 Y104.264 E.01626
G1 X157.374 Y104.66 E.01622
G1 X157.061 Y105.072 E.01622
G1 X156.768 Y105.5 E.01626
G1 X156.497 Y105.941 E.01623
G1 X156.249 Y106.396 E.01625
G1 X156.023 Y106.862 E.01624
G1 X155.821 Y107.339 E.01624
G1 X155.643 Y107.825 E.01623
G1 X155.489 Y108.32 E.01625
G1 X155.36 Y108.821 E.01622
G1 X155.256 Y109.331 E.01632
G1 X155.178 Y109.835 E.01599
G1 X155.125 Y110.356 E.01642
G1 X155.097 Y110.873 E.01623
G1 X155.096 Y111.391 E.01624
G1 X155.12 Y111.908 E.01623
G1 X155.17 Y112.424 E.01625
G1 X155.245 Y112.935 E.01619
G1 X155.347 Y113.445 E.01631
G1 X155.473 Y113.947 E.01623
G1 X155.624 Y114.442 E.01623
G1 X155.799 Y114.93 E.01625
G1 X156.001 Y115.411 E.01636
G1 X156.242 Y115.889 E.01678
G1 X156.531 Y116.311 E.01604
G1 X156.909 Y116.686 E.01669
G1 X157.2 Y117.145 E.01704
G1 X157.168 Y117.15 E.00102
G1 X156.628 Y117.12 E.01696
G1 X156.123 Y117.016 E.01617
G1 X155.301 Y116.952 E.02585
G1 X152.413 Y116.95 E.09055
G1 X152.413 Y103.418 E.42429
G1 X152.362 Y103.289 E.00435
G1 X152.225 Y103.23 E.00468
G1 X126.343 Y103.23 E.81151
M204 S1000
G1 X126.173 Y103.123 F10800
;WIPE_START
G1 F8640
G1 X126.143 Y103.291 E-.04828
G1 X126.093 Y103.418 E-.03152
G1 X126.093 Y106.537 E-.7202
;WIPE_END
G1 Z.6 F720
G1 X107.887 Y97.062 F10800
G1 Z.2 F720
G1 E.8 F2100
M204 S800
;TYPE:Perimeter
G1 F1200
G1 X108.179 Y97.232 E.01059
G1 X108.646 Y97.65 E.01965
G1 X109.135 Y98.188 E.0228
G1 X109.305 Y98.479 E.01057
G1 X109.65 Y98.686 E.01261
G1 X110.352 Y99.284 E.02891
G1 X110.72 Y99.641 E.01608
G1 X110.872 Y99.916 E.00985
G1 X110.924 Y100.209 E.00933
G1 X110.89 Y100.479 E.00853
;WIDTH:0.462558
G1 X110.828 Y100.629 E.00566
;WIDTH:0.505117
G1 X110.766 Y100.779 E.00624
;WIDTH:0.547675
G1 X110.704 Y100.93 E.00685
G1 X110.302 Y101.373 E.02511
;WIDTH:0.531576
G1 X110.003 Y101.873 E.02367
;WIDTH:0.530063
G1 X109.815 Y102.385 E.02209
G1 X109.736 Y102.918 E.02183
;WIDTH:0.535206
G1 X109.742 Y103.334 E.01703
M73 P3 R33
G1 X109.88 Y103.969 E.0266
;WIDTH:0.534313
G1 X110.15 Y104.512 E.02478
;WIDTH:0.532071
G1 X110.47 Y104.947 E.02196
G1 X110.732 Y105.216 E.01527
;WIDTH:0.531701
G1 X110.956 Y104.758 E.02072
M73 Q3 S33
G1 X110.611 Y104.339 E.02206
;WIDTH:0.532446
G1 X110.36 Y103.855 E.02219
G1 X110.247 Y103.414 E.01853
;WIDTH:0.529971
G1 X110.221 Y102.96 E.01842
;WIDTH:0.53404
G1 X110.314 Y102.412 E.0227
G1 X110.496 Y101.972 E.01944
G1 X110.673 Y101.691 E.01356
;WIDTH:0.547675
G1 X111.036 Y101.305 E.02224
G1 X111.21 Y101.215 E.00822
;WIDTH:0.505117
G1 X111.385 Y101.126 E.00755
;WIDTH:0.462558
G1 X111.56 Y101.036 E.00687
;WIDTH:0.419999
G1 X112.099 Y100.867 E.01771
G1 X112.542 Y100.83 E.01394
G1 X112.983 Y100.882 E.01392
G1 X113.405 Y101.02 E.01392
;WIDTH:0.463151
G1 X113.582 Y101.105 E.00686
;WIDTH:0.506302
G1 X113.76 Y101.189 E.00758
;WIDTH:0.549453
G1 X113.937 Y101.273 E.00825
G1 X114.334 Y101.691 E.02428
;WIDTH:0.532559
G1 X114.569 Y102.081 E.01854
G1 X114.746 Y102.609 E.02267
;WIDTH:0.531647
G1 X114.79 Y103.109 E.0204
G1 X114.721 Y103.609 E.02051
;WIDTH:0.53136
G1 X114.568 Y104.038 E.0185
;WIDTH:0.531567
G1 X114.334 Y104.428 E.01848
G1 X114.049 Y104.759 E.01775
;WIDTH:0.528214
G1 X114.28 Y105.23 E.02117
;WIDTH:0.531567
G1 X114.704 Y104.747 E.02611
G1 X114.992 Y104.28 E.02229
;WIDTH:0.53136
G1 X115.185 Y103.764 E.02237
;WIDTH:0.532447
G1 X115.275 Y103.195 E.02345
;WIDTH:0.533325
G1 X115.25 Y102.662 E.02176
G1 X115.101 Y102.113 E.0232
;WIDTH:0.530316
G1 X114.871 Y101.619 E.02208
;WIDTH:0.532442
G1 X114.538 Y101.172 E.02269
G1 X114.232 Y100.808 E.01936
;WIDTH:0.50521
G1 X114.159 Y100.539 E.01071
;WIDTH:0.462605
G1 X114.086 Y100.271 E.00969
;WIDTH:0.419999
G1 X114.127 Y99.946 E.01027
G1 X114.289 Y99.641 E.01083
G1 X114.652 Y99.29 E.01583
G1 X115.427 Y98.635 E.03182
G1 X115.701 Y98.473 E.00998
G1 X115.861 Y98.204 E.00981
G1 X116.293 Y97.701 E.02079
G1 X116.848 Y97.215 E.02313
G1 X117.137 Y97.011 E.01109
G1 X117.375 Y96.591 E.01514
G1 X117.717 Y96.207 E.01612
G1 X118.199 Y95.717 E.02155
G1 X118.502 Y95.511 E.01149
G1 X118.891 Y95.436 E.01242
G1 X119.276 Y95.527 E.0124
G1 X119.566 Y95.742 E.01132
G1 X120.403 Y96.667 E.03911
G1 X121.184 Y97.776 E.04253
G1 X121.671 Y98.672 E.03197
G1 X121.963 Y99.411 E.02491
G1 X122.207 Y100.044 E.02127
G1 X122.462 Y101.031 E.03196
G1 X122.649 Y102.492 E.04618
G1 X122.623 Y103.987 E.04688
G1 X122.48 Y104.997 E.03198
G1 X122.242 Y105.965 E.03125
G1 X121.911 Y106.906 E.03128
G1 X121.488 Y107.81 E.03129
G1 X120.979 Y108.667 E.03125
G1 X120.079 Y109.832 E.04616
G1 X119.551 Y110.39 E.02409
G1 X119.128 Y110.645 E.01549
G1 X118.871 Y110.681 E.00814
G1 X118.597 Y110.64 E.00869
G1 X118.18 Y110.38 E.01541
G1 X117.571 Y109.726 E.02802
G1 X117.232 Y109.277 E.01764
G1 X117.118 Y109.059 E.00771
G1 X116.828 Y108.887 E.01057
G1 X116.361 Y108.469 E.01965
G1 X115.886 Y107.92 E.02276
;WIDTH:0.383621
G1 X115.663 Y107.6 E.01105
;WIDTH:0.362087
G1 X115.188 Y107.272 E.01532
G1 X115.454 Y107.815 E.01605
;WIDTH:0.391043
G1 X115.676 Y108.235 E.01375
;WIDTH:0.419999
G1 X116.121 Y109.112 E.03084
G1 X116.216 Y109.476 E.0118
G1 X116.163 Y109.842 E.0116
G1 X116.09 Y109.999 E.00543
G1 X115.776 Y110.325 E.01419
G1 X115.437 Y110.455 E.01138
G1 X115.274 Y110.469 E.00513
G1 X109.732 Y110.469 E.17377
G1 X109.23 Y110.324 E.01638
G1 X108.891 Y109.952 E.01578
G1 X108.794 Y109.617 E.01094
G1 X108.822 Y109.283 E.01051
G1 X109.05 Y108.776 E.01743
G1 X109.398 Y108.107 E.02364
;WIDTH:0.383619
G1 X109.649 Y107.621 E.0155
;WIDTH:0.36209
G1 X109.819 Y107.272 E.0103
G1 X109.344 Y107.6 E.01532
G1 X109.282 Y107.618 E.00171
;WIDTH:0.383619
G1 X109.121 Y107.92 E.0097
;WIDTH:0.419999
G1 X108.721 Y108.395 E.01947
G1 X108.179 Y108.887 E.02295
G1 X107.89 Y109.058 E.01053
G1 X107.752 Y109.307 E.00893
G1 X107.363 Y109.792 E.01949
G1 X106.829 Y110.374 E.02477
G1 X106.413 Y110.635 E.0154
G1 X106.136 Y110.676 E.00878
G1 X105.883 Y110.642 E.008
G1 X105.459 Y110.389 E.01548
G1 X104.993 Y109.907 E.02102
G1 X104.368 Y109.151 E.03076
G1 X103.81 Y108.324 E.03128
G1 X103.336 Y107.447 E.03126
G1 X102.95 Y106.527 E.03128
G1 X102.656 Y105.574 E.03127
G1 X102.457 Y104.597 E.03126
G1 X102.355 Y103.605 E.03127
G1 X102.355 Y102.515 E.03418
G1 X102.443 Y101.614 E.02838
G1 X102.656 Y100.545 E.03418
G1 X102.921 Y99.672 E.02861
G1 X103.296 Y98.756 E.03103
G1 X103.762 Y97.874 E.03128
G1 X104.313 Y97.043 E.03126
G1 X104.973 Y96.236 E.03269
G1 X105.455 Y95.729 E.02193
G1 X105.755 Y95.519 E.01148
G1 X106.144 Y95.438 E.01246
G1 X106.532 Y95.525 E.01247
G1 X106.826 Y95.739 E.0114
G1 X107.435 Y96.393 E.02802
G1 X107.746 Y96.804 E.01616
G1 X107.859 Y97.009 E.00734
M204 S1000
G1 X107.523 Y97.428 F10800
M204 S800
G1 F1200
G1 X107.687 Y97.386 E.00531
G1 X107.927 Y97.513 E.00851
G1 X108.395 Y97.931 E.01967
G1 X108.853 Y98.439 E.02145
G1 X108.981 Y98.68 E.00856
G1 X108.937 Y98.845 E.00535
G1 X109.102 Y98.802 E.00535
G1 X109.426 Y98.989 E.01173
G1 X110.095 Y99.56 E.02758
G1 X110.425 Y99.875 E.0143
G1 X110.534 Y100.105 E.00798
G1 X110.527 Y100.378 E.00856
G1 X110.373 Y100.638 E.00947
G1 X109.922 Y101.149 E.02137
G1 X109.652 Y101.594 E.01632
G1 X109.429 Y102.134 E.01832
G1 X109.323 Y102.638 E.01615
G1 X109.296 Y103.154 E.0162
G1 X109.381 Y103.798 E.02037
G1 X109.566 Y104.336 E.01784
G1 X109.854 Y104.844 E.01831
G1 X110.165 Y105.256 E.01619
G1 X110.399 Y105.511 E.01085
G1 X110.447 Y105.776 E.00844
;WIDTH:0.389238
G1 X110.495 Y106.041 E.00776
;WIDTH:0.395936
G1 X110.358 Y106.298 E.00855
;WIDTH:0.419999
G1 X109.72 Y106.908 E.02768
G1 X109.3 Y107.223 E.01646
G1 X109.05 Y107.328 E.0085
G1 X108.968 Y107.305 E.00267
G1 X108.991 Y107.387 E.00267
G1 X108.889 Y107.637 E.00847
G1 X108.44 Y108.143 E.02121
G1 X107.928 Y108.606 E.02164
G1 X107.715 Y108.725 E.00765
G1 X107.518 Y108.685 E.0063
G1 X107.558 Y108.883 E.00633
G1 X107.458 Y109.071 E.00668
G1 X107.069 Y109.556 E.01949
G1 X106.552 Y110.118 E.02394
G1 X106.234 Y110.291 E.01135
G1 X105.984 Y110.278 E.00785
G1 X105.73 Y110.127 E.00927
G1 X105.264 Y109.645 E.02102
G1 X104.659 Y108.912 E.0298
G1 X104.123 Y108.115 E.03011
