; generated by PrusaSlicer 2.6.0+linux-x64-GTK3 on 2023-08-20 at 02:14:44 UTC


;
;
; 

; external perimeters extrusion width = 0.60mm
; perimeters extrusion width = 0.50mm
; infill extrusion width = 0.50mm
; solid infill extrusion width = 0.50mm
; top infill extrusion width = 0.45mm
; first layer extrusion width = 0.42mm

M73 P0 R26
M73 Q0 S26
M201 X1000 Y1000 Z200 E5000 ; sets maximum accelerations, mm/sec^2
M203 X200 Y200 Z12 E120 ; sets maximum feedrates, mm / sec
M204 S1250 T1250 ; sets acceleration (S) and retract acceleration (R), mm/sec^2
M205 X8.00 Y8.00 Z0.40 E4.50 ; sets the jerk limits, mm/sec
M205 S0 T0 ; sets the minimum extruding and travel feed rate, mm/sec
;TYPE:Custom
M862.3 P "MK3S" ; printer model check
M862.1 P0.4 ; nozzle diameter check
M115 U3.12.2 ; tell printer latest fw version
G90 ; use absolute coordinates
M83 ; extruder relative mode
M104 S215 ; set extruder temp
M140 S60 ; set bed temp
M190 S60 ; wait for bed temp
M109 S215 ; wait for extruder temp
G28 W ; home all without mesh bed level
G80 ; mesh bed leveling

G1 Z0.2 F720
G1 Y-3 F1000 ; go outside print area
G92 E0
G1 X60 E9 F1000 ; intro line
G1 X100 E12.5 F1000 ; intro line

G92 E0
M221 S95

; Don't change E values below. Excessive value can damage the printer.

M907 E538 ; set extruder motor current
G21 ; set units to millimeters
G90 ; use absolute coordinates
M83 ; use relative distances for extrusion
M900 K0.05 ; Filament gcode LA 1.5
M900 K30 ; Filament gcode LA 1.0
M107
;LAYER_CHANGE
;Z:0.2
;HEIGHT:0.2
;BEFORE_LAYER_CHANGE
G92 E0.0
;0.2


G1 E-.8 F2100
G1 Z.4 F720
;AFTER_LAYER_CHANGE
;0.2
G1 X84.813 Y95.077 F10800
G1 Z.2 F720
G1 E.8 F2100
M204 S800
;TYPE:Skirt/Brim
;WIDTH:0.42
G1 F1200
G1 X86.021 Y94.137 E.04799
G1 X112.021 Y85.137 E.86267
G1 X112.799 Y85.007 E.02473
G1 X139.449 Y85.007 E.83559
G1 X140.226 Y85.137 E.0247
G1 X166.226 Y94.137 E.86267
G1 X167.333 Y94.935 E.04279
G1 X167.826 Y96.384 E.04799
G1 X167.826 Y101.034 E.1458
G1 X167.434 Y102.341 E.04278
G1 X166.388 Y103.217 E.04278
G1 X165.721 Y103.395 E.02165
G1 X139.721 Y106.395 E.82062
G1 X112.799 Y106.411 E.84412
G1 X86.524 Y103.37 E.82933
G1 X85.271 Y102.83 E.04278
M73 P1 R26
M73 Q1 S26
G1 X84.422 Y101.009 E.063
G1 X84.422 Y96.384 E.14501
G1 X84.796 Y95.134 E.04091
M204 S1000
; printing object R207-RC Ant.stl id:0 copy 0
;WIPE_START
G1 F8640
G1 X86.021 Y94.137 E-.3647
G1 X87.802 Y93.52 E-.4353
;WIPE_END
G1 Z.6 F720
G1 X123.439 Y92.076 F10800
G1 Z.2 F720
G1 E.8 F2100
M204 S800
;TYPE:Perimeter
;WIDTH:0.362614
G1 F1200
G1 X123.128 Y91.845 E.0103
G1 X122.902 Y91.73 E.00674
;WIDTH:0.380435
G1 X122.749 Y91.442 E.00915
;WIDTH:0.419999
G1 X122.247 Y90.832 E.02477
G1 X121.749 Y90.422 E.02023
G1 X121.51 Y90.292 E.00853
G1 X121.395 Y90.072 E.00778
G1 X121.056 Y89.623 E.01764
G1 X120.447 Y88.968 E.02804
G1 X120.179 Y88.823 E.00955
G1 X122.568 Y88.823 E.07491
;WIDTH:0.45568
G1 X122.876 Y88.841 E.01059
;WIDTH:0.49136
G1 X123.184 Y88.859 E.0115
G1 X122.941 Y89.001 E.01049
;WIDTH:0.45568
G1 X122.698 Y89.144 E.00968
;WIDTH:0.419999
G1 X122.431 Y89.624 E.01722
G1 X122.428 Y90.004 E.01191
G1 X122.663 Y90.557 E.01884
G1 X122.918 Y91.044 E.01724
;WIDTH:0.391307
G1 X123.173 Y91.532 E.01595
;WIDTH:0.362614
G1 X123.412 Y92.022 E.01449
M204 S1000
;WIPE_START
G1 F8640
G1 X123.128 Y91.845 E-.07727
G1 X122.902 Y91.73 E-.05855
G1 X122.749 Y91.442 E-.0753
G1 X122.247 Y90.832 E-.18241
G1 X121.749 Y90.422 E-.14895
G1 X121.51 Y90.292 E-.06282
G1 X121.395 Y90.072 E-.05732
G1 X121.056 Y89.623 E-.12991
G1 X121.034 Y89.599 E-.00747
;WIPE_END
G1 Z.6 F720
G1 X118.171 Y102.596 F10800
G1 Z.2 F720
G1 E.8 F2100
M204 S800
;WIDTH:0.419999
G1 F1200
G1 X114.238 Y102.595 E.12332
G1 X114.238 Y99.687 E.09118
G1 X114.2 Y99.422 E.00839
G1 X114.011 Y99.073 E.01244
G1 X113.77 Y98.873 E.00982
G1 X113.295 Y98.745 E.01542
G1 X88.238 Y98.745 E.78564
G1 X88.238 Y97.823 E.02891
G1 X113.295 Y97.823 E.78564
G1 X113.77 Y97.695 E.01542
G1 X114.011 Y97.494 E.00984
G1 X114.121 Y97.335 E.00606
G1 X114.238 Y96.88 E.01473
G1 X114.238 Y88.823 E.25262
G1 X119.33 Y88.823 E.15966
G1 X119.076 Y88.958 E.00902
G1 X118.614 Y89.441 E.02096
G1 X118.225 Y89.896 E.01877
G1 X117.443 Y91.005 E.04255
G1 X116.917 Y91.986 E.0349
G1 X116.539 Y92.909 E.03127
G1 X116.254 Y93.864 E.03125
G1 X116.064 Y94.844 E.0313
G1 X115.971 Y95.837 E.03127
G1 X115.985 Y96.931 E.0343
G1 X116.121 Y98.047 E.03525
G1 X116.373 Y99.122 E.03462
G1 X116.57 Y99.756 E.02082
G1 X116.956 Y100.676 E.03128
G1 X117.43 Y101.554 E.03128
G1 X117.933 Y102.306 E.02837
G1 X118.133 Y102.55 E.00989
M204 S1000
;WIPE_START
G1 F8640
G1 X114.669 Y102.59 E-.8
;WIPE_END
G1 Z.6 F720
G1 X130.742 Y90.292 F10800
G1 Z.2 F720
M73 P1 R25
G1 E.8 F2100
M204 S800
G1 F1200
G1 X130.46 Y90.453 E.01018
G1 X129.859 Y90.974 E.02494
G1 X129.47 Y91.482 E.02006
;WIDTH:0.37372
G1 X129.346 Y91.73 E.00763
;WIDTH:0.362613
G1 X129.285 Y91.748 E.00169
G1 X128.809 Y92.076 E.01537
G1 X129.089 Y91.503 E.01695
;WIDTH:0.391188
G1 X129.25 Y91.206 E.00978
;WIDTH:0.419999
G1 X129.741 Y90.237 E.03406
G1 X129.836 Y89.874 E.01176
G1 X129.814 Y89.614 E.00818
G1 X129.544 Y89.139 E.01713
;WIDTH:0.448323
G1 X129.22 Y88.995 E.01195
;WIDTH:0.476646
G1 X128.895 Y88.851 E.01282
G1 X129.283 Y88.837 E.014
;WIDTH:0.448323
G1 X129.671 Y88.823 E.01309
;WIDTH:0.419999
G1 X132.056 Y88.823 E.07478
G1 X131.82 Y88.947 E.00836
G1 X131.31 Y89.466 E.02281
G1 X130.963 Y89.862 E.01651
G1 X130.77 Y90.239 E.01328
M204 S1000
;WIPE_START
G1 F8640
G1 X130.46 Y90.453 E-.08698
G1 X129.859 Y90.974 E-.18366
G1 X129.47 Y91.482 E-.14774
G1 X129.346 Y91.73 E-.06402
G1 X129.285 Y91.748 E-.01469
G1 X128.809 Y92.076 E-.13348
G1 X129.089 Y91.503 E-.14726
G1 X129.135 Y91.419 E-.02217
;WIPE_END
G1 Z.6 F720
G1 X122.908 Y100.855 F10800
G1 Z.2 F720
G1 E.8 F2100
M204 S800
G1 F1200
G1 X122.96 Y100.862 E.00165
G1 X123.145 Y100.756 E.00669
G1 X123.597 Y100.414 E.01777
G1 X124.244 Y99.813 E.02769
G1 X124.441 Y99.551 E.01028
G1 X124.54 Y99.218 E.01089
G1 X124.516 Y98.891 E.01028
;WIDTH:0.46281
G1 X124.459 Y98.741 E.0056
;WIDTH:0.50562
G1 X124.402 Y98.592 E.00614
;WIDTH:0.54843
G1 X124.345 Y98.442 E.00674
G1 X123.982 Y98.052 E.0224
;WIDTH:0.534839
G1 X123.682 Y97.604 E.02205
;WIDTH:0.536125
G1 X123.482 Y97.134 E.02095
G1 X123.367 Y96.597 E.02252
;WIDTH:0.534381
G1 X123.359 Y96.134 E.01892
G1 X123.475 Y95.488 E.02682
;WIDTH:0.532257
G1 X123.696 Y94.946 E.02382
G1 X124.008 Y94.503 E.02205
;WIDTH:0.528328
G1 X124.347 Y94.117 E.02074
;WIDTH:0.527298
G1 X124.579 Y94.589 E.02118
;WIDTH:0.534322
G1 X124.284 Y94.936 E.01861
G1 X124.013 Y95.415 E.02249
;WIDTH:0.53015
G1 X123.926 Y95.696 E.01192
;WIDTH:0.534305
G1 X123.847 Y96.19 E.02044
G1 X123.86 Y96.561 E.01517
G1 X124.024 Y97.194 E.02672
;WIDTH:0.52812
G1 X124.295 Y97.656 E.02161
;WIDTH:0.550245
G1 X124.705 Y98.088 E.02512
G1 X124.878 Y98.168 E.00804
;WIDTH:0.50683
G1 X125.05 Y98.248 E.00732
;WIDTH:0.463415
G1 X125.222 Y98.328 E.00663
;WIDTH:0.419999
G1 X125.644 Y98.467 E.01393
G1 X126.085 Y98.518 E.01392
G1 X126.528 Y98.482 E.01394
G1 X126.954 Y98.358 E.01391
;WIDTH:0.462492
G1 X127.15 Y98.269 E.00751
;WIDTH:0.504985
G1 X127.346 Y98.18 E.00827
;WIDTH:0.547477
G1 X127.543 Y98.091 E.00907
G1 X127.954 Y97.654 E.02517
;WIDTH:0.534003
G1 X128.195 Y97.25 E.01921
G1 X128.323 Y96.883 E.01587
;WIDTH:0.534694
G1 X128.4 Y96.388 E.02048
G1 X128.385 Y96.018 E.01514
;WIDTH:0.529396
G1 X128.249 Y95.453 E.02351
;WIDTH:0.532053
G1 X128.018 Y95.005 E.0205
G1 X127.671 Y94.59 E.022
;WIDTH:0.531697
G1 X127.909 Y94.13 E.02105
;WIDTH:0.532465
G1 X128.339 Y94.617 E.02645
G1 X128.617 Y95.073 E.02174
G1 X128.752 Y95.436 E.01576
;WIDTH:0.52979
G1 X128.877 Y96.018 E.0241
;WIDTH:0.540863
G1 X128.879 Y96.57 E.02286
G1 X128.769 Y97.126 E.02347
;WIDTH:0.532457
G1 X128.547 Y97.623 E.02216
;WIDTH:0.528324
G1 X128.239 Y98.075 E.02208
;WIDTH:0.547477
G1 X127.899 Y98.447 E.02114
G1 X127.853 Y98.537 E.00424
;WIDTH:0.51298
G1 X127.808 Y98.628 E.00397
;WIDTH:0.478482
G1 X127.755 Y98.884 E.00947
;WIDTH:0.449241
G1 X127.703 Y99.139 E.00879
;WIDTH:0.419999
G1 X127.781 Y99.498 E.01152
G1 X128.003 Y99.812 E.01206
G1 X128.731 Y100.481 E.031
G1 X129.139 Y100.782 E.0159
G1 X129.339 Y100.855 E.00668
G1 X129.332 Y100.907 E.00165
G1 X129.484 Y101.149 E.00896
G1 X130.134 Y101.873 E.03051
G1 X130.676 Y102.266 E.02099
G1 X130.926 Y102.597 E.01301
G1 X121.322 Y102.597 E.30113
G1 X121.51 Y102.285 E.01142
G1 X121.787 Y102.125 E.01003
G1 X122.516 Y101.47 E.03073
G1 X122.835 Y101.055 E.01641
G1 X122.888 Y100.911 E.00481
M204 S1000
;WIPE_START
G1 F8640
G1 X122.96 Y100.862 E-.02011
G1 X123.145 Y100.756 E-.04923
G1 X123.597 Y100.414 E-.13088
G1 X124.244 Y99.813 E-.2039
G1 X124.441 Y99.551 E-.07569
G1 X124.54 Y99.218 E-.08022
G1 X124.516 Y98.891 E-.07571
G1 X124.459 Y98.741 E-.03705
G1 X124.402 Y98.592 E-.03684
G1 X124.345 Y98.442 E-.03705
G1 X124.188 Y98.273 E-.05332
;WIPE_END
G1 Z.6 F720
G1 X129.445 Y89.842 F10800
G1 Z.2 F720
G1 E.8 F2100
M204 S800
G1 F1200
G1 X129.443 Y89.96 E.0037
G1 X129.173 Y90.54 E.02006
G1 X128.02 Y92.866 E.0814
;WIDTH:0.395934
G1 X127.838 Y93.194 E.01101
;WIDTH:0.389236
G1 X127.672 Y93.568 E.01178
;WIDTH:0.419999
G1 X127.282 Y94.4 E.02881
G1 X127.078 Y94.628 E.00959
G1 X126.993 Y94.657 E.00282
G1 X127.393 Y94.937 E.01531
G1 X127.686 Y95.292 E.01443
G1 X127.864 Y95.665 E.01296
G1 X127.977 Y96.21 E.01745
G1 X127.895 Y96.816 E.01917
G1 X127.709 Y97.252 E.01486
G1 X127.443 Y97.59 E.01349
G1 X127.159 Y97.826 E.01158
G1 X126.834 Y98.001 E.01157
G1 X126.481 Y98.108 E.01157
G1 X126.114 Y98.142 E.01156
G1 X125.747 Y98.104 E.01157
G1 X125.394 Y97.993 E.0116
G1 X124.964 Y97.729 E.01582
G1 X124.625 Y97.379 E.01528
G1 X124.391 Y96.943 E.01551
G1 X124.278 Y96.439 E.01619
G1 X124.353 Y95.762 E.02136
G1 X124.545 Y95.314 E.01528
G1 X124.858 Y94.94 E.01529
G1 X125.251 Y94.658 E.01517
G1 X125.027 Y94.498 E.00863
G1 X124.733 Y93.925 E.02019
G1 X124.546 Y93.506 E.01439
;WIDTH:0.3866
G1 X124.359 Y93.086 E.01314
G1 X124.093 Y92.582 E.01629
;WIDTH:0.419999
G1 X123.828 Y92.079 E.01783
G1 X122.845 Y90.071 E.0701
G1 X122.788 Y89.79 E.00899
G1 X122.8 Y89.703 E.00275
G1 X122.96 Y89.415 E.01033
G1 X123.255 Y89.265 E.01038
G1 X123.353 Y89.257 E.00308
G1 X128.895 Y89.257 E.17377
G1 X129.284 Y89.412 E.01313
G1 X129.446 Y89.697 E.01028
G1 X129.445 Y89.782 E.00267
M204 S1000
G1 X129.083 Y89.833 F10800
M204 S800
;TYPE:External perimeter
G1 F1200
G1 X128.834 Y90.374 E.01867
G1 X126.943 Y94.234 E.13477
G1 X126.875 Y94.31 E.0032
;WIDTH:0.448771
G1 X126.628 Y94.339 E.00839
;WIDTH:0.477542
G1 X126.38 Y94.368 E.00902
;WIDTH:0.485025
G1 X125.782 Y94.372 E.02198
G1 X125.602 Y94.352 E.00666
;WIDTH:0.452512
G1 X125.422 Y94.332 E.00617
;WIDTH:0.419999
G1 X125.304 Y94.234 E.00481
G1 X123.183 Y89.905 E.15115
G1 X123.168 Y89.783 E.00385
G1 X123.222 Y89.687 E.00345
G1 X123.353 Y89.634 E.00443
G1 X128.895 Y89.634 E.17377
G1 X129.025 Y89.686 E.00439
G1 X129.061 Y89.777 E.00307
M204 S1000
G1 X129.422 Y90.044 F10800
;WIPE_START
G1 F8640
G1 X128.834 Y90.374 E-.14748
G1 X127.591 Y92.912 E-.65252
;WIPE_END
G1 Z.6 F720
G1 X123.184 Y88.859 F10800
G1 Z.2 F720
G1 E.8 F2100
M204 S800
;TYPE:Perimeter
;WIDTH:0.49136
G1 F1200
G1 X123.353 Y88.851 E.00631
;WIDTH:0.476646
G1 X128.895 Y88.851 E.19987
M204 S1000
;WIPE_START
G1 F8640
G1 X125.43 Y88.851 E-.8
;WIPE_END
G1 Z.6 F720
G1 X126.107 Y94.788 F10800
G1 Z.2 F720
G1 E.8 F2100
M204 S800
;TYPE:External perimeter
;WIDTH:0.467938
G1 F1200
G1 X126.405 Y94.816 E.01058
;WIDTH:0.464931
G1 X126.909 Y95.038 E.01933
;WIDTH:0.419999
G1 X127.169 Y95.245 E.01042
G1 X127.355 Y95.472 E.0092
G1 X127.496 Y95.747 E.00969
G1 X127.6 Y96.24 E.0158
G1 X127.522 Y96.759 E.01646
G1 X127.374 Y97.075 E.01094
G1 X127.194 Y97.308 E.00923
G1 X126.971 Y97.499 E.00921
G1 X126.714 Y97.643 E.00924
G1 X126.434 Y97.733 E.00922
G1 X126.142 Y97.766 E.00921
G1 X125.849 Y97.741 E.00922
G1 X125.567 Y97.657 E.00923
G1 X125.199 Y97.434 E.01349
G1 X124.892 Y97.106 E.01409
G1 X124.751 Y96.831 E.00969
G1 X124.647 Y96.337 E.01583
G1 X124.725 Y95.819 E.01642
G1 X124.931 Y95.426 E.01391
G1 X125.277 Y95.079 E.01536
;WIDTH:0.44767
G1 X125.522 Y94.953 E.00927
;WIDTH:0.47534
G1 X125.768 Y94.827 E.00994
G1 X126.048 Y94.795 E.01013
M204 S1000
G1 X126.249 Y94.525 F10800
;WIPE_START
G1 F8640
G1 X126.405 Y94.816 E-.08257
G1 X126.909 Y95.038 E-.12716
G1 X127.169 Y95.245 E-.07674
G1 X127.355 Y95.472 E-.06776
G1 X127.496 Y95.747 E-.07136
G1 X127.6 Y96.24 E-.11634
G1 X127.522 Y96.759 E-.12118
G1 X127.374 Y97.075 E-.08057
G1 X127.225 Y97.268 E-.05632
;WIPE_END
G1 Z.6 F720
G1 X134.084 Y102.596 F10800
G1 Z.2 F720
M73 Q2 S26
G1 E.8 F2100
M204 S800
;TYPE:Perimeter
;WIDTH:0.419999
G1 F1200
G1 X134.6 Y101.897 E.02724
G1 X135.109 Y101.039 E.03128
M73 P2 R25
G1 X135.325 Y100.582 E.01585
G1 X135.666 Y99.759 E.02793
G1 X135.863 Y99.195 E.01873
G1 X136.104 Y98.204 E.03198
G1 X136.187 Y97.53 E.02129
G1 X136.277 Y96.742 E.02487
G1 X136.27 Y95.723 E.03195
G1 X136.112 Y94.425 E.041
G1 X135.964 Y93.753 E.02158
G1 X135.538 Y92.464 E.04257
G1 X135.101 Y91.525 E.03247
G1 X134.804 Y91.005 E.01878
G1 X133.947 Y89.803 E.04629
G1 X133.187 Y88.972 E.03531
G1 X132.915 Y88.823 E.00972
G1 X138.01 Y88.823 E.15975
G1 X138.01 Y96.88 E.25262
G1 X138.088 Y97.256 E.01204
G1 X138.257 Y97.516 E.00972
G1 X138.594 Y97.752 E.0129
G1 X138.952 Y97.823 E.01144
G1 X164.01 Y97.823 E.78567
G1 X164.01 Y99.595 E.05556
G1 X138.952 Y99.595 E.78567
G1 X138.594 Y99.665 E.01144
G1 X138.354 Y99.809 E.00878
G1 X138.086 Y100.166 E.014
G1 X138.01 Y100.537 E.01187
G1 X138.01 Y102.595 E.06453
G1 X134.144 Y102.596 E.12122
M204 S1000
;WIPE_START
G1 F8640
G1 X134.6 Y101.897 E-.19271
G1 X135.109 Y101.039 E-.23035
M73 Q2 S25
G1 X135.325 Y100.582 E-.11672
G1 X135.666 Y99.759 E-.2057
G1 X135.744 Y99.536 E-.05452
;WIPE_END
G1 Z.6 F720
G1 X113.832 Y96.972 F10800
G1 Z.2 F720
G1 E.8 F2100
M204 S800
G1 F1200
G1 X113.861 Y96.88 E.00302
G1 X113.861 Y88.446 E.26444
G1 X119.018 Y88.446 E.16169
;WIDTH:0.459197
G1 X119.314 Y88.465 E.01027
;WIDTH:0.498395
G1 X119.611 Y88.485 E.01127
;WIDTH:0.537593
G1 X119.907 Y88.505 E.0122
G1 X120.108 Y88.485 E.00831
;WIDTH:0.498395
G1 X120.309 Y88.465 E.00765
;WIDTH:0.459197
G1 X120.51 Y88.446 E.00699
;WIDTH:0.419999
G1 X131.768 Y88.446 E.35299
;WIDTH:0.458832
G1 X132.059 Y88.465 E.01009
;WIDTH:0.497665
G1 X132.35 Y88.485 E.01103
;WIDTH:0.536498
G1 X132.642 Y88.504 E.01201
G1 X132.845 Y88.485 E.00837
;WIDTH:0.497665
G1 X133.049 Y88.465 E.00775
;WIDTH:0.458832
G1 X133.252 Y88.446 E.00705
;WIDTH:0.419999
G1 X138.387 Y88.446 E.161
G1 X138.387 Y96.742 E.26011
G1 X138.433 Y97.105 E.01147
G1 X138.535 Y97.262 E.00587
G1 X138.737 Y97.403 E.00772
G1 X138.952 Y97.446 E.00687
G1 X164.387 Y97.446 E.7975
G1 X164.387 Y98.709 E.0396
G1 X164.387 Y99.972 E.0396
G1 X138.952 Y99.972 E.7975
G1 X138.737 Y100.014 E.00687
G1 X138.593 Y100.1 E.00526
G1 X138.457 Y100.265 E.0067
G1 X138.387 Y100.537 E.00881
G1 X138.387 Y102.972 E.07635
G1 X133.226 Y102.985 E.16182
G1 X133.703 Y102.476 E.02187
G1 X134.276 Y101.703 E.03017
G1 X134.768 Y100.878 E.03012
G1 X134.984 Y100.421 E.01585
G1 X135.311 Y99.632 E.02678
G1 X135.497 Y99.103 E.01758
G1 X135.729 Y98.158 E.03051
G1 X135.9 Y96.742 E.04472
G1 X135.896 Y95.769 E.03051
G1 X135.738 Y94.471 E.041
G1 X135.606 Y93.871 E.01926
G1 X135.155 Y92.519 E.04469
G1 X134.772 Y91.71 E.02806
G1 X134.496 Y91.223 E.01755
G1 X133.715 Y90.114 E.04253
G1 X132.909 Y89.226 E.0376
;WIDTH:0.458832
G1 X132.805 Y89.149 E.00448
;WIDTH:0.497665
G1 X132.702 Y89.071 E.00489
;WIDTH:0.536498
G1 X132.599 Y88.994 E.00528
G1 X132.384 Y88.994 E.00882
G1 X132.285 Y89.066 E.00502
;WIDTH:0.497665
G1 X132.187 Y89.139 E.00462
;WIDTH:0.458832
G1 X132.088 Y89.211 E.00423
;WIDTH:0.419999
G1 X131.613 Y89.694 E.02124
G1 X131.264 Y90.09 E.01655
G1 X131.059 Y90.521 E.01496
G1 X131.095 Y90.648 E.00414
G1 X130.969 Y90.61 E.00413
G1 X130.707 Y90.738 E.00914
G1 X130.105 Y91.259 E.02496
G1 X129.75 Y91.699 E.01773
G1 X129.637 Y91.96 E.00892
G1 X129.662 Y92.046 E.00281
G1 X129.576 Y92.021 E.00281
G1 X129.327 Y92.125 E.00846
G1 X128.907 Y92.441 E.01648
G1 X128.269 Y93.051 E.02768
;WIDTH:0.395934
G1 X128.132 Y93.307 E.00852
;WIDTH:0.389236
G1 X128.18 Y93.573 E.00778
;WIDTH:0.419999
