; generated by PrusaSlicer 2.6.0+linux-x64-GTK3 on 2023-08-18 at 05:28:15 UTC


;
;
; 

; external perimeters extrusion width = 0.60mm
; perimeters extrusion width = 0.50mm
; infill extrusion width = 0.50mm
; solid infill extrusion width = 0.50mm
; top infill extrusion width = 0.45mm
; support material extrusion width = 0.38mm
; first layer extrusion width = 0.42mm

M73 P0 R16
M73 Q0 S16
M201 X1000 Y1000 Z200 E5000 ; sets maximum accelerations, mm/sec^2
M203 X200 Y200 Z12 E120 ; sets maximum feedrates, mm / sec
M204 S1250 T1250 ; sets acceleration (S) and retract acceleration (R), mm/sec^2
M205 X8.00 Y8.00 Z0.40 E4.50 ; sets the jerk limits, mm/sec
M205 S0 T0 ; sets the minimum extruding and travel feed rate, mm/sec
;TYPE:Custom
M862.3 P "MK3S" ; printer model check
M862.1 P0.4 ; nozzle diameter check
M115 U3.12.2 ; tell printer latest fw version
G90 ; use absolute coordinates
M83 ; extruder relative mode
M104 S215 ; set extruder temp
M140 S60 ; set bed temp
M190 S60 ; wait for bed temp
M109 S215 ; wait for extruder temp
G28 W ; home all without mesh bed level
G80 ; mesh bed leveling

G1 Z0.2 F720
G1 Y-3 F1000 ; go outside print area
G92 E0
G1 X60 E9 F1000 ; intro line
G1 X100 E12.5 F1000 ; intro line

G92 E0
M221 S95

; Don't change E values below. Excessive value can damage the printer.

M907 E538 ; set extruder motor current
G21 ; set units to millimeters
G90 ; use absolute coordinates
M83 ; use relative distances for extrusion
M900 K0.05 ; Filament gcode LA 1.5
M900 K30 ; Filament gcode LA 1.0
M107
;LAYER_CHANGE
;Z:0.2
;HEIGHT:0.2
;BEFORE_LAYER_CHANGE
G92 E0.0
;0.2


G1 E-.8 F2100
G1 Z.4 F720
;AFTER_LAYER_CHANGE
;0.2
G1 X115.903 Y84.678 F10800
G1 Z.2 F720
G1 E.8 F2100
M204 S800
;TYPE:Skirt/Brim
;WIDTH:0.42
G1 F1200
G1 X116.553 Y84.028 E.02882
G1 X118.5 Y83.221 E.06608
G1 X131.5 Y83.221 E.40761
G1 X133.447 Y84.028 E.06608
G1 X134.097 Y84.678 E.02882
G1 X134.904 Y86.625 E.06608
G1 X134.904 Y123.725 E1.16324
G1 X134.097 Y125.672 E.06608
M73 P1 R16
M73 Q1 S16
G1 X133.447 Y126.322 E.02882
G1 X131.5 Y127.129 E.06608
G1 X118.5 Y127.129 E.40761
G1 X116.553 Y126.322 E.06608
G1 X115.903 Y125.672 E.02882
G1 X115.096 Y123.725 E.06608
G1 X115.096 Y86.625 E1.16324
G1 X115.88 Y84.733 E.06421
M204 S1000
G1 X116.169 Y84.944 F10800
M204 S800
G1 F1200
G1 X116.819 Y84.294 E.02882
G1 X118.5 Y83.598 E.05705
G1 X131.5 Y83.598 E.40761
G1 X133.181 Y84.294 E.05705
G1 X133.831 Y84.944 E.02882
G1 X134.527 Y86.625 E.05705
G1 X134.527 Y123.725 E1.16324
G1 X133.831 Y125.406 E.05705
M73 P1 R15
G1 X133.181 Y126.056 E.02882
G1 X131.5 Y126.752 E.05705
G1 X118.5 Y126.752 E.40761
G1 X116.819 Y126.056 E.05705
G1 X116.169 Y125.406 E.02882
G1 X115.473 Y123.725 E.05705
G1 X115.473 Y86.625 E1.16324
G1 X116.146 Y85 E.05515
M204 S1000
; printing object R207-Antenna-Bracket.stl id:0 copy 0
;WIPE_START
M73 Q1 S15
G1 F8640
G1 X116.819 Y84.294 E-.22522
G1 X118.5 Y83.598 E-.4201
G1 X119.17 Y83.598 E-.15468
;WIPE_END
G1 Z.6 F720
G1 X122.454 Y88.066 F10800
M73 Q2 S15
G1 Z.2 F720
G1 E.8 F2100
M204 S800
;TYPE:Perimeter
;WIDTH:0.419999
G1 F1200
M73 P2 R15
G1 X122.266 Y88.194 E.00713
G1 X121.572 Y88.81 E.0291
G1 X121.014 Y89.552 E.02911
G1 X120.614 Y90.39 E.02911
;WIDTH:0.455256
G1 X120.371 Y91.289 E.03193
G1 X120.338 Y92.218 E.03187
;WIDTH:0.475704
G1 X120.4 Y92.882 E.024
G1 X120.475 Y93.139 E.00963
;WIDTH:0.444558
G1 X120.807 Y94.006 E.031
;WIDTH:0.419999
G1 X121.293 Y94.797 E.02911
G1 X121.927 Y95.475 E.0291
G1 X122.682 Y96.015 E.0291
G1 X123.53 Y96.394 E.02912
G1 X124.435 Y96.597 E.02908
G1 X125.364 Y96.617 E.02913
G1 X126.277 Y96.453 E.02908
G1 X127.168 Y96.094 E.03012
G1 X128.096 Y95.455 E.03533
G1 X128.725 Y94.773 E.02909
G1 X129.207 Y93.979 E.02912
;WIDTH:0.461152
G1 X129.384 Y93.546 E.01627
;WIDTH:0.502304
G1 X129.562 Y93.113 E.01788
G1 X129.612 Y92.65 E.01779
;WIDTH:0.46745
G1 X129.663 Y92.187 E.01644
;WIDTH:0.460072
G1 X129.627 Y91.256 E.03232
G1 X129.375 Y90.361 E.03225
;WIDTH:0.419999
G1 X129.101 Y89.754 E.02088
G1 X128.745 Y89.214 E.02028
G1 X128.407 Y88.788 E.01705
G1 X127.918 Y88.335 E.0209
G1 X127.529 Y88.066 E.01483
G1 X130.059 Y88.066 E.07933
G1 X130.059 Y88.791 E.02273
G1 X130.059 Y90.543 E.05493
;WIDTH:0.4409
G1 X130.048 Y91.516 E.0322
;WIDTH:0.443881
G1 X130.047 Y92.485 E.03231
;WIDTH:0.473093
G1 X130.032 Y92.819 E.01196
;WIDTH:0.502304
G1 X130.018 Y93.153 E.01277
G1 X130.034 Y93.313 E.00614
;WIDTH:0.46895
G1 X130.051 Y93.474 E.00574
;WIDTH:0.435596
G1 X130.059 Y94.14 E.02175
;WIDTH:0.419999
G1 X130.059 Y122.834 E.89968
G1 X119.941 Y122.834 E.31724
G1 X119.941 Y93.891 E.90749
;WIDTH:0.447852
G1 X119.955 Y93.4 E.01654
;WIDTH:0.475704
G1 X119.969 Y92.909 E.01768
G1 X119.946 Y91.94 E.03488
;WIDTH:0.430323
G1 X119.945 Y90.963 E.03147
;WIDTH:0.427818
G1 X119.941 Y90.297 E.02132
;WIDTH:0.419999
G1 X119.941 Y88.066 E.06995
G1 X122.394 Y88.066 E.07691
M204 S1000
;WIPE_START
G1 F8640
G1 X122.266 Y88.194 E-.0418
G1 X121.572 Y88.81 E-.21427
G1 X121.014 Y89.552 E-.21437
G1 X120.614 Y90.39 E-.21441
G1 X120.484 Y90.871 E-.11515
;WIPE_END
G1 Z.6 F720
G1 X130.436 Y123.211 F10800
G1 Z.2 F720
G1 E.8 F2100
M204 S800
G1 F1200
G1 X119.564 Y123.211 E.34088
G1 X119.564 Y87.689 E1.11377
G1 X123.378 Y87.689 E.11959
;WIDTH:0.45629
G1 X123.773 Y87.707 E.01359
;WIDTH:0.49258
G1 X124.168 Y87.725 E.01478
G1 X124.052 Y87.765 E.00459
;WIDTH:0.469971
G1 X123.249 Y88.058 E.03035
;WIDTH:0.419999
G1 X122.509 Y88.483 E.02676
G1 X121.867 Y89.046 E.02677
G1 X121.35 Y89.724 E.02673
G1 X120.977 Y90.492 E.02677
G1 X120.764 Y91.318 E.02675
G1 X120.719 Y92.171 E.02678
G1 X120.844 Y93.015 E.02675
G1 X121.133 Y93.818 E.02676
G1 X121.576 Y94.547 E.02675
G1 X122.155 Y95.175 E.02678
G1 X122.846 Y95.675 E.02674
G1 X123.623 Y96.028 E.02676
G1 X124.454 Y96.221 E.02675
G1 X125.307 Y96.245 E.02676
G1 X126.148 Y96.099 E.02676
G1 X126.964 Y95.777 E.02751
G1 X127.826 Y95.192 E.03266
G1 X128.408 Y94.568 E.02675
M73 Q3 S15
G1 X128.856 Y93.841 E.02678
G1 X129.15 Y93.04 E.02675
G1 X129.28 Y92.197 E.02674
G1 X129.24 Y91.344 E.02677
G1 X129.032 Y90.516 E.02677
G1 X128.664 Y89.746 E.02676
M73 P3 R15
G1 X128.15 Y89.065 E.02675
G1 X127.512 Y88.498 E.02676
G1 X126.774 Y88.069 E.02676
;WIDTH:0.45539
G1 X126.508 Y87.96 E.00986
;WIDTH:0.490781
G1 X126.241 Y87.851 E.01074
;WIDTH:0.526172
G1 X125.974 Y87.742 E.01159
G1 X126.075 Y87.729 E.00409
;WIDTH:0.499311
G1 X126.175 Y87.715 E.00383
;WIDTH:0.47245
G1 X126.508 Y87.702 E.0119
;WIDTH:0.446225
G1 X126.841 Y87.689 E.01118
;WIDTH:0.419999
G1 X130.436 Y87.689 E.11272
G1 X130.436 Y88.791 E.03455
G1 X130.436 Y123.151 E1.07733
M204 S1000
G1 X130.813 Y123.588 F10800
M204 S800
G1 F1200
G1 X119.187 Y123.588 E.36452
G1 X119.187 Y87.312 E1.13741
G1 X130.813 Y87.312 E.36452
G1 X130.813 Y123.528 E1.13553
M204 S1000
G1 X131.19 Y123.965 F10800
M204 S800
;TYPE:External perimeter
G1 F1200
G1 X118.81 Y123.965 E.38817
G1 X118.81 Y86.935 E1.16105
G1 X131.19 Y86.935 E.38817
M73 Q4 S15
G1 X131.19 Y123.905 E1.15917
M204 S1000
M73 P4 R15
G1 X130.824 Y123.803 F10800
;WIPE_START
G1 F8640
G1 X127.725 Y123.922 E-.8
;WIPE_END
G1 Z.6 F720
G1 X123.49 Y88.37 F10800
G1 Z.2 F720
G1 E.8 F2100
M204 S800
;TYPE:Perimeter
G1 F1200
G1 X124.17 Y88.149 E.02242
G1 X125.125 Y88.064 E.03006
G1 X125.91 Y88.168 E.02483
G1 X126.645 Y88.423 E.02439
G1 X127.316 Y88.82 E.02445
G1 X127.894 Y89.341 E.0244
G1 X128.357 Y89.967 E.02441
G1 X128.688 Y90.672 E.02442
G1 X128.872 Y91.428 E.0244
G1 X128.903 Y92.206 E.02441
G1 X128.778 Y92.975 E.02443
G1 X128.505 Y93.703 E.02438
G1 X128.092 Y94.363 E.02441
G1 X127.556 Y94.929 E.02444
G1 X126.759 Y95.46 E.03003
G1 X126.019 Y95.745 E.02486
G1 X125.251 Y95.872 E.02441
G1 X124.473 Y95.844 E.02441
G1 X123.716 Y95.663 E.0244
G1 X123.01 Y95.335 E.02441
G1 X122.382 Y94.874 E.02443
G1 X121.859 Y94.298 E.02439
G1 X121.46 Y93.629 E.02442
G1 X121.201 Y92.895 E.0244
G1 X121.093 Y92.124 E.02441
G1 X121.14 Y91.347 E.02441
G1 X121.34 Y90.594 E.02443
G1 X121.685 Y89.896 E.02441
G1 X122.162 Y89.281 E.0244
G1 X122.751 Y88.772 E.02441
G1 X123.433 Y88.388 E.02454
M204 S1000
G1 X123.694 Y88.694 F10800
M204 S800
;TYPE:External perimeter
G1 F1200
G1 X124.282 Y88.51 E.01932
G1 X125.153 Y88.44 E.0274
G1 X125.854 Y88.54 E.0222
G1 X126.516 Y88.778 E.02206
G1 X127.119 Y89.141 E.02207
G1 X127.637 Y89.617 E.02206
G1 X128.051 Y90.187 E.02209
G1 X128.344 Y90.827 E.02207
G1 X128.504 Y91.512 E.02206
G1 X128.526 Y92.215 E.02205
G1 X128.407 Y92.909 E.02208
G1 X128.154 Y93.566 E.02207
G1 X127.775 Y94.159 E.02207
G1 X127.286 Y94.665 E.02206
G1 X126.555 Y95.143 E.02739
G1 X125.89 Y95.39 E.02224
G1 X125.195 Y95.499 E.02206
G1 X124.492 Y95.467 E.02206
G1 X123.809 Y95.297 E.02207
G1 X123.173 Y94.995 E.02208
G1 X122.61 Y94.573 E.02206
G1 X122.141 Y94.048 E.02207
G1 X121.786 Y93.441 E.02205
G1 X121.559 Y92.775 E.02206
G1 X121.467 Y92.077 E.02207
G1 X121.516 Y91.375 E.02206
G1 X121.703 Y90.696 E.02208
G1 X122.021 Y90.068 E.02207
G1 X122.457 Y89.516 E.02206
G1 X122.994 Y89.061 E.02207
G1 X123.636 Y88.712 E.02291
M204 S1000
G1 X123.744 Y88.297 F10800
;WIPE_START
G1 F8640
G1 X124.282 Y88.51 E-.15629
G1 X125.153 Y88.44 E-.20176
G1 X125.854 Y88.54 E-.1635
G1 X126.516 Y88.778 E-.16244
G1 X126.946 Y89.037 E-.11601
;WIPE_END
G1 Z.6 F720
G1 X124.168 Y87.725 F10800
G1 Z.2 F720
G1 E.8 F2100
M204 S800
;TYPE:Perimeter
;WIDTH:0.49258
G1 F1200
G1 X124.632 Y87.707 E.01736
;WIDTH:0.455471
G1 X125.096 Y87.688 E.01593
;WIDTH:0.454299
G1 X125.389 Y87.706 E.01004
;WIDTH:0.490236
G1 X125.682 Y87.724 E.01092
;WIDTH:0.526172
G1 X125.974 Y87.742 E.01176
M204 S1000
;WIPE_START
G1 F8640
G1 X125.682 Y87.724 E-.06755
G1 X125.389 Y87.706 E-.06778
G1 X125.096 Y87.688 E-.06778
G1 X124.632 Y87.707 E-.10723
G1 X124.168 Y87.725 E-.10722
;WIPE_END
G1 E-.38244 F2100
G1 Z.6 F720
G1 X129.889 Y89.034 F10800
G1 Z.2 F720
G1 E.8 F2100
M204 S800
;TYPE:Solid infill
;WIDTH:0.436693
G1 F1200
G1 X129.261 Y88.406 E.02908
G1 X128.704 Y88.406 E.01824
G1 X129.719 Y89.421 E.047
G1 X129.719 Y89.978 E.01824
G1 X128.95 Y89.209 E.03561
M204 S1000
;WIPE_START
G1 F8640
G1 X129.719 Y89.978 E-.25111
G1 X129.719 Y89.421 E-.12861
G1 X128.704 Y88.406 E-.33144
G1 X129.089 Y88.406 E-.08884
;WIPE_END
G1 Z.6 F720
G1 X129.481 Y93.763 F10800
G1 Z.2 F720
G1 E.8 F2100
M204 S800
;WIDTH:0.421778
G1 F1200
G1 X129.716 Y93.998 E.01047
G1 X129.719 Y94.537 E.01698
G1 X129.443 Y94.26 E.01232
G1 X129.243 Y94.597 E.01235
G1 X129.719 Y95.073 E.02121
G1 X129.719 Y95.609 E.01689
G1 X129.033 Y94.922 E.03058
G1 X128.797 Y95.222 E.01202
G1 X129.719 Y96.145 E.0411
G1 X129.719 Y96.68 E.01685
G1 X128.532 Y95.494 E.05286
G1 X128.261 Y95.757 E.0119
G1 X129.719 Y97.216 E.06498
G1 X129.719 Y97.752 E.01689
G1 X127.956 Y95.989 E.07854
G1 X127.631 Y96.199 E.01219
G1 X129.719 Y98.288 E.09304
G1 X129.719 Y98.824 E.01689
G1 X127.301 Y96.405 E.10775
G1 X126.935 Y96.575 E.01271
G1 X129.719 Y99.359 E.12403
G1 X129.719 Y99.895 E.01689
G1 X126.542 Y96.718 E.14154
G1 X126.129 Y96.84 E.01357
G1 X129.719 Y100.431 E.15996
G1 X129.719 Y100.967 E.01689
G1 X125.667 Y96.915 E.18052
G1 X125.185 Y96.968 E.01528
G1 X129.719 Y101.503 E.20202
G1 X129.719 Y102.038 E.01685
M73 Q5 S15
G1 X124.628 Y96.947 E.22681
M73 P5 R15
G1 X124.411 Y96.936 E.00684
G1 X124.012 Y96.867 E.01276
G1 X129.719 Y102.574 E.25425
G1 X129.719 Y103.11 E.01689
G1 X122.933 Y96.324 E.30232
M204 S1000
;WIPE_START
G1 F8640
G1 X125.383 Y98.774 E-.8
;WIPE_END
G1 Z.6 F720
G1 X120.626 Y94.017 F10800
G1 Z.2 F720
G1 E.8 F2100
M204 S800
G1 F1200
G1 X120.288 Y93.679 E.01506
G1 X120.281 Y94.207 E.01663
G1 X129.719 Y103.646 E.42049
G1 X129.719 Y104.181 E.01685
G1 X120.281 Y94.743 E.42047
G1 X120.281 Y95.278 E.01685
G1 X129.719 Y104.717 E.42049
G1 X129.719 Y105.253 E.01689
G1 X120.281 Y95.814 E.42049
G1 X120.281 Y96.35 E.01689
G1 X129.719 Y105.789 E.42049
G1 X129.719 Y106.325 E.01689
G1 X120.281 Y96.886 E.42049
G1 X120.281 Y97.422 E.01689
G1 X129.719 Y106.86 E.42047
G1 X129.719 Y107.396 E.01689
G1 X120.281 Y97.957 E.42049
G1 X120.281 Y98.493 E.01689
G1 X129.719 Y107.932 E.42049
G1 X129.719 Y108.468 E.01689
G1 X120.281 Y99.029 E.42049
G1 X120.281 Y99.565 E.01689
G1 X129.719 Y109.004 E.42049
G1 X129.719 Y109.539 E.01685
M73 Q6 S15
G1 X120.281 Y100.101 E.42047
G1 X120.281 Y100.636 E.01685
M73 P6 R15
G1 X129.719 Y110.075 E.42049
G1 X129.719 Y110.611 E.01689
G1 X120.281 Y101.172 E.42049
G1 X120.281 Y101.708 E.01689
G1 X129.719 Y111.147 E.42049
G1 X129.719 Y111.682 E.01685
G1 X120.281 Y102.244 E.42047
G1 X120.281 Y102.779 E.01685
G1 X129.719 Y112.218 E.42049
G1 X129.719 Y112.754 E.01689
G1 X120.281 Y103.315 E.42049
G1 X120.281 Y103.851 E.01689
G1 X129.719 Y113.29 E.42049
G1 X129.719 Y113.826 E.01689
G1 X120.281 Y104.387 E.42049
G1 X120.281 Y104.923 E.01689
G1 X129.719 Y114.361 E.42047
G1 X129.719 Y114.897 E.01689
G1 X120.281 Y105.458 E.42049
G1 X120.281 Y105.994 E.01689
G1 X129.719 Y115.433 E.42049
G1 X129.719 Y115.969 E.01689
G1 X120.281 Y106.53 E.42049
G1 X120.281 Y107.066 E.01689
G1 X129.719 Y116.505 E.42049
G1 X129.719 Y117.04 E.01685
M73 P7 R15
M73 Q7 S15
G1 X120.281 Y107.602 E.42047
G1 X120.281 Y108.137 E.01685
G1 X129.719 Y117.576 E.42049
G1 X129.719 Y118.112 E.01689
G1 X120.281 Y108.673 E.42049
G1 X120.281 Y109.209 E.01689
G1 X129.719 Y118.648 E.42049
G1 X129.719 Y119.183 E.01685
G1 X120.281 Y109.745 E.42047
G1 X120.281 Y110.28 E.01685
G1 X129.719 Y119.719 E.42049
G1 X129.719 Y120.255 E.01689
G1 X120.281 Y110.816 E.42049
G1 X120.281 Y111.352 E.01689
G1 X129.719 Y120.791 E.42049
G1 X129.719 Y121.327 E.01689
G1 X120.281 Y111.888 E.42049
G1 X120.281 Y112.424 E.01689
G1 X129.719 Y121.862 E.42047
G1 X129.719 Y122.398 E.01689
G1 X120.281 Y112.959 E.42049
G1 X120.281 Y113.495 E.01689
M73 P7 R14
G1 X129.28 Y122.494 E.40091
G1 X128.744 Y122.494 E.01689
G1 X120.281 Y114.031 E.37703
G1 X120.281 Y114.567 E.01689
G1 X128.208 Y122.494 E.35315
G1 X127.672 Y122.494 E.01689
M73 Q8 S15
G1 X120.281 Y115.103 E.32927
M73 P8 R14
G1 X120.281 Y115.638 E.01685
M73 Q8 S14
G1 X127.137 Y122.494 E.30544
G1 X126.601 Y122.494 E.01689
G1 X120.281 Y116.174 E.28156
G1 X120.281 Y116.71 E.01689
G1 X126.065 Y122.494 E.25768
G1 X125.529 Y122.494 E.01689
G1 X120.281 Y117.246 E.2338
G1 X120.281 Y117.781 E.01685
G1 X124.994 Y122.494 E.20997
G1 X124.458 Y122.494 E.01689
G1 X120.281 Y118.317 E.18609
G1 X120.281 Y118.853 E.01689
G1 X123.922 Y122.494 E.16221
G1 X123.386 Y122.494 E.01689
G1 X120.281 Y119.389 E.13833
G1 X120.281 Y119.925 E.01689
G1 X122.85 Y122.494 E.11445
G1 X122.315 Y122.494 E.01685
G1 X120.281 Y120.46 E.09062
G1 X120.281 Y120.996 E.01689
G1 X121.779 Y122.494 E.06674
G1 X121.243 Y122.494 E.01689
G1 X120.281 Y121.532 E.04286
G1 X120.281 Y122.068 E.01689
G1 X120.877 Y122.664 E.02655
M204 S1000
;WIPE_START
G1 F8640
G1 X120.281 Y122.068 E-.19462
G1 X120.281 Y121.532 E-.12376
G1 X121.243 Y122.494 E-.31414
G1 X121.779 Y122.494 E-.12376
G1 X121.645 Y122.36 E-.04372
;WIPE_END
G1 Z.6 F720
G1 X121.198 Y88.236 F10800
G1 Z.2 F720
G1 E.8 F2100
M204 S800
;WIDTH:0.431993
G1 F1200
G1 X121.432 Y88.47 E.01071
G1 X121.175 Y88.764 E.01263
G1 X120.817 Y88.406 E.01638
G1 X120.281 Y88.406 E.01734
G1 X120.931 Y89.07 E.03006
G1 X120.711 Y89.4 E.01283
G1 X120.281 Y88.97 E.01967
G1 X120.281 Y89.52 E.01779
G1 X120.525 Y89.764 E.01116
G1 X120.349 Y90.139 E.0134
G1 X120.111 Y89.9 E.01091
M204 S1000
; stop printing object R207-Antenna-Bracket.stl id:0 copy 0
M106 S84.15
;LAYER_CHANGE
;Z:0.5
;HEIGHT:0.3
;BEFORE_LAYER_CHANGE
G92 E0.0
;0.5


;WIPE_START
G1 F8640
G1 X120.349 Y90.139 E-.07788
G1 X120.525 Y89.764 E-.09565
G1 X120.281 Y89.52 E-.07968
G1 X120.281 Y88.97 E-.127
G1 X120.711 Y89.4 E-.14041
G1 X120.931 Y89.07 E-.09158
G1 X120.362 Y88.489 E-.1878
;WIPE_END
G1 Z.6 F720
;AFTER_LAYER_CHANGE
;0.5
M104 S210 ; set temperature
G1 X115.096 Y88.489 F10800
G1 Z.5 F720
G1 E.8 F2100
;TYPE:Skirt/Brim
;WIDTH:0.42
G1 F2700
G1 X115.096 Y86.625 E.08268
G1 X115.903 Y84.678 E.09348
G1 X116.553 Y84.028 E.04077
G1 X118.5 Y83.221 E.09348
G1 X131.5 Y83.221 E.57661
G1 X133.447 Y84.028 E.09348
G1 X134.097 Y84.678 E.04077
G1 X134.904 Y86.625 E.09348
G1 X134.904 Y123.725 E1.64556
G1 X134.097 Y125.672 E.09348
G1 X133.447 Y126.322 E.04077
G1 X131.5 Y127.129 E.09348
G1 X118.5 Y127.129 E.57661
G1 X116.553 Y126.322 E.09348
