; generated by PrusaSlicer 2.6.1+linux-x64-GTK3 on 2023-09-26 at 00:44:03 UTC


;
;
; 

; external perimeters extrusion width = 0.60mm
; perimeters extrusion width = 0.50mm
; infill extrusion width = 0.50mm
; solid infill extrusion width = 0.50mm
; top infill extrusion width = 0.45mm
; first layer extrusion width = 0.42mm

M73 P0 R74
M73 Q0 S74
M201 X1000 Y1000 Z200 E5000 ; sets maximum accelerations, mm/sec^2
M203 X200 Y200 Z12 E120 ; sets maximum feedrates, mm / sec
M204 S1250 T1250 ; sets acceleration (S) and retract acceleration (R), mm/sec^2
M205 X8.00 Y8.00 Z0.40 E4.50 ; sets the jerk limits, mm/sec
M205 S0 T0 ; sets the minimum extruding and travel feed rate, mm/sec
;TYPE:Custom
M862.3 P "MK3S" ; printer model check
M862.1 P0.4 ; nozzle diameter check
M115 U3.12.2 ; tell printer latest fw version
G90 ; use absolute coordinates
M83 ; extruder relative mode
M104 S215 ; set extruder temp
M140 S60 ; set bed temp
M190 S60 ; wait for bed temp
M109 S215 ; wait for extruder temp
G28 W ; home all without mesh bed level
G80 ; mesh bed leveling

G1 Z0.2 F720
G1 Y-3 F1000 ; go outside print area
G92 E0
G1 X60 E9 F1000 ; intro line
G1 X100 E12.5 F1000 ; intro line

G92 E0
M221 S95

; Don't change E values below. Excessive value can damage the printer.

M907 E538 ; set extruder motor current
G21 ; set units to millimeters
G90 ; use absolute coordinates
M83 ; use relative distances for extrusion
M900 K0.05 ; Filament gcode LA 1.5
M900 K30 ; Filament gcode LA 1.0
M107
;LAYER_CHANGE
;Z:0.2
;HEIGHT:0.2
;BEFORE_LAYER_CHANGE
G92 E0.0
;0.2


G1 E-.8 F2100
G1 Z.4 F720
;AFTER_LAYER_CHANGE
;0.2
G1 X73.015 Y52.193 F10800
G1 Z.2 F720
G1 E.8 F2100
M204 S800
;TYPE:Skirt/Brim
;WIDTH:0.42
G1 F1200
G1 X74.06 Y51.317 E.04275
G1 X75 Y51.123 E.03009
G1 X87.057 Y51.124 E.37804
G1 X91.357 Y51.229 E.13486
G1 X95.535 Y51.527 E.13133
G1 X99.764 Y52.03 E.13353
G1 X104.048 Y52.746 E.13618
G1 X108.252 Y53.658 E.13488
G1 X112.408 Y54.769 E.13488
G1 X116.613 Y56.113 E.13842
G1 X120.681 Y57.635 E.13618
G1 X124.595 Y59.314 E.13354
G1 X128.363 Y61.144 E.13134
G1 X132.139 Y63.203 E.13485
G1 X135.909 Y65.501 E.13843
G1 X139.47 Y67.914 E.13487
G1 X142.823 Y70.424 E.13132
G1 X146.141 Y73.161 E.13486
G1 X149.326 Y76.052 E.13487
G1 X152.448 Y79.174 E.13843
G1 X155.265 Y82.273 E.13131
G1 X157.832 Y85.379 E.12634
G1 X160.586 Y89.03 E.14339
G1 X162.999 Y92.591 E.13487
G1 X165.297 Y96.361 E.13843
G1 X167.356 Y100.137 E.13485
G1 X169.186 Y103.905 E.13134
G1 X170.924 Y107.963 E.13841
G1 X172.387 Y111.887 E.13131
G1 X173.7 Y115.984 E.13489
G1 X174.842 Y120.248 E.13841
G1 X175.754 Y124.452 E.13488
G1 X176.448 Y128.582 E.13131
G1 X176.973 Y132.965 E.13841
G1 X177.271 Y137.143 E.13133
G1 X177.376 Y141.443 E.13486
G1 X176.978 Y142.819 E.04491
G1 X166.978 Y157.819 E.56525
G1 X165.927 Y158.689 E.04278
G1 X165 Y158.877 E.02966
G1 X142 Y158.877 E.72115
G1 X140.414 Y158.271 E.05323
G1 X73.414 Y98.271 E2.81997
G1 X72.623 Y96.5 E.06082
G1 X72.623 Y53.5 E1.34823
G1 X72.997 Y52.25 E.04091
M204 S1000
; printing object R208-Cam-Servo-Mount.stl id:0 copy 0
;WIPE_START
G1 F8640
G1 X74.06 Y51.317 E-.32658
G1 X75 Y51.123 E-.22162
G1 X76.091 Y51.123 E-.2518
;WIPE_END
G1 Z.6 F720
G1 X164.612 Y139.982 F10800
G1 Z.2 F720
G1 E.8 F2100
M204 S800
;TYPE:Perimeter
;WIDTH:0.419999
G1 F1200
G1 X164.416 Y140.009 E.0062
G1 X164.03 Y140.191 E.01338
G1 X163.719 Y140.491 E.01355
G1 X163.526 Y140.862 E.01311
G1 X163.459 Y141.279 E.01324
G1 X163.459 Y154.959 E.42893
G1 X143.541 Y154.959 E.62451
G1 X143.539 Y141.196 E.43153
G1 X143.438 Y140.767 E.01382
G1 X143.207 Y140.401 E.01357
G1 X142.959 Y140.184 E.01033
G1 X142.533 Y139.996 E.0146
G1 X142.221 Y139.959 E.00985
G1 X133.504 Y139.959 E.27331
G1 X133.483 Y139.184 E.02431
G1 X133.32 Y136.97 E.06961
G1 X133.032 Y134.639 E.07364
M73 P0 R73
G1 X132.64 Y132.389 E.07161
G1 X132.138 Y130.16 E.07164
G1 X131.527 Y127.958 E.07165
G1 X130.803 Y125.773 E.07217
G1 X129.986 Y123.66 E.07103
G1 X129.059 Y121.572 E.07163
G1 X128.03 Y119.532 E.07164
G1 X126.903 Y117.545 E.07162
G1 X125.679 Y115.616 E.07163
G1 X124.363 Y113.75 E.07159
G1 X122.956 Y111.95 E.07163
G1 X121.463 Y110.221 E.07163
G1 X119.893 Y108.574 E.07134
G1 X118.235 Y106.997 E.07175
G1 X116.5 Y105.503 E.07179
G1 X114.698 Y104.099 E.07163
G1 X112.83 Y102.785 E.07161
G1 X110.899 Y101.564 E.07163
G1 X109.652 Y100.858 E.04493
G1 X108.911 Y100.439 E.02669
G1 X106.87 Y99.414 E.07161
G1 X104.781 Y98.489 E.07163
G1 X102.649 Y97.669 E.07162
G1 X100.479 Y96.954 E.07164
G1 X98.277 Y96.346 E.07163
G1 X96.048 Y95.847 E.07162
G1 X93.797 Y95.458 E.07162
G1 X91.53 Y95.18 E.07161
G1 X89.251 Y95.014 E.07165
G1 X87.003 Y94.959 E.07051
G1 X76.541 Y94.959 E.32803
G1 X76.541 Y88.041 E.21691
G1 X87.12 Y88.041 E.3317
G1 X87.602 Y87.985 E.01521
G1 X87.994 Y87.792 E.0137
G1 X88.245 Y87.555 E.01082
G1 X88.466 Y87.161 E.01416
G1 X88.541 Y86.721 E.01399
G1 X88.541 Y63.733 E.72077
G1 X88.538 Y63.185 E.01718
G1 X88.434 Y62.757 E.01381
G1 X88.25 Y62.452 E.01117
G1 X87.942 Y62.173 E.01303
G1 X87.511 Y61.991 E.01467
G1 X87.223 Y61.959 E.00909
G1 X76.541 Y61.959 E.33493
G1 X76.541 Y55.042 E.21688
G1 X87.439 Y55.052 E.3417
G1 X91.114 Y55.14 E.11526
G1 X95.218 Y55.433 E.12901
G1 X99.304 Y55.922 E.12903
G1 X103.362 Y56.604 E.12902
G1 X107.383 Y57.479 E.12903
G1 X111.358 Y58.544 E.12903
G1 X115.278 Y59.797 E.12903
G1 X119.133 Y61.235 E.12901
G1 X122.916 Y62.855 E.12903
G1 X126.618 Y64.653 E.12904
G1 X130.229 Y66.625 E.129
G1 X133.743 Y68.767 E.12903
G1 X137.151 Y71.073 E.12902
G1 X140.445 Y73.539 E.12902
G1 X143.618 Y76.159 E.12902
G1 X146.663 Y78.927 E.12903
G1 X149.573 Y81.837 E.12903
G1 X152.341 Y84.882 E.12903
G1 X154.961 Y88.055 E.12902
G1 X157.427 Y91.349 E.12902
G1 X159.733 Y94.757 E.12902
G1 X161.875 Y98.271 E.12903
G1 X163.847 Y101.882 E.129
G1 X165.645 Y105.584 E.12904
G1 X167.265 Y109.367 E.12903
G1 X168.703 Y113.222 E.12901
G1 X169.956 Y117.142 E.12903
G1 X171.021 Y121.117 E.12903
G1 X171.896 Y125.138 E.12903
G1 X172.578 Y129.196 E.12902
G1 X173.067 Y133.282 E.12903
G1 X173.356 Y137.328 E.12718
G1 X173.422 Y139.959 E.08252
G1 X164.779 Y139.959 E.27099
G1 X164.672 Y139.974 E.00339
M204 S1000
G1 X164.611 Y140.364 F10800
M204 S800
G1 F1200
G1 X164.378 Y140.425 E.00755
G1 X164.104 Y140.62 E.01054
G1 X163.9 Y140.937 E.01182
G1 X163.836 Y141.279 E.01091
G1 X163.836 Y155.336 E.44075
G1 X143.164 Y155.336 E.64815
G1 X143.164 Y141.279 E.44075
M73 P1 R73
M73 Q1 S74
G1 X143.09 Y140.913 E.01171
G1 X142.893 Y140.617 E.01115
G1 X142.58 Y140.407 E.01182
G1 X142.221 Y140.336 E.01147
G1 X133.136 Y140.336 E.28485
G1 X133.107 Y139.212 E.03525
G1 X132.944 Y136.998 E.06961
G1 X132.661 Y134.703 E.0725
G1 X132.272 Y132.471 E.07104
G1 X131.775 Y130.261 E.07102
G1 X131.169 Y128.077 E.07106
G1 X130.45 Y125.907 E.07168
G1 X129.641 Y123.812 E.07041
G1 X128.722 Y121.742 E.07101
G1 X127.702 Y119.718 E.07106
G1 X126.584 Y117.747 E.07105
G1 X125.371 Y115.833 E.07105
G1 X124.065 Y113.982 E.07103
G1 X122.671 Y112.196 E.07104
G1 X121.19 Y110.481 E.07105
G1 X119.631 Y108.845 E.07086
G1 X117.987 Y107.281 E.07115
G1 X116.268 Y105.8 E.07114
G1 X114.481 Y104.407 E.07104
G1 X112.628 Y103.103 E.07104
G1 X110.713 Y101.892 E.07104
G1 X109.466 Y101.186 E.04493
G1 X108.741 Y100.776 E.02611
G1 X106.717 Y99.758 E.07104
G1 X104.645 Y98.841 E.07104
G1 X102.53 Y98.027 E.07106
G1 X100.379 Y97.317 E.07102
G1 X98.195 Y96.714 E.07104
G1 X95.983 Y96.219 E.07107
G1 X93.751 Y95.832 E.07103
G1 X91.502 Y95.556 E.07104
G1 X89.242 Y95.391 E.07105
G1 X87.003 Y95.336 E.07022
G1 X76.164 Y95.336 E.33985
G1 X76.164 Y87.664 E.24055
M73 Q1 S73
G1 X87.36 Y87.654 E.35104
G1 X87.66 Y87.556 E.0099
G1 X87.952 Y87.317 E.01183
G1 X88.11 Y87.035 E.01014
G1 X88.164 Y86.721 E.00999
G1 X88.164 Y63.279 E.73501
G1 X88.088 Y62.906 E.01194
G1 X87.86 Y62.585 E.01235
G1 X87.591 Y62.411 E.01004
G1 X87.222 Y62.336 E.01181
G1 X76.164 Y62.336 E.34672
G1 X76.164 Y54.665 E.24052
G1 X87.444 Y54.675 E.35368
G1 X91.132 Y54.763 E.11567
G1 X95.254 Y55.058 E.12957
G1 X99.358 Y55.548 E.12959
G1 X103.434 Y56.234 E.1296
G1 X107.472 Y57.112 E.12957
G1 X111.464 Y58.182 E.12958
G1 X115.401 Y59.44 E.12959
G1 X119.274 Y60.885 E.12961
G1 X123.073 Y62.512 E.12958
G1 X126.79 Y64.318 E.12957
G1 X130.418 Y66.298 E.12959
G1 X133.947 Y68.449 E.12958
G1 X137.37 Y70.766 E.1296
G1 X140.678 Y73.243 E.12957
G1 X143.865 Y75.874 E.12958
G1 X146.923 Y78.654 E.12958
G1 X149.846 Y81.577 E.12961
G1 X152.626 Y84.635 E.12958
G1 X155.257 Y87.822 E.12958
G1 X157.734 Y91.13 E.12957
G1 X160.051 Y94.553 E.1296
G1 X162.202 Y98.082 E.12958
G1 X164.182 Y101.71 E.12959
G1 X165.988 Y105.427 E.12957
G1 X167.615 Y109.227 E.12961
G1 X169.06 Y113.099 E.12958
G1 X170.318 Y117.036 E.12959
G1 X171.388 Y121.028 E.12958
G1 X172.266 Y125.066 E.12957
G1 X172.952 Y129.142 E.1296
G1 X173.442 Y133.246 E.12959
G1 X173.732 Y137.301 E.12747
G1 X173.808 Y140.336 E.09519
G1 X164.669 Y140.349 E.28655
M204 S1000
G1 X164.756 Y140.717 F10800
M204 S800
G1 F1200
G1 X164.71 Y140.717 E.00144
G1 X164.458 Y140.813 E.00846
G1 X164.276 Y141.018 E.0086
G1 X164.213 Y141.279 E.00842
G1 X164.213 Y155.713 E.45257
G1 X142.787 Y155.713 E.6718
G1 X142.786 Y141.243 E.4537
G1 X142.694 Y140.967 E.00912
G1 X142.479 Y140.775 E.00904
G1 X142.221 Y140.713 E.00832
G1 X132.768 Y140.713 E.29639
G1 X132.731 Y139.24 E.0462
G1 X132.568 Y137.026 E.06961
G1 X132.289 Y134.768 E.07134
G1 X131.904 Y132.554 E.07046
G1 X131.411 Y130.361 E.07048
G1 X130.813 Y128.2 E.0703
G1 X130.097 Y126.04 E.07135
G1 X129.296 Y123.965 E.06974
G1 X128.385 Y121.911 E.07045
G1 X127.374 Y119.904 E.07046
G1 X126.266 Y117.949 E.07046
G1 X125.063 Y116.051 E.07046
G1 X123.768 Y114.214 E.07047
G1 X122.385 Y112.442 E.07048
G1 X120.917 Y110.741 E.07045
G1 X119.369 Y109.116 E.07037
G1 X117.74 Y107.566 E.0705
G1 X116.036 Y106.097 E.07054
G1 X114.264 Y104.715 E.07046
G1 X112.426 Y103.422 E.07046
G1 X110.527 Y102.22 E.07047
G1 X109.281 Y101.514 E.0449
G1 X108.572 Y101.113 E.02554
G1 X106.564 Y100.103 E.07047
G1 X104.509 Y99.193 E.07047
G1 X102.412 Y98.385 E.07046
G1 X100.278 Y97.681 E.07046
G1 X98.112 Y97.082 E.07046
G1 X95.919 Y96.59 E.07047
G1 X93.705 Y96.207 E.07045
G1 X91.474 Y95.932 E.07048
G1 X89.233 Y95.768 E.07045
G1 X87.003 Y95.713 E.06994
G1 X75.787 Y95.713 E.35167
G1 X75.787 Y87.287 E.26419
G1 X87.304 Y87.281 E.36111
G1 X87.553 Y87.18 E.00843
G1 X87.717 Y86.995 E.00775
G1 X87.787 Y86.721 E.00887
G1 X87.78 Y63.187 E.73789
G1 X87.662 Y62.924 E.00904
G1 X87.443 Y62.758 E.00862
G1 X87.222 Y62.713 E.00707
G1 X75.787 Y62.713 E.35854
G1 X75.787 Y54.288 E.26416
G1 X87.449 Y54.298 E.36565
G1 X91.15 Y54.386 E.11607
G1 X95.29 Y54.682 E.13014
G1 X99.412 Y55.175 E.13016
G1 X103.505 Y55.863 E.13013
G1 X107.561 Y56.746 E.13015
G1 X111.571 Y57.82 E.13016
G1 X115.524 Y59.084 E.13013
G1 X119.414 Y60.535 E.13018
G1 X123.229 Y62.169 E.13013
G1 X126.963 Y63.982 E.13015
G1 X130.606 Y65.972 E.13015
G1 X134.151 Y68.132 E.13016
G1 X137.588 Y70.459 E.13014
G1 X140.911 Y72.946 E.13014
G1 X144.112 Y75.589 E.13016
G1 X147.184 Y78.381 E.13016
G1 X150.119 Y81.316 E.13014
G1 X152.911 Y84.388 E.13016
G1 X155.554 Y87.589 E.13016
G1 X158.041 Y90.912 E.13014
G1 X160.368 Y94.349 E.13014
G1 X162.528 Y97.894 E.13016
G1 X164.518 Y101.537 E.13015
G1 X166.331 Y105.271 E.13015
G1 X167.965 Y109.086 E.13013
G1 X169.416 Y112.976 E.13018
G1 X170.68 Y116.929 E.13013
G1 X171.754 Y120.939 E.13016
G1 X172.637 Y124.995 E.13015
G1 X173.325 Y129.088 E.13013
G1 X173.818 Y133.21 E.13016
G1 X174.108 Y137.274 E.12775
G1 X174.194 Y140.713 E.10786
G1 X164.816 Y140.716 E.29404
M204 S1000
G1 X164.779 Y141.09 F10800
M204 S800
;TYPE:External perimeter
G1 F1200
G1 X164.661 Y141.131 E.00392
G1 X164.59 Y141.279 E.00515
G1 X164.59 Y156.09 E.46439
G1 X142.41 Y156.09 E.69544
G1 X142.41 Y141.279 E.46439
G1 X142.362 Y141.153 E.00423
G1 X142.221 Y141.09 E.00484
G1 X132.4 Y141.09 E.30793
G1 X132.355 Y139.267 E.05718
G1 X132.192 Y137.054 E.06957
G1 X131.918 Y134.832 E.0702
G1 X131.537 Y132.639 E.06979
G1 X131.049 Y130.464 E.06989
G1 X130.454 Y128.315 E.06992
G1 X129.745 Y126.173 E.07074
G1 X128.952 Y124.118 E.06906
G1 X128.05 Y122.084 E.06976
G1 X127.046 Y120.09 E.07
G1 X125.947 Y118.151 E.06988
G1 X124.756 Y116.27 E.06981
G1 X123.471 Y114.446 E.06996
G1 X122.099 Y112.689 E.0699
G1 X120.645 Y111.003 E.06981
G1 X119.108 Y109.389 E.06988
G1 X117.493 Y107.851 E.06993
G1 X115.804 Y106.395 E.06992
G1 X114.047 Y105.024 E.06988
G1 X112.225 Y103.74 E.06989
G1 X110.343 Y102.549 E.06983
G1 X109.095 Y101.842 E.04497
G1 X108.402 Y101.45 E.02496
G1 X106.411 Y100.448 E.06989
G1 X104.373 Y99.545 E.06989
G1 X102.294 Y98.743 E.06987
G1 X100.177 Y98.044 E.0699
G1 X98.029 Y97.45 E.06988
G1 X95.855 Y96.962 E.06986
G1 X93.658 Y96.581 E.06991
G1 X91.446 Y96.308 E.06988
G1 X89.224 Y96.144 E.06986
G1 X87.003 Y96.09 E.06966
G1 X75.41 Y96.09 E.36349
G1 X75.41 Y86.91 E.28783
G1 X87.221 Y86.91 E.37032
G1 X87.351 Y86.858 E.00439
G1 X87.41 Y86.721 E.00468
G1 X87.41 Y63.279 E.73501
G1 X87.368 Y63.16 E.00396
M73 P1 R72
G1 X87.222 Y63.09 E.00508
G1 X75.41 Y63.09 E.37036
G1 X75.41 Y53.91 E.28783
M73 P2 R72
M73 Q2 S73
G1 X87.453 Y53.921 E.3776
G1 X91.168 Y54.009 E.11651
G1 X95.326 Y54.307 E.13071
G1 X99.465 Y54.802 E.1307
G1 X103.577 Y55.493 E.13074
G1 X107.65 Y56.379 E.13069
G1 X111.677 Y57.458 E.13072
G1 X115.648 Y58.728 E.13072
G1 X119.554 Y60.184 E.1307
G1 X123.386 Y61.825 E.1307
G1 X127.136 Y63.647 E.13072
G1 X130.795 Y65.645 E.13071
G1 X134.355 Y67.815 E.13072
G1 X137.807 Y70.151 E.13069
G1 X141.144 Y72.65 E.13072
G1 X144.359 Y75.304 E.13071
G1 X147.444 Y78.108 E.13071
G1 X150.392 Y81.056 E.13072
G1 X153.196 Y84.141 E.13071
G1 X155.85 Y87.356 E.13071
G1 X158.349 Y90.693 E.13072
G1 X160.685 Y94.145 E.13069
G1 X162.855 Y97.705 E.13072
G1 X164.853 Y101.364 E.13071
G1 X166.675 Y105.114 E.13072
G1 X168.316 Y108.946 E.1307
G1 X169.772 Y112.852 E.1307
G1 X171.042 Y116.823 E.13072
G1 X172.121 Y120.85 E.13072
G1 X173.007 Y124.923 E.13069
G1 X173.698 Y129.035 E.13074
G1 X174.193 Y133.174 E.1307
G1 X174.485 Y137.247 E.12803
G1 X174.58 Y141.09 E.12053
G1 X164.839 Y141.09 E.30542
M204 S1000
G1 X164.683 Y141.01 F10800
;WIPE_START
G1 F8640
G1 X164.661 Y141.131 E-.04218
G1 X164.59 Y141.279 E-.0379
G1 X164.59 Y144.397 E-.71992
;WIPE_END
G1 Z.6 F720
G1 X144.374 Y113.024 F10800
G1 Z.2 F720
G1 E.8 F2100
M204 S800
;TYPE:Perimeter
G1 F1200
G1 X144.893 Y112.721 E.01884
G1 X145.47 Y112.421 E.02039
G1 X146.061 Y112.15 E.02039
G1 X146.664 Y111.91 E.02035
G1 X147.279 Y111.699 E.02039
G1 X147.904 Y111.52 E.02038
G1 X148.536 Y111.371 E.02036
G1 X149.175 Y111.255 E.02036
G1 X149.819 Y111.17 E.02037
G1 X150.368 Y111.133 E.01725
G1 X150.912 Y111.104 E.01708
G1 X151.789 Y111.111 E.0275
G1 X152.411 Y111.155 E.01955
G1 X153.055 Y111.231 E.02033
G1 X153.745 Y111.349 E.02195
G1 X154.38 Y111.492 E.02041
G1 X155.006 Y111.667 E.02038
G1 X155.623 Y111.872 E.02039
G1 X156.229 Y112.108 E.02039
G1 X156.822 Y112.374 E.02038
G1 X157.401 Y112.669 E.02037
G1 X157.965 Y112.993 E.02039
G1 X158.512 Y113.344 E.02038
G1 X159.041 Y113.723 E.0204
G1 X159.551 Y114.127 E.0204
G1 X159.981 Y114.504 E.01793
G1 X160.506 Y115.009 E.02284
G1 X160.95 Y115.484 E.02039
G1 X161.369 Y115.981 E.02038
G1 X161.763 Y116.499 E.02041
G1 X162.13 Y117.035 E.02037
G1 X162.471 Y117.589 E.0204
G1 X162.783 Y118.159 E.02037
G1 X163.067 Y118.744 E.02039
G1 X163.321 Y119.343 E.0204
G1 X163.545 Y119.953 E.02037
G1 X163.738 Y120.574 E.02039
G1 X163.9 Y121.204 E.0204
G1 X164.031 Y121.841 E.02039
G1 X164.127 Y122.47 E.01995
G1 X164.195 Y123.13 E.0208
G1 X164.229 Y123.78 E.02041
G1 X164.231 Y124.43 E.02038
G1 X164.2 Y125.08 E.0204
G1 X164.137 Y125.727 E.02038
G1 X164.042 Y126.37 E.02038
G1 X163.915 Y127.008 E.0204
G1 X163.756 Y127.638 E.02037
G1 X163.566 Y128.26 E.02039
G1 X163.345 Y128.872 E.0204
G1 X163.094 Y129.471 E.02036
G1 X162.813 Y130.058 E.02041
G1 X162.504 Y130.63 E.02038
G1 X162.166 Y131.185 E.02037
G1 X161.801 Y131.724 E.02041
G1 X161.41 Y132.243 E.02037
G1 X160.993 Y132.742 E.02039
G1 X160.552 Y133.22 E.02039
G1 X160.088 Y133.675 E.02038
G1 X159.601 Y134.107 E.02041
G1 X159.094 Y134.513 E.02037
G1 X158.567 Y134.894 E.02039
G1 X158.022 Y135.248 E.02038
G1 X157.459 Y135.575 E.02041
