; generated by PrusaSlicer 2.6.1+linux-x64-GTK3 on 2023-09-26 at 03:19:10 UTC


;
;
; 

; external perimeters extrusion width = 0.60mm
; perimeters extrusion width = 0.50mm
; infill extrusion width = 0.50mm
; solid infill extrusion width = 0.50mm
; top infill extrusion width = 0.45mm
; first layer extrusion width = 0.42mm

M73 P0 R51
M73 Q0 S52
M201 X1000 Y1000 Z200 E5000 ; sets maximum accelerations, mm/sec^2
M203 X200 Y200 Z12 E120 ; sets maximum feedrates, mm / sec
M204 S1250 T1250 ; sets acceleration (S) and retract acceleration (R), mm/sec^2
M205 X8.00 Y8.00 Z0.40 E4.50 ; sets the jerk limits, mm/sec
M205 S0 T0 ; sets the minimum extruding and travel feed rate, mm/sec
;TYPE:Custom
M862.3 P "MK3S" ; printer model check
M862.1 P0.4 ; nozzle diameter check
M115 U3.12.2 ; tell printer latest fw version
G90 ; use absolute coordinates
M83 ; extruder relative mode
M104 S215 ; set extruder temp
M140 S60 ; set bed temp
M190 S60 ; wait for bed temp
M109 S215 ; wait for extruder temp
G28 W ; home all without mesh bed level
G80 ; mesh bed leveling

G1 Z0.2 F720
G1 Y-3 F1000 ; go outside print area
G92 E0
G1 X60 E9 F1000 ; intro line
G1 X100 E12.5 F1000 ; intro line

G92 E0
M221 S95

; Don't change E values below. Excessive value can damage the printer.

M907 E538 ; set extruder motor current
G21 ; set units to millimeters
G90 ; use absolute coordinates
M83 ; use relative distances for extrusion
M900 K0.05 ; Filament gcode LA 1.5
M900 K30 ; Filament gcode LA 1.0
M107
;LAYER_CHANGE
;Z:0.2
;HEIGHT:0.2
;BEFORE_LAYER_CHANGE
G92 E0.0
;0.2


G1 E-.8 F2100
G1 Z.4 F720
;AFTER_LAYER_CHANGE
;0.2
G1 X77.425 Y88.35 F10800
G1 Z.2 F720
G1 E.8 F2100
M204 S800
;TYPE:Skirt/Brim
;WIDTH:0.42
G1 F1200
G1 X79.059 Y87.199 E.06267
G1 X80.406 Y86.479 E.04789
G1 X82.271 Y85.76 E.06267
G1 X84.333 Y85.288 E.06632
G1 X86.5 Y85.123 E.06814
G1 X163.558 Y85.124 E2.4161
G1 X164.967 Y85.199 E.04424
G1 X166.362 Y85.411 E.04424
G1 X167.729 Y85.76 E.04424
G1 X168.948 Y86.196 E.04059
G1 X170.941 Y87.199 E.06996
G1 X172.111 Y87.988 E.04425
G1 X173.198 Y88.887 E.04423
G1 X174.113 Y89.802 E.04057
G1 X175.012 Y90.889 E.04423
G1 X176.206 Y92.774 E.06996
G1 X176.76 Y93.944 E.04059
G1 X177.24 Y95.271 E.04425
G1 X177.589 Y96.638 E.04424
G1 X177.801 Y98.033 E.04424
G1 X177.877 Y99.5 E.04606
G1 X177.862 Y111.147 E.36518
G1 X177.612 Y113.247 E.06631
G1 X177.016 Y115.398 E.06998
G1 X176.471 Y116.699 E.04423
G1 X175.486 Y118.439 E.06269
G1 X174.65 Y119.575 E.04422
G1 X173.624 Y120.707 E.0479
G1 X172.111 Y122.012 E.06265
G1 X170.941 Y122.801 E.04425
G1 X169.594 Y123.521 E.04789
G1 X167.729 Y124.24 E.06267
G1 X165.667 Y124.712 E.06632
G1 X163.5 Y124.877 E.06814
G1 X86.5 Y124.877 E2.41428
G1 X85.033 Y124.801 E.04606
M73 Q0 S51
G1 X83.063 Y124.46 E.06269
G1 X81.052 Y123.804 E.06632
G1 X79.159 Y122.861 E.06631
G1 X77.425 Y121.65 E.06631
G1 X75.887 Y120.198 E.06632
G1 X74.579 Y118.536 E.06631
G1 X73.529 Y116.699 E.06634
G1 X72.76 Y114.729 E.06631
G1 X72.288 Y112.667 E.06632
G1 X72.123 Y110.5 E.06814
G1 X72.138 Y98.853 E.36518
G1 X72.388 Y96.753 E.06631
G1 X72.76 Y95.271 E.04791
G1 X73.479 Y93.406 E.06267
G1 X74.199 Y92.059 E.04789
G1 X75.35 Y90.425 E.06267
G1 X76.376 Y89.293 E.0479
G1 X77.38 Y88.39 E.04234
M204 S1000
; printing object R208-Sensor-Bar.stl id:0 copy 0
;WIPE_START
G1 F8640
G1 X79.059 Y87.199 E-.47532
G1 X80.299 Y86.536 E-.32468
;WIPE_END
G1 Z.6 F720
G1 X164.597 Y89.101 F10800
G1 Z.2 F720
G1 E.8 F2100
M204 S800
;TYPE:Perimeter
;WIDTH:0.419999
G1 F1200
G1 X165.114 Y89.169 E.01635
G1 X165.619 Y89.26 E.01609
G1 X166.119 Y89.377 E.0161
G1 X166.613 Y89.518 E.01611
G1 X167.099 Y89.682 E.01608
G1 X167.576 Y89.871 E.01609
G1 X168.044 Y90.082 E.0161
G1 X168.5 Y90.316 E.01607
G1 X168.945 Y90.573 E.01611
G1 X169.376 Y90.85 E.01606
G1 X169.793 Y91.149 E.01609
G1 X170.195 Y91.467 E.01607
G1 X170.58 Y91.805 E.01606
G1 X170.949 Y92.161 E.01608
G1 X171.299 Y92.535 E.01606
G1 X171.631 Y92.925 E.01606
G1 X171.943 Y93.331 E.01605
G1 X172.235 Y93.752 E.01606
G1 X172.506 Y94.186 E.01604
G1 X172.755 Y94.633 E.01604
G1 X172.982 Y95.092 E.01606
G1 X173.187 Y95.561 E.01605
G1 X173.368 Y96.039 E.01603
G1 X173.525 Y96.526 E.01604
G1 X173.658 Y97.019 E.01601
G1 X173.852 Y98.023 E.03206
G1 X173.947 Y99.04 E.03203
G1 X173.947 Y110.96 E.37374
G1 X173.912 Y111.47 E.01603
G1 X173.768 Y112.481 E.03202
G1 X173.525 Y113.474 E.03205
G1 X173.368 Y113.961 E.01604
G1 X173.187 Y114.439 E.01603
G1 X172.982 Y114.908 E.01605
G1 X172.755 Y115.367 E.01606
G1 X172.506 Y115.814 E.01604
G1 X172.235 Y116.248 E.01604
G1 X171.943 Y116.669 E.01606
G1 X171.631 Y117.075 E.01605
G1 X171.299 Y117.465 E.01606
G1 X170.949 Y117.839 E.01606
G1 X170.58 Y118.195 E.01608
G1 X170.195 Y118.533 E.01606
G1 X169.793 Y118.851 E.01607
G1 X169.376 Y119.15 E.01609
G1 X168.945 Y119.427 E.01606
G1 X168.5 Y119.684 E.01611
G1 X168.044 Y119.918 E.01607
G1 X167.576 Y120.129 E.0161
G1 X167.099 Y120.318 E.01609
G1 X166.613 Y120.482 E.01608
G1 X166.119 Y120.623 E.01611
G1 X165.554 Y120.754 E.01819
G1 X165.034 Y120.845 E.01655
G1 X164.525 Y120.908 E.01608
G1 X164.013 Y120.946 E.0161
G1 X163.481 Y120.959 E.01669
G1 X86.519 Y120.959 E2.41309
G1 X85.987 Y120.946 E.01669
G1 X85.475 Y120.908 E.0161
G1 X84.965 Y120.845 E.01611
G1 X84.46 Y120.757 E.01607
G1 X83.959 Y120.645 E.0161
G1 X83.464 Y120.508 E.0161
G1 X82.977 Y120.347 E.01608
G1 X82.498 Y120.162 E.0161
G1 X82.029 Y119.954 E.01609
G1 X81.57 Y119.723 E.01611
G1 X81.123 Y119.47 E.0161
G1 X80.69 Y119.196 E.01607
G1 X80.27 Y118.9 E.01611
G1 X79.865 Y118.584 E.01611
G1 X79.477 Y118.249 E.01607
G1 X79.105 Y117.895 E.0161
G1 X78.751 Y117.523 E.0161
G1 X78.416 Y117.135 E.01607
G1 X78.1 Y116.73 E.01611
G1 X77.804 Y116.31 E.01611
G1 X77.53 Y115.877 E.01607
G1 X77.277 Y115.43 E.0161
G1 X77.046 Y114.971 E.01611
G1 X76.838 Y114.502 E.01609
G1 X76.653 Y114.023 E.0161
G1 X76.492 Y113.536 E.01608
G1 X76.355 Y113.041 E.0161
G1 X76.243 Y112.54 E.0161
G1 X76.155 Y112.035 E.01607
G1 X76.092 Y111.525 E.01611
G1 X76.054 Y111.013 E.0161
G1 X76.041 Y110.481 E.01669
G1 X76.041 Y99.542 E.34298
G1 X76.088 Y98.526 E.03189
G1 X76.148 Y98.018 E.01604
G1 X76.233 Y97.513 E.01606
G1 X76.343 Y97.013 E.01605
G1 X76.477 Y96.519 E.01605
G1 X76.634 Y96.034 E.01598
G1 X76.823 Y95.539 E.01661
G1 X77.046 Y95.029 E.01745
G1 X77.277 Y94.57 E.01611
G1 X77.53 Y94.123 E.0161
G1 X77.804 Y93.69 E.01607
G1 X78.1 Y93.27 E.01611
G1 X78.416 Y92.865 E.01611
G1 X78.751 Y92.477 E.01607
G1 X79.105 Y92.105 E.0161
G1 X79.477 Y91.751 E.0161
G1 X79.865 Y91.416 E.01607
G1 X80.27 Y91.1 E.01611
G1 X80.69 Y90.804 E.01611
G1 X81.123 Y90.53 E.01607
G1 X81.57 Y90.277 E.0161
G1 X82.028 Y90.046 E.01608
G1 X82.498 Y89.838 E.01612
G1 X82.977 Y89.653 E.0161
G1 X83.464 Y89.492 E.01608
G1 X83.959 Y89.355 E.0161
G1 X84.46 Y89.243 E.0161
G1 X84.965 Y89.155 E.01607
G1 X85.475 Y89.092 E.01611
G1 X85.987 Y89.054 E.0161
G1 X86.519 Y89.041 E.01669
G1 X163.751 Y89.048 E2.42155
G1 X164.538 Y89.094 E.02472
M204 S1000
M73 P1 R51
M73 Q1 S51
G1 X164.646 Y88.728 F10800
M204 S800
G1 F1200
G1 X165.178 Y88.797 E.01682
G1 X165.729 Y88.899 E.01757
G1 X166.22 Y89.013 E.0158
G1 X166.731 Y89.159 E.01666
G1 X167.235 Y89.33 E.01669
G1 X167.729 Y89.526 E.01666
G1 X168.214 Y89.746 E.0167
G1 X168.686 Y89.988 E.01663
G1 X169.146 Y90.254 E.01666
G1 X169.593 Y90.542 E.01667
G1 X170.025 Y90.852 E.01667
G1 X170.441 Y91.182 E.01665
G1 X170.861 Y91.552 E.01755
G1 X171.222 Y91.901 E.01574
G1 X171.585 Y92.288 E.01664
G1 X171.928 Y92.693 E.01664
G1 X172.251 Y93.114 E.01664
G1 X172.554 Y93.55 E.01665
G1 X172.834 Y94 E.01662
G1 X173.098 Y94.475 E.01704
G1 X173.327 Y94.939 E.01622
G1 X173.538 Y95.425 E.01661
G1 X173.726 Y95.921 E.01663
G1 X173.888 Y96.425 E.0166
G1 X174.026 Y96.937 E.01663
G1 X174.139 Y97.454 E.01659
G1 X174.226 Y97.977 E.01662
G1 X174.288 Y98.503 E.01661
G1 X174.324 Y99.031 E.01659
G1 X174.336 Y110.486 E.35916
G1 X174.322 Y111.032 E.01713
G1 X174.283 Y111.562 E.01666
G1 X174.218 Y112.09 E.01668
G1 X174.127 Y112.614 E.01668
G1 X174.011 Y113.133 E.01667
G1 X173.869 Y113.645 E.01666
G1 X173.702 Y114.15 E.01668
G1 X173.511 Y114.647 E.01669
G1 X173.295 Y115.133 E.01668
G1 X173.056 Y115.608 E.01667
G1 X172.794 Y116.071 E.01668
G1 X172.509 Y116.52 E.01667
G1 X172.203 Y116.955 E.01668
G1 X171.876 Y117.374 E.01666
G1 X171.529 Y117.777 E.01667
G1 X171.162 Y118.162 E.01668
G1 X170.777 Y118.529 E.01668
G1 X170.374 Y118.876 E.01667
G1 X169.955 Y119.203 E.01666
G1 X169.52 Y119.509 E.01668
G1 X169.071 Y119.794 E.01667
G1 X168.608 Y120.056 E.01668
G1 X168.133 Y120.295 E.01667
G1 X167.647 Y120.511 E.01668
G1 X167.15 Y120.702 E.01669
G1 X166.645 Y120.869 E.01668
G1 X166.133 Y121.011 E.01666
G1 X165.628 Y121.124 E.01623
G1 X165.089 Y121.218 E.01716
G1 X164.562 Y121.283 E.01665
G1 X164.032 Y121.322 E.01666
G1 X163.486 Y121.336 E.01713
G1 X86.514 Y121.336 E2.4134
G1 X85.968 Y121.322 E.01713
G1 X85.438 Y121.283 E.01666
G1 X84.91 Y121.218 E.01668
G1 X84.386 Y121.127 E.01668
G1 X83.867 Y121.011 E.01667
G1 X83.355 Y120.869 E.01666
G1 X82.85 Y120.702 E.01668
G1 X82.353 Y120.511 E.01669
G1 X81.867 Y120.295 E.01668
G1 X81.392 Y120.056 E.01667
G1 X80.929 Y119.794 E.01668
G1 X80.48 Y119.509 E.01667
G1 X80.045 Y119.203 E.01668
G1 X79.626 Y118.876 E.01666
G1 X79.223 Y118.529 E.01667
G1 X78.838 Y118.162 E.01668
G1 X78.471 Y117.777 E.01668
G1 X78.124 Y117.374 E.01667
G1 X77.797 Y116.955 E.01666
G1 X77.491 Y116.52 E.01668
G1 X77.206 Y116.071 E.01667
G1 X76.944 Y115.608 E.01668
G1 X76.705 Y115.133 E.01667
G1 X76.489 Y114.647 E.01668
G1 X76.298 Y114.15 E.01669
G1 X76.131 Y113.645 E.01668
G1 X75.989 Y113.133 E.01666
G1 X75.873 Y112.614 E.01667
G1 X75.782 Y112.09 E.01668
G1 X75.717 Y111.562 E.01668
G1 X75.678 Y111.032 E.01666
G1 X75.664 Y110.486 E.01713
G1 X75.664 Y99.514 E.34402
G1 X75.678 Y98.968 E.01713
G1 X75.717 Y98.438 E.01666
G1 X75.782 Y97.91 E.01668
G1 X75.873 Y97.386 E.01668
G1 X75.989 Y96.867 E.01667
G1 X76.131 Y96.355 E.01666
G1 X76.298 Y95.85 E.01668
G1 X76.495 Y95.341 E.01711
G1 X76.705 Y94.867 E.01626
G1 X76.944 Y94.392 E.01667
G1 X77.206 Y93.929 E.01668
G1 X77.491 Y93.48 E.01667
G1 X77.797 Y93.045 E.01668
G1 X78.124 Y92.626 E.01666
G1 X78.471 Y92.223 E.01667
G1 X78.838 Y91.838 E.01668
G1 X79.223 Y91.471 E.01668
G1 X79.626 Y91.124 E.01667
G1 X80.045 Y90.797 E.01666
G1 X80.48 Y90.491 E.01668
G1 X80.929 Y90.206 E.01667
G1 X81.392 Y89.944 E.01668
G1 X81.867 Y89.705 E.01667
G1 X82.353 Y89.489 E.01668
G1 X82.85 Y89.298 E.01669
G1 X83.355 Y89.131 E.01668
G1 X83.867 Y88.989 E.01666
G1 X84.386 Y88.873 E.01667
G1 X84.91 Y88.782 E.01668
G1 X85.438 Y88.717 E.01668
G1 X85.968 Y88.678 E.01666
G1 X86.514 Y88.664 E.01713
G1 X163.762 Y88.671 E2.42205
G1 X164.586 Y88.72 E.02588
M204 S1000
M73 P1 R50
G1 X164.722 Y88.357 F10800
M204 S800
G1 F1200
G1 X165.243 Y88.426 E.01648
G1 X165.812 Y88.531 E.01814
G1 X166.321 Y88.65 E.01639
G1 X166.85 Y88.801 E.01725
G1 X167.371 Y88.979 E.01726
G1 X167.882 Y89.181 E.01723
G1 X168.383 Y89.409 E.01726
G1 X168.872 Y89.66 E.01723
G1 X169.348 Y89.936 E.01725
G1 X169.81 Y90.234 E.01724
G1 X170.257 Y90.554 E.01724
G1 X170.687 Y90.896 E.01723
G1 X171.121 Y91.279 E.01815
G1 X171.495 Y91.641 E.01632
G1 X171.87 Y92.042 E.01721
G1 X172.225 Y92.461 E.01722
G1 X172.56 Y92.897 E.01724
G1 X172.872 Y93.348 E.01719
G1 X173.162 Y93.814 E.01721
G1 X173.435 Y94.306 E.01764
G1 X173.672 Y94.786 E.01678
G1 X173.89 Y95.289 E.01719
G1 X174.084 Y95.803 E.01723
G1 X174.252 Y96.325 E.01719
G1 X174.394 Y96.854 E.01717
G1 X174.511 Y97.39 E.0172
G1 X174.601 Y97.931 E.0172
G1 X174.664 Y98.475 E.01717
G1 X174.701 Y99.021 E.01716
G1 X174.713 Y110.49 E.3596
G1 X174.699 Y111.05 E.01756
G1 X174.659 Y111.599 E.01726
G1 X174.591 Y112.145 E.01725
G1 X174.497 Y112.688 E.01728
G1 X174.377 Y113.224 E.01722
G1 X174.23 Y113.755 E.01728
G1 X174.057 Y114.277 E.01724
G1 X173.859 Y114.791 E.01727
G1 X173.636 Y115.294 E.01725
G1 X173.389 Y115.786 E.01726
G1 X173.117 Y116.264 E.01724
G1 X172.823 Y116.729 E.01725
G1 X172.506 Y117.179 E.01726
G1 X172.168 Y117.613 E.01725
G1 X171.808 Y118.03 E.01727
G1 X171.429 Y118.429 E.01725
G1 X171.03 Y118.808 E.01725
G1 X170.613 Y119.168 E.01727
G1 X170.179 Y119.506 E.01725
G1 X169.729 Y119.823 E.01726
G1 X169.264 Y120.117 E.01725
G1 X168.786 Y120.389 E.01724
G1 X168.294 Y120.636 E.01726
G1 X167.791 Y120.859 E.01725
G1 X167.277 Y121.057 E.01727
G1 X166.755 Y121.23 E.01724
G1 X166.224 Y121.377 E.01728
G1 X165.701 Y121.494 E.0168
G1 X165.145 Y121.591 E.0177
G1 X164.599 Y121.659 E.01725
G1 X164.05 Y121.699 E.01726
G1 X163.49 Y121.713 E.01756
G1 X86.51 Y121.713 E2.41365
G1 X85.95 Y121.699 E.01756
G1 X85.401 Y121.659 E.01726
G1 X84.855 Y121.591 E.01725
G1 X84.312 Y121.497 E.01728
G1 X83.776 Y121.377 E.01722
G1 X83.245 Y121.23 E.01728
G1 X82.723 Y121.057 E.01724
G1 X82.209 Y120.859 E.01727
G1 X81.706 Y120.636 E.01725
G1 X81.214 Y120.389 E.01726
G1 X80.736 Y120.117 E.01724
G1 X80.271 Y119.823 E.01725
G1 X79.821 Y119.506 E.01726
G1 X79.387 Y119.167 E.01727
G1 X78.97 Y118.808 E.01725
G1 X78.571 Y118.429 E.01725
G1 X78.192 Y118.03 E.01725
G1 X77.833 Y117.613 E.01725
G1 X77.494 Y117.179 E.01727
G1 X77.177 Y116.729 E.01726
G1 X76.883 Y116.264 E.01725
G1 X76.611 Y115.786 E.01724
G1 X76.364 Y115.294 E.01726
G1 X76.141 Y114.791 E.01725
G1 X75.943 Y114.277 E.01727
G1 X75.77 Y113.755 E.01724
G1 X75.623 Y113.224 E.01728
G1 X75.503 Y112.687 E.01725
G1 X75.409 Y112.145 E.01725
G1 X75.341 Y111.599 E.01725
G1 X75.301 Y111.05 E.01726
G1 X75.287 Y110.49 E.01756
G1 X75.287 Y99.51 E.34427
G1 X75.301 Y98.95 E.01756
G1 X75.341 Y98.401 E.01726
G1 X75.409 Y97.855 E.01725
G1 X75.503 Y97.312 E.01728
G1 X75.623 Y96.776 E.01722
G1 X75.77 Y96.245 E.01728
G1 X75.943 Y95.723 E.01724
G1 X76.147 Y95.196 E.01772
G1 X76.364 Y94.706 E.0168
G1 X76.611 Y94.214 E.01726
G1 X76.883 Y93.736 E.01724
G1 X77.177 Y93.271 E.01725
G1 X77.494 Y92.821 E.01726
G1 X77.832 Y92.387 E.01725
G1 X78.192 Y91.97 E.01727
G1 X78.571 Y91.571 E.01725
G1 X78.97 Y91.192 E.01725
G1 X79.387 Y90.832 E.01727
G1 X79.821 Y90.494 E.01725
G1 X80.271 Y90.177 E.01726
G1 X80.736 Y89.883 E.01725
G1 X81.214 Y89.611 E.01724
G1 X81.706 Y89.364 E.01726
G1 X82.209 Y89.141 E.01725
G1 X82.723 Y88.943 E.01727
G1 X83.245 Y88.77 E.01724
G1 X83.776 Y88.623 E.01728
G1 X84.313 Y88.503 E.01725
G1 X84.855 Y88.409 E.01725
G1 X85.401 Y88.341 E.01725
G1 X85.95 Y88.301 E.01726
G1 X86.51 Y88.287 E.01756
G1 X163.197 Y88.294 E2.40446
G1 X163.886 Y88.301 E.0216
G1 X164.663 Y88.353 E.02442
M204 S1000
G1 X164.748 Y87.982 F10800
M204 S800
;TYPE:External perimeter
G1 F1200
G1 X165.307 Y88.054 E.01767
G1 X165.895 Y88.163 E.01875
G1 X166.421 Y88.287 E.01694
G1 X166.968 Y88.443 E.01783
G1 X167.506 Y88.627 E.01783
G1 X168.035 Y88.837 E.01785
G1 X168.553 Y89.072 E.01783
G1 X169.104 Y89.358 E.01946
G1 X169.55 Y89.617 E.01617
G1 X170.027 Y89.926 E.01782
G1 X170.489 Y90.257 E.01782
G1 X170.933 Y90.611 E.0178
G1 X171.381 Y91.006 E.01873
G1 X171.768 Y91.381 E.0169
G1 X172.156 Y91.796 E.01781
G1 X172.523 Y92.229 E.0178
G1 X172.868 Y92.68 E.0178
G1 X173.191 Y93.146 E.01778
G1 X173.49 Y93.628 E.01778
G1 X173.771 Y94.136 E.0182
G1 X174.016 Y94.633 E.01737
G1 X174.242 Y95.154 E.01781
G1 X174.442 Y95.684 E.01776
G1 X174.615 Y96.224 E.01778
G1 X174.762 Y96.772 E.01779
G1 X174.882 Y97.325 E.01774
G1 X174.975 Y97.884 E.01777
G1 X175.04 Y98.447 E.01777
G1 X175.078 Y99.012 E.01776
G1 X175.09 Y110.495 E.36004
G1 X175.076 Y111.069 E.018
G1 X175.034 Y111.636 E.01783
G1 X174.964 Y112.201 E.01785
G1 X174.867 Y112.761 E.01782
G1 X174.743 Y113.316 E.01783
G1 X174.591 Y113.864 E.01783
G1 X174.412 Y114.405 E.01787
G1 X174.208 Y114.935 E.01781
G1 X173.977 Y115.455 E.01784
G1 X173.721 Y115.963 E.01784
G1 X173.441 Y116.458 E.01783
G1 X173.137 Y116.939 E.01784
G1 X172.809 Y117.404 E.01784
G1 X172.459 Y117.853 E.01785
G1 X172.088 Y118.283 E.01781
G1 X171.695 Y118.695 E.01785
G1 X171.283 Y119.088 E.01785
G1 X170.853 Y119.459 E.01781
G1 X170.404 Y119.809 E.01785
G1 X169.939 Y120.137 E.01784
G1 X169.458 Y120.441 E.01784
G1 X168.963 Y120.721 E.01783
G1 X168.455 Y120.977 E.01784
G1 X167.935 Y121.208 E.01784
G1 X167.405 Y121.412 E.01781
G1 X166.864 Y121.591 E.01787
G1 X166.316 Y121.743 E.01783
G1 X165.775 Y121.864 E.01738
